{"type":"map","version":"1.10","tiledversion":"1.10.2","orientation":"orthogonal","renderorder":"right-down","width":112,"height":64,"tilewidth":16,"tileheight":16,"infinite":false,"nextlayerid":5,"nextobjectid":160,"properties":[{"name":"kit","type":"string","value":"seoul"},{"name":"source","type":"string","value":"jongno.map.json"},{"name":"states","type":"string","value":"[{\"id\": \"day\", \"until\": \"node:21-m19\", \"light\": \"day\"}, {\"id\": \"night\", \"when\": \"node:21-m19\", \"until\": \"node:21-m19b\", \"light\": \"night\"}, {\"id\": \"after\", \"when\": \"node:21-m19b\", \"light\": \"day\"}]"},{"name":"ways","type":"string","value":"{\"nodes\":[[26.0,26.0],[26.0,6.0],[2.0,30.0],[78.0,30.0],[110.0,30.0],[2.0,42.0],[54.0,42.0],[86.0,42.0],[110.0,42.0],[50.0,26.0],[66.0,26.0],[78.0,18.0],[110.0,18.0],[54.0,62.0],[86.0,62.0]],\"edges\":[[0,1],[2,3],[3,4],[3,11],[5,6],[6,7],[6,13],[7,8],[7,14],[9,10],[11,12]]}"},{"name":"paths","type":"string","value":"0000000000000000000000000000000000000000000000000000000000000000000000000000000000000000000000000000000000000000|0000000000000000000000000000000000000000000000000000000000000000000000000000000000000000000000000000000000000000|0000000000000000000000000000000000000000000000000000000000000000000000000000000000000000000000000000000000000000|0000000000000000000000000000000000000000000000000000000000000000000000000000000000000000000000000000000000000000|0000000000000000000000000000000000000000000000000000000000000000000000000000000000000000000000000000000000000000|0000000000000000000000000110000000000000000000000000000000000000000000000000000000000000000000000000000000000000|0000000000000000000000000110000000000000000000000000000000000000000000000000000000000000000000000000000000000000|0000000000000000000000000110000000000000000000000000000000000000000000000000000000000000000000000000000000000000|0000000000000000000000000110000000000000000000000000000000000000000000000000000000000000000000000000000000000000|0000000000000000000000000110000000000000000000000000000000000000000000000000000000000000000000000000000000000000|0000000000000000000000000110000000000000000000000000000000000000000000000000000000000000000000000000000000000000|0000000000000000000000000110000000000000000000000000000000000000000000000000000000000000000000000000000000000000|0000000000000000000000000110000000000000000000000000000000000000000000000000000000000000000000000000000000000000|0000000000000000000000000110000000000000000000000000000000000000000000000000000000000000000000000000000000000000|0000000000000000000000000110000000000000000000000000000000000000000000000000000000000000000000000000000000000000|0000000000000000000000000110000000000000000000000000000000000000000000000000000000000000000000000000000000000000|0000000000000000000000000110000000000000000000000000000000000000000000000000000000000000000000000000000000000000|0000000000000000000000000110000000000000000000000000000000000000000000000000011111111111111111111111111111111110|0000000000000000000000000110000000000000000000000000000000000000000000000000011111111111111111111111111111111110|0000000000000000000000000110000000000000000000000000000000000000000000000000011000000000000000000000000000000000|0000000000000000000000000110000000000000000000000000000000000000000000000000011000000000000000000000000000000000|0000000000000000000000000110000000000000000000000000000000000000000000000000011000000000000000000000000000000000|0000000000000000000000000110000000000000000000000000000000000000000000000000011000000000000000000000000000000000|0000000000000000000000000110000000000000000000000000000000000000000000000000011000000000000000000000000000000000|0000000000000000000000000110000000000000000000001111111111111111111100000000011000000000000000000000000000000000|0000000000000000000000000110000000000000000000001111111111111111111100000000011000000000000000000000000000000000|0000000000000000000000000110000000000000000000001111111111111111111100000000011000000000000000000000000000000000|0000000000000000000000000000000000000000000000001111111111111111111100000000011000000000000000000000000000000000|1111111111111111111111111111111111111111111111111111111111111111111111111111111111111111111111111111111111111111|1111111111111111111111111111111111111111111111111111111111111111111111111111111111111111111111111111111111111111|1111111111111111111111111111111111111111111111111111111111111111111111111111111111111111111111111111111111111111|1111111111111111111111111111111111111111111111111111111111111111111111111111111111111111111111111111111111111111|0000000000000000000000000000000000000000000000000000000000000000000000000000000000000000000000000000000000000000|0000000000000000000000000000000000000000000000000000000000000000000000000000000000000000000000000000000000000000|0000000000000000000000000000000000000000000000000000000000000000000000000000000000000000000000000000000000000000|0000000000000000000000000000000000000000000000000000000000000000000000000000000000000000000000000000000000000000|0000000000000000000000000000000000000000000000000000000000000000000000000000000000000000000000000000000000000000|0000000000000000000000000000000000000000000000000000000000000000000000000000000000000000000000000000000000000000|0000000000000000000000000000000000000000000000000000000000000000000000000000000000000000000000000000000000000000|0000000000000000000000000000000000000000000000000000000000000000000000000000000000000000000000000000000000000000|1111111111111111111111111111111111111111111111111111111111111111111111111111111111111111111111111111111111111111|1111111111111111111111111111111111111111111111111111111111111111111111111111111111111111111111111111111111111111|1111111111111111111111111111111111111111111111111111111111111111111111111111111111111111111111111111111111111111|1111111111111111111111111111111111111111111111111111111111111111111111111111111111111111111111111111111111111111|0000000000000000000000000000000000000000000000000000111100000000000000000000111111111111111111111111000000000000|0000000000000000000000000000000000000000000000000000111100000000000000000000111111111111111111111111000000000000|0000000000000000000000000000000000000000000000000000111100000000000000000000111111111111111111111111000000000000|0000000000000000000000000000000000000000000000000000111100000000000000000000111111111111111111111111000000000000|0000000000000000000000000000000000000000000000000000111100000000000000000000111111111111111111111111000000000000|0000000000000000000000000000000000000000000000000000111100000000000000000000111111111111111111111111000000000000|0000000000000000000000000000000000000000000000000000111100000000000000000000111111111111111111111111000000000000|0000000000000000000000000000000000000000000000000000111100000000000000000000111111111111111111111111000000000000|0000000000000000000000000000000000000000000000000000111100000000000000000000111111111111111111111111000000000000|0000000000000000000000000000000000000000000000000000111100000000000000000000111111111111111111111111000000000000|0000000000000000000000000000000000000000000000000000111100000000000000000000111111111111111111111111000000000000|0000000000000000000000000000000000000000000000000000111100000000000000000000111111111111111111111111000000000000|0000000000000000000000000000000000000000000000000000111100000000000000000000111111111111111111111111000000000000|0000000000000000000000000000000000000000000000000000111100000000000000000000111111111111111111111111000000000000|0000000000000000000000000000000000000000000000000000111100000000000000000000111111111111111111111111000000000000|0000000000000000000000000000000000000000000000000000111100000000000000000000111111111111111111111111000000000000|0000000000000000000000000000000000000000000000000000111100000000000000000000111111111111111111111111000000000000|0000000000000000000000000000000000000000000000000000111100000000000000000000111111111111111111111111000000000000|0000000000000000000000000000000000000000000000000000111100000000000000000000111111111111111111111111000000000000|0000000000000000000000000000000000000000000000000000111100000000000000000000111111111111111111111111000000000000"}],"tilesets":[{"firstgid":1,"name":"seoul_tiles","tilewidth":16,"tileheight":16,"columns":3,"tilecount":51,"margin":0,"spacing":0,"image":"../../../../assets/tk/seoul/tiles.png","imagewidth":48,"imageheight":272},{"firstgid":52,"name":"_swatch","tilewidth":16,"tileheight":16,"columns":64,"tilecount":64,"margin":0,"spacing":0,"image":"swatch.png","imagewidth":1024,"imageheight":16},{"firstgid":116,"name":"tiles","tilewidth":16,"tileheight":16,"columns":5,"tilecount":5,"margin":0,"spacing":0,"image":"../../../../assets/tk/jade/tiles.png","imagewidth":80,"imageheight":16},{"firstgid":121,"name":"nature","tilewidth":16,"tileheight":16,"columns":16,"tilecount":256,"margin":0,"spacing":0,"image":"../../../../assets/tk/jade/nature.png","imagewidth":256,"imageheight":256}],"layers":[{"id":1,"name":"ground","type":"tilelayer","width":112,"height":64,"x":0,"y":0,"opacity":1,"visible":true,"data":[2,2,1,1,1,1,2,2,2,2,1,2,2,2,2,2,1,2,2,2,1,1,1,2,1,1,1,2,2,2,1,2,2,1,2,1,1,2,2,1,1,1,2,1,1,2,2,2,1,2,2,2,1,1,2,2,1,2,2,2,1,1,2,1,1,1,2,1,2,1,2,2,2,1,1,1,1,1,1,1,1,1,1,2,2,1,2,1,1,1,2,2,1,1,2,2,1,1,1,2,1,2,2,1,1,1,1,1,2,2,2,2,2,1,2,1,2,2,1,2,2,2,1,1,2,2,2,2,1,2,2,1,2,1,2,2,2,1,1,1,2,1,1,2,2,2,2,2,1,1,1,1,2,2,1,2,2,1,2,1,1,1,2,1,1,2,1,1,1,1,1,2,1,1,1,2,1,1,1,1,1,1,1,2,1,2,2,1,2,2,2,2,1,1,1,2,2,1,2,2,2,1,2,2,1,2,1,1,1,2,2,1,1,1,1,1,1,1,1,2,1,1,2,2,1,1,1,1,1,1,1,1,1,1,2,2,1,1,1,1,2,2,2,1,2,1,1,2,1,1,1,1,1,1,1,1,1,1,2,2,2,2,1,2,2,2,1,1,1,1,2,1,2,2,2,1,1,1,2,2,2,1,2,1,2,1,2,2,1,1,2,1,2,2,2,2,1,2,1,1,2,1,2,1,2,2,2,1,1,2,2,1,1,1,1,2,1,2,2,2,2,2,2,1,2,2,2,1,2,1,1,1,1,2,2,1,1,1,2,1,2,1,2,52,52,52,52,52,52,52,52,52,52,52,52,52,52,52,52,52,52,52,52,52,52,52,52,52,52,52,52,52,52,52,52,52,52,1,2,2,2,1,1,1,2,2,2,1,2,1,1,1,1,2,1,1,2,2,2,2,2,1,1,1,2,2,2,2,2,1,2,2,2,1,2,2,1,2,1,2,2,2,1,2,2,2,2,2,2,2,2,2,1,1,2,2,1,1,1,1,1,1,2,2,1,2,2,1,2,2,2,2,1,1,2,52,116,116,116,116,116,116,116,116,116,116,116,116,116,116,116,116,116,116,116,116,116,116,116,116,116,116,116,116,116,116,116,116,52,1,1,2,1,1,2,2,2,2,2,1,1,2,1,2,1,2,1,1,1,1,1,1,2,2,1,2,2,2,1,1,1,1,1,2,2,1,2,2,2,2,2,1,2,1,2,1,1,1,1,2,1,1,1,2,1,2,2,1,2,2,2,2,2,2,1,2,1,2,2,2,1,1,1,2,1,2,1,52,116,116,116,116,116,116,116,116,116,116,116,116,116,116,116,116,116,1,1,116,116,116,116,116,116,116,116,116,116,116,116,116,52,1,1,1,1,1,1,2,1,1,2,2,2,2,2,2,1,1,2,2,1,1,2,2,2,2,2,2,1,2,2,1,2,2,1,2,2,1,2,1,2,1,1,2,2,1,2,2,1,1,1,2,2,2,2,1,2,1,1,1,2,2,2,1,2,2,2,2,1,2,1,1,2,1,1,1,1,2,2,52,116,116,116,116,116,116,116,116,116,116,116,116,116,116,116,116,116,1,1,116,116,116,116,116,116,116,116,116,116,116,116,116,52,2,1,1,1,2,1,2,2,1,1,2,1,2,1,1,2,2,2,1,1,1,1,1,2,2,1,1,2,2,2,1,1,2,2,2,1,2,2,1,2,1,1,1,1,2,2,2,1,2,2,2,1,2,2,2,2,1,1,1,2,2,1,2,2,1,2,2,1,2,1,2,2,1,1,1,2,1,2,52,116,116,116,116,116,116,116,116,116,116,116,116,116,116,116,116,116,1,1,116,116,116,116,116,116,116,116,116,116,116,116,116,52,1,2,2,2,1,1,1,2,2,2,2,1,2,1,2,2,1,1,1,1,1,2,1,2,1,1,2,1,2,1,1,2,2,1,2,1,1,2,1,1,1,1,2,1,2,2,2,2,2,1,1,1,2,1,2,1,1,2,2,2,1,1,2,1,2,2,2,2,2,2,1,1,1,2,1,2,2,1,52,116,116,116,116,116,116,116,116,116,116,116,116,116,116,116,116,116,2,1,116,116,116,116,116,116,116,116,116,116,116,116,116,52,2,1,1,1,2,1,1,1,1,1,1,2,1,1,2,2,2,1,1,2,1,1,1,2,2,1,1,2,1,2,1,2,2,1,2,2,2,1,1,1,2,1,2,1,2,1,1,1,1,2,2,2,1,2,2,1,2,2,2,1,1,2,1,2,2,2,1,2,1,1,2,2,2,1,2,1,2,1,52,116,116,116,116,116,116,116,116,116,116,116,116,116,116,116,116,116,1,1,116,116,116,116,116,116,116,116,116,116,116,116,116,52,1,1,1,1,1,2,2,2,2,2,1,1,2,2,1,2,2,1,2,1,2,1,1,1,1,2,2,2,1,1,1,2,1,2,2,1,1,1,2,2,2,1,2,1,2,1,2,1,1,2,1,2,1,1,2,1,1,2,2,2,2,1,1,1,2,2,2,1,1,1,2,1,1,2,1,2,2,2,52,116,116,116,116,116,116,116,116,116,116,116,116,116,116,116,116,116,2,1,116,116,116,116,116,116,116,116,116,116,116,116,116,52,1,1,2,1,1,1,2,1,2,1,2,1,1,2,1,2,2,1,1,2,1,1,2,1,1,2,1,1,1,1,1,2,2,2,2,1,1,2,1,2,2,2,2,2,2,2,2,2,1,2,2,1,2,1,2,2,1,1,1,1,2,1,2,2,1,2,2,2,1,2,2,2,2,2,2,1,2,1,52,116,116,116,116,116,116,116,116,116,116,116,116,116,116,116,116,116,2,2,116,116,116,116,116,116,116,116,116,116,116,116,116,52,1,2,1,1,2,2,1,1,1,2,1,2,2,1,1,2,1,2,1,1,2,2,1,2,2,2,1,1,2,1,2,2,1,1,2,2,2,1,1,1,1,1,2,1,2,2,2,2,1,2,1,2,1,1,1,2,2,1,1,2,1,1,1,2,1,1,2,2,1,2,1,2,2,2,2,1,1,2,52,116,116,116,116,116,116,116,116,116,116,116,116,116,116,116,116,116,1,1,116,116,116,116,116,116,116,116,116,116,116,116,116,52,2,2,1,1,2,1,1,2,1,1,1,2,2,1,1,2,1,2,1,1,2,2,2,2,1,2,2,2,2,1,2,1,2,2,1,2,2,1,1,2,1,2,1,1,1,2,2,2,1,1,2,1,1,1,2,2,2,1,2,2,1,2,2,2,1,1,1,1,1,1,1,2,1,1,1,1,2,1,52,116,116,116,116,116,116,116,116,116,116,116,116,116,116,116,116,116,2,1,116,116,116,116,116,116,116,116,116,116,116,116,116,52,2,1,1,2,1,2,1,2,1,1,1,1,1,2,1,1,2,2,2,2,2,1,2,1,2,2,1,1,2,1,1,2,2,2,1,2,2,2,1,1,2,1,2,1,1,2,1,2,1,2,1,1,2,1,1,1,1,1,1,2,1,2,1,2,2,2,2,2,1,1,1,2,2,1,1,1,2,2,52,116,116,116,116,116,116,116,116,116,116,116,116,116,116,116,116,116,2,2,116,116,116,116,116,116,116,116,116,116,116,116,116,52,2,2,1,1,2,2,1,1,2,2,2,2,2,1,2,1,1,1,1,2,2,1,2,2,1,2,2,2,2,2,2,1,1,2,2,2,2,2,2,2,2,2,2,1,2,1,1,2,1,2,2,2,1,1,1,1,1,1,2,1,1,1,2,2,2,2,1,2,1,2,2,2,1,1,1,2,1,1,52,116,116,116,116,116,116,116,116,116,116,116,116,116,116,116,116,116,2,2,116,116,116,116,116,116,116,116,116,116,116,116,116,52,1,2,2,2,2,2,2,2,2,1,2,2,1,2,2,1,2,2,1,2,2,1,2,1,2,1,1,2,2,1,1,2,1,2,1,2,2,1,1,1,2,1,1,1,1,1,2,1,2,1,2,2,1,2,2,2,1,2,1,1,1,2,2,1,1,2,1,2,1,2,1,2,2,1,1,1,2,1,52,116,116,116,116,116,116,116,116,116,116,116,116,116,116,116,116,116,2,2,116,116,116,116,116,116,116,116,116,116,116,116,116,52,1,2,2,2,2,2,2,2,1,2,2,1,1,1,2,1,1,1,2,1,1,2,2,2,2,1,1,1,2,1,2,2,2,1,2,1,2,1,2,2,2,2,1,2,1,2,2,1,1,1,2,1,2,2,1,1,1,1,1,1,1,1,1,1,2,2,1,1,1,1,2,2,2,1,2,1,2,2,52,116,116,116,116,116,116,116,116,116,116,116,116,116,116,116,116,116,1,2,116,116,116,116,116,116,116,116,116,116,116,116,116,52,2,1,1,2,1,1,1,1,1,2,1,1,1,2,2,1,1,2,2,1,1,1,2,2,2,1,1,2,2,1,2,2,2,1,2,1,5,5,5,4,4,4,4,4,4,5,5,5,5,5,4,5,5,4,5,4,5,4,5,4,5,4,5,5,5,4,5,4,4,4,2,1,1,2,1,1,2,1,52,116,116,116,116,116,116,116,116,116,116,116,116,116,116,116,116,116,2,2,116,116,116,116,116,116,116,116,116,116,116,116,116,52,2,1,1,1,2,1,1,1,2,1,1,1,1,2,1,2,1,2,2,1,2,2,2,1,2,1,1,1,1,2,2,2,2,2,2,1,4,5,4,5,4,5,5,4,5,4,4,4,5,4,5,4,4,4,5,5,4,5,4,4,5,5,5,5,5,4,5,4,5,5,2,2,2,1,2,1,2,2,52,116,116,116,116,116,116,116,116,116,116,116,116,116,116,116,116,116,1,1,116,116,116,116,116,116,116,116,116,116,116,116,116,52,2,1,1,1,1,1,2,2,2,2,2,1,2,1,2,2,1,1,2,2,1,1,1,2,1,2,1,1,2,2,2,2,2,2,1,1,5,5,2,1,2,2,2,1,2,1,2,2,1,2,2,1,1,2,2,1,1,2,1,2,1,1,2,1,2,2,2,1,1,1,1,2,2,1,2,2,2,1,52,116,116,116,116,116,116,116,116,116,116,116,116,116,116,116,116,116,1,2,116,116,116,116,116,116,116,116,116,116,116,116,116,52,1,1,2,1,2,2,2,2,1,2,2,2,1,2,2,2,1,2,1,1,1,2,2,1,1,1,2,2,2,2,1,2,1,1,2,1,4,4,1,2,2,2,1,1,2,1,2,2,1,2,2,2,1,2,1,1,1,2,2,2,1,2,2,2,2,2,2,1,2,1,1,2,2,1,1,1,1,1,52,116,116,116,116,116,116,116,116,116,116,116,116,116,116,116,116,116,2,2,116,116,116,116,116,116,116,116,116,116,116,116,116,52,2,2,1,1,1,2,1,1,2,2,2,2,2,1,2,2,2,2,2,1,2,2,1,1,1,2,2,1,2,2,1,2,2,1,2,2,5,4,1,2,1,2,2,1,2,1,1,2,2,1,2,1,2,1,1,1,1,1,2,2,2,2,1,1,2,1,1,1,1,2,1,2,2,2,2,1,1,1,52,116,116,116,116,116,116,116,116,116,116,116,116,116,116,116,116,116,2,2,116,116,116,116,116,116,116,116,116,116,116,116,116,52,2,1,2,1,2,2,2,1,2,2,2,2,2,2,2,2,2,1,2,1,2,2,1,2,2,2,1,2,2,1,2,1,1,2,2,1,4,5,1,2,2,1,2,1,1,2,1,2,2,2,2,1,1,2,1,1,1,1,2,1,1,2,2,1,2,2,1,2,1,1,2,1,1,1,2,2,1,2,52,116,116,116,116,116,116,116,116,116,116,116,116,116,116,116,116,116,1,1,116,116,116,116,116,116,116,116,116,116,116,116,116,52,1,1,1,1,2,1,2,2,1,1,2,1,2,2,1,1,1,1,1,2,2,2,1,1,1,1,1,1,1,2,2,1,1,1,1,2,5,5,1,1,1,1,1,2,1,2,1,2,1,2,1,2,1,2,2,2,1,1,1,1,1,2,1,1,2,2,1,1,2,1,1,1,1,2,1,2,2,1,52,52,52,52,52,52,52,52,52,52,52,52,52,52,52,52,52,52,2,2,52,52,52,52,52,52,52,52,52,52,52,52,52,52,2,1,1,2,2,1,2,4,4,5,4,4,5,5,4,5,4,5,4,4,5,5,4,5,4,4,4,1,2,1,2,2,2,2,1,2,4,5,1,2,2,1,1,1,1,2,1,1,1,1,1,2,2,1,2,2,2,1,2,1,2,2,1,2,1,1,1,2,1,2,1,1,2,2,1,2,1,2,1,1,1,1,2,2,1,2,2,2,1,1,1,1,2,2,1,1,1,2,1,2,1,1,1,2,1,1,2,2,2,1,2,1,1,1,1,2,1,2,2,4,5,4,5,4,5,5,4,5,4,4,5,5,5,5,4,4,5,4,4,1,1,2,1,1,2,1,1,2,4,4,2,2,2,2,2,1,1,2,2,2,1,2,2,1,2,1,2,2,1,1,1,2,2,2,1,2,2,1,1,1,2,1,2,2,2,1,2,1,2,1,2,1,2,1,2,1,2,2,1,1,1,1,2,2,2,1,1,2,2,2,1,1,1,1,2,1,1,2,2,1,1,2,1,1,2,2,1,1,1,1,1,5,4,5,5,5,4,5,4,5,4,5,5,4,5,5,5,4,4,4,4,1,2,2,1,2,1,1,1,2,4,4,1,2,2,1,1,2,1,2,2,1,1,2,2,1,1,2,2,1,1,2,2,1,1,1,1,1,2,1,2,1,1,2,2,1,2,1,1,2,1,2,1,1,1,1,1,2,2,1,2,1,2,2,2,1,2,1,1,2,2,2,2,1,1,1,1,1,1,2,2,1,1,1,2,2,2,1,2,2,1,1,1,4,5,5,4,5,4,4,4,4,4,5,5,5,5,4,5,5,4,5,5,1,2,2,2,2,1,2,2,2,5,4,2,2,2,2,2,1,2,1,1,2,1,2,1,2,1,1,2,2,1,1,2,2,2,1,2,1,2,2,1,1,1,2,2,5,4,4,5,4,5,5,5,5,4,4,5,5,4,5,4,5,4,5,5,5,5,4,4,4,5,4,4,5,4,4,4,5,5,5,5,4,4,4,4,5,5,4,4,5,4,5,5,5,5,5,4,5,4,4,5,5,5,4,5,5,4,4,5,4,4,5,4,4,4,5,4,5,5,5,4,5,5,4,5,5,4,5,4,4,5,5,4,4,4,4,5,4,5,5,5,5,5,4,4,4,4,5,4,4,5,5,5,4,4,5,4,5,4,4,5,4,4,4,4,4,4,4,4,4,5,5,4,4,5,4,4,5,5,4,5,4,4,5,5,4,4,4,5,5,5,4,4,5,5,5,5,5,4,5,5,5,5,4,4,5,4,4,4,4,4,4,5,5,4,5,4,5,5,4,5,5,5,4,5,4,5,5,5,5,4,4,5,5,4,5,4,4,4,5,5,4,5,4,5,4,4,5,5,4,4,4,4,5,5,5,4,4,4,5,4,4,5,5,4,4,4,4,4,5,5,4,5,4,4,5,5,4,5,4,5,4,4,5,4,5,4,5,5,4,5,5,4,5,4,5,5,4,5,5,4,5,4,4,4,5,5,4,5,4,4,4,5,4,4,4,5,4,4,5,4,5,4,4,4,5,5,5,4,5,4,5,5,4,4,4,4,4,4,4,4,5,4,5,5,4,4,4,4,4,4,5,4,4,5,5,5,4,4,5,5,5,4,5,5,5,5,5,5,4,4,4,5,5,5,5,4,4,4,4,5,5,4,4,5,4,5,4,5,4,4,4,5,5,5,4,5,5,5,4,4,4,4,5,4,5,5,4,5,4,4,5,4,5,5,5,5,4,5,4,5,4,4,5,4,4,4,5,4,4,4,4,4,4,4,5,5,4,5,4,5,5,5,4,4,4,4,4,4,4,5,4,5,4,4,5,5,4,4,4,4,4,5,5,4,4,5,4,5,5,5,4,5,5,5,4,4,5,5,4,5,5,5,4,5,5,4,4,5,4,4,4,4,8,8,8,8,7,8,8,7,8,7,7,7,8,7,7,8,8,8,8,8,11,10,11,11,8,7,8,8,7,8,7,7,7,7,7,7,7,7,7,8,7,8,8,8,8,7,7,7,8,7,8,7,8,7,8,7,7,8,7,7,7,7,7,7,7,7,8,8,7,8,8,8,11,10,10,10,8,8,7,8,8,8,8,8,8,7,7,7,7,7,7,7,7,7,7,7,7,8,8,7,7,7,7,8,8,7,8,7,7,7,8,8,8,7,8,8,7,7,8,8,8,8,8,7,7,7,7,8,7,7,8,8,10,11,10,10,7,7,7,7,7,7,7,8,7,8,7,8,8,7,8,7,8,8,7,8,8,7,8,7,7,7,8,8,8,7,7,7,7,7,8,7,7,7,8,8,8,8,7,7,7,7,8,7,10,10,11,10,7,8,7,8,8,8,7,7,8,8,8,7,7,7,8,7,7,7,7,7,7,8,8,7,7,8,8,7,8,8,8,7,8,7,8,8,7,8,8,8,7,7,8,7,8,7,8,7,8,8,8,7,8,7,8,8,11,10,11,10,7,7,7,7,7,8,8,7,7,8,7,7,7,8,7,8,8,7,8,7,7,7,8,7,8,8,8,8,7,8,8,8,7,8,8,7,7,7,7,8,7,8,8,7,8,8,8,7,11,10,10,11,7,7,7,8,7,7,7,7,7,8,8,8,8,8,8,7,8,8,7,7,8,7,7,7,7,7,8,8,7,8,7,8,7,7,7,8,7,8,8,7,7,8,7,8,8,7,8,8,8,8,8,8,8,8,7,7,10,11,10,11,7,7,7,8,8,7,8,8,7,7,8,7,8,7,8,8,8,7,8,7,7,8,8,8,8,8,7,8,8,8,7,8,8,7,7,7,7,8,7,7,8,8,8,8,8,7,8,8,10,10,11,11,7,7,7,7,8,8,8,8,7,8,8,7,7,8,7,8,8,7,7,8,7,8,8,7,8,8,8,8,7,8,7,7,7,7,8,7,7,8,8,7,7,7,7,7,7,7,8,8,7,8,7,7,8,8,7,8,10,10,11,10,8,7,7,7,7,7,7,8,8,7,8,7,8,8,7,7,8,7,7,8,8,7,7,8,8,8,8,8,7,7,7,7,7,7,8,7,7,8,8,8,8,8,8,8,7,7,8,8,11,11,10,11,7,7,8,7,8,8,7,7,8,8,8,7,8,8,7,8,8,7,7,7,8,8,7,8,7,8,7,8,7,7,8,7,8,7,8,8,7,7,7,8,7,8,8,8,8,7,8,8,8,7,8,7,7,8,7,7,10,11,11,11,8,7,7,8,7,7,8,7,8,8,7,7,7,8,7,8,8,8,8,7,8,7,7,7,8,8,7,8,8,7,7,7,7,7,7,8,7,7,8,7,7,7,8,8,7,7,7,8,11,10,11,10,7,7,8,7,8,7,8,7,8,8,8,8,7,8,8,7,7,8,7,7,8,7,8,8,7,7,8,7,7,8,7,7,7,7,8,8,7,8,7,8,7,8,8,8,8,8,7,8,7,8,7,8,8,8,7,8,10,10,11,11,8,8,8,8,7,8,8,7,7,8,8,7,7,7,7,7,8,7,8,7,7,8,8,7,8,8,7,8,7,8,8,7,7,8,7,8,8,8,7,8,8,8,7,7,7,8,8,7,10,11,10,10,8,7,8,8,7,8,7,8,8,7,8,7,7,7,7,8,8,8,7,8,8,8,7,8,8,7,8,8,8,7,8,8,8,8,8,8,8,8,8,8,8,7,8,7,7,7,7,7,8,7,8,8,7,7,8,7,10,11,10,10,8,7,8,8,8,7,7,7,7,8,8,7,8,8,7,7,7,8,7,8,8,7,8,7,7,7,8,7,8,7,8,7,8,8,8,8,7,7,7,8,8,7,7,8,8,7,7,8,10,11,11,10,8,8,8,7,7,7,8,7,8,8,8,7,8,7,7,8,7,8,7,7,7,7,8,8,8,7,7,8,7,7,8,8,7,8,8,7,4,4,5,5,5,4,4,5,5,5,5,5,4,5,4,5,5,5,4,4,4,5,5,4,5,4,4,4,5,5,5,4,4,4,5,4,4,5,4,5,5,5,4,5,4,4,5,5,4,4,4,5,4,4,5,4,5,4,4,4,4,4,4,5,5,5,5,5,5,4,4,4,4,4,5,4,5,5,4,5,5,5,4,5,4,5,5,4,4,5,4,4,5,5,4,4,5,5,5,4,4,4,4,4,5,4,5,5,4,5,4,4,4,4,5,4,4,4,4,4,4,4,4,4,4,5,4,5,4,5,5,4,5,4,4,4,5,4,5,4,5,5,5,5,4,5,4,4,5,5,4,5,4,5,5,5,4,5,5,5,4,4,5,4,5,5,4,5,4,4,5,5,5,4,4,5,4,4,5,5,5,5,5,5,5,4,5,4,5,4,5,5,4,4,5,5,5,5,4,4,4,4,5,4,4,4,5,4,4,5,4,5,4,5,5,4,4,4,5,5,4,4,5,4,4,4,5,5,4,5,5,5,5,4,5,5,4,4,5,5,4,4,4,4,4,4,5,5,5,4,5,5,5,4,4,4,5,5,5,4,4,4,5,4,5,4,5,5,4,4,5,4,4,5,4,5,5,4,4,4,5,4,5,5,5,4,5,5,5,4,4,5,5,5,4,5,5,5,4,4,5,4,4,5,4,5,4,5,4,5,5,5,4,5,4,5,5,5,4,4,5,4,4,5,5,4,4,4,5,4,5,4,5,5,5,5,5,4,4,4,5,5,4,4,4,4,4,5,4,5,4,4,4,4,4,5,4,4,4,4,4,4,5,5,4,4,4,5,5,5,4,4,5,5,5,4,5,4,4,5,4,4,4,4,5,5,5,4,5,5,4,5,5,5,4,4,4,4,4,5,4,5,4,5,4,5,4,5,4,5,4,4,5,4,4,5,5,5,4,4,5,5,5,5,4,5,4,4,5,4,5,4,5,4,4,4,4,5,4,4,4,5,4,4,4,4,4,4,2,2,2,1,1,2,2,2,1,2,1,1,1,2,2,1,2,1,1,2,1,1,2,1,2,1,1,2,1,2,2,1,1,1,2,1,2,2,1,2,1,1,2,2,1,2,2,1,1,1,1,2,5,4,4,5,2,1,1,2,1,1,1,2,1,2,1,1,2,2,2,1,2,2,1,1,2,1,1,1,2,2,1,2,5,4,4,4,2,2,1,1,2,2,1,2,1,1,1,1,2,2,1,2,1,1,2,2,1,2,1,1,1,2,2,1,1,2,2,1,1,2,2,2,1,1,1,2,1,2,2,1,1,1,2,2,1,2,1,1,1,1,2,2,2,2,1,1,2,2,1,2,2,2,1,1,2,2,1,1,1,2,1,2,5,5,4,4,1,1,1,1,2,2,1,1,2,1,1,2,1,2,2,2,1,2,1,1,2,1,1,1,1,1,1,2,5,4,5,5,1,1,1,1,2,1,2,2,2,2,2,1,2,1,2,2,1,1,1,2,2,1,1,2,1,1,1,2,1,1,1,2,2,2,2,1,1,2,1,1,2,1,1,1,1,1,2,2,1,1,2,1,1,2,1,1,2,1,2,2,2,2,1,1,1,2,1,1,1,2,2,1,1,1,1,1,5,4,4,5,1,1,1,2,2,2,2,2,2,1,1,2,2,1,2,2,1,1,2,2,2,2,1,1,2,1,1,1,4,5,4,5,1,1,1,2,1,1,1,1,2,1,1,1,2,1,1,1,2,2,2,2,1,1,1,1,1,2,1,2,1,1,2,2,2,2,1,2,1,1,2,1,1,1,2,1,2,2,1,2,1,2,2,1,1,1,2,1,1,2,1,1,2,2,1,2,2,1,2,1,2,1,1,2,2,1,1,2,5,5,5,4,1,1,2,2,2,2,2,2,1,1,2,2,2,2,2,2,2,1,2,1,2,1,1,1,1,1,1,2,5,4,4,5,2,2,1,1,1,2,1,2,2,2,2,2,2,2,2,2,2,2,1,2,1,2,2,1,1,1,2,1,2,1,2,2,1,1,2,1,2,1,1,1,2,1,1,2,2,1,1,1,1,2,1,2,1,2,1,2,2,2,2,1,1,1,2,1,1,2,2,1,2,1,1,1,1,2,1,2,5,5,5,5,1,1,1,2,2,1,1,1,1,1,2,2,1,1,2,1,1,1,2,2,1,1,2,1,2,2,1,1,4,4,4,4,2,2,1,1,1,1,1,2,1,1,2,1,2,2,1,2,1,1,2,2,1,2,1,2,1,2,2,2,2,1,2,2,2,1,1,1,1,2,2,1,1,1,1,2,2,2,2,2,2,1,2,2,2,1,2,1,2,1,1,2,1,2,1,2,2,1,2,2,1,2,2,1,1,2,2,1,4,5,4,4,1,1,2,1,2,2,2,1,1,1,1,1,1,2,1,2,2,1,1,1,2,1,2,2,1,2,2,1,4,4,4,5,2,1,1,2,1,1,2,2,2,1,2,2,2,2,1,2,2,2,2,1,2,2,1,1,1,1,1,2,1,2,2,2,2,1,2,1,2,2,2,2,2,1,2,2,2,1,1,1,1,2,1,1,2,1,1,1,1,1,1,1,1,2,2,2,2,1,1,1,1,2,1,1,1,1,2,1,4,5,5,5,2,1,2,1,2,1,1,1,1,1,2,2,1,1,2,2,1,1,2,2,1,1,1,1,1,2,1,2,5,4,5,4,1,1,2,2,2,1,1,2,1,1,2,2,2,1,2,2,1,2,1,1,1,2,2,2,1,2,1,2,1,2,2,1,1,2,1,2,2,1,2,1,2,1,2,1,2,2,1,1,1,2,2,1,1,2,2,2,2,2,2,1,1,2,1,2,2,1,2,2,1,2,1,2,2,2,1,2,5,5,5,5,2,2,2,2,2,2,2,2,1,1,1,1,2,2,2,2,2,2,1,2,1,1,2,2,1,1,2,1,4,4,5,4,1,2,2,2,2,2,2,2,1,1,2,1,1,1,2,1,2,2,2,2,1,1,2,2,2,2,2,1,1,2,1,2,2,1,1,1,1,2,1,1,1,1,2,2,2,2,2,1,1,1,1,2,1,2,1,2,2,2,2,2,1,2,1,1,2,2,2,1,1,1,2,2,1,1,1,2,4,5,4,5,2,2,2,1,2,2,1,2,1,1,2,2,2,2,1,1,2,2,2,2,2,2,2,2,1,2,2,2,5,4,4,4,2,1,1,1,2,2,2,2,1,2,1,1,2,1,2,1,2,2,1,2,1,2,2,2,1,1,2,2,2,2,2,2,1,2,2,1,1,2,1,1,1,2,1,2,2,1,2,1,1,1,2,2,1,2,2,1,1,2,1,2,1,1,2,2,2,1,2,2,1,2,2,2,1,2,2,1,5,4,5,4,2,1,2,1,1,1,2,1,2,1,2,2,1,1,2,1,2,2,2,1,1,1,1,1,2,1,2,1,4,4,5,5,1,2,1,2,2,2,1,2,1,1,1,1,2,1,2,1,2,1,1,1,2,2,2,1,1,1,2,2,1,2,2,1,1,2,2,1,1,2,1,1,1,1,1,2,2,2,2,1,2,1,2,2,2,1,1,1,2,2,2,2,1,1,1,2,2,2,2,1,2,1,2,1,1,2,1,1,5,4,5,4,1,1,1,2,2,2,1,2,2,2,2,2,2,1,1,2,2,2,2,2,2,1,1,1,2,2,1,1,4,5,4,5,2,1,2,1,1,1,1,2,2,2,2,1,1,1,1,2,1,2,1,1,1,1,1,1,1,2,2,2,2,2,1,2,2,2,1,1,1,2,2,2,2,1,1,2,1,2,1,2,1,2,1,2,2,2,1,2,2,1,1,1,2,1,2,2,1,1,1,1,2,2,2,2,2,1,1,1,5,4,4,5,1,1,2,2,1,2,2,2,1,1,2,1,2,1,2,1,2,1,1,1,1,1,1,1,2,2,2,2,4,4,5,4,1,1,2,2,2,2,1,1,1,2,1,2,1,1,2,2,2,1,1,1,2,2,1,2,1,1,2,2,1,1,1,1,2,2,1,2,1,1,1,1,1,1,1,2,2,1,1,1,2,1,1,1,1,2,1,2,1,1,2,2,2,1,1,2,2,2,1,1,1,2,2,2,1,2,1,1,5,4,4,5,1,2,2,2,1,1,2,2,1,1,1,1,2,1,2,1,1,1,1,2,2,1,1,1,1,1,2,2,5,4,5,5,2,1,1,1,2,1,2,1,2,1,2,2,2,2,1,2,1,1,2,2,1,2,1,2,2,1,1,1,2,2,1,1,1,1,1,1,2,2,2,2,1,1,2,1,1,1,2,2,2,1,2,2,1,1,2,2,1,2,1,1,1,1,2,2,2,1,1,1,1,1,1,1,2,1,2,2,5,4,5,4,2,1,1,1,2,1,1,1,2,2,1,2,1,2,2,1,2,1,2,1,2,2,1,2,2,2,2,1,4,5,4,5,1,1,2,2,1,2,1,2,1,1,1,2,2,2,1,2,2,1,1,2,2,2,2,1,2,1,1,2,1,1,1,1,1,2,2,1,1,2,2,1,1,2,2,2,1,2,2,2,1,1,1,2,1,2,2,2,2,1,2,2,1,2,2,2,2,1,1,2,2,1,2,2,2,2,2,1,5,5,4,4,1,2,1,2,1,2,1,2,2,2,2,1,1,1,1,1,1,2,1,1,2,2,1,2,2,2,1,2,4,4,5,5,1,1,2,2,2,2,1,2,2,2,1,2,1,1,1,1,1,2,2,1,1,2,2,1,1,2,1,1,1,1,2,1,1,2,1,2,1,1,2,2,1,2,2,1,2,2,2,1,2,1,2,1,1,2,1,2,2,1,2,1,2,1,2,1,2,1,2,2,1,2,2,1,2,1,1,2,4,4,4,5,2,2,1,1,1,2,1,2,2,2,1,2,2,1,2,1,1,2,2,2,1,2,1,2,1,2,1,1,5,5,5,4,2,2,2,2,1,2,1,1,1,1,2,2,2,2,1,2,1,1,1,2,2,2,1,2,1,2,2,2,2,2,1,1,2,1,2,1,1,1,2,1,2,1,2,1,1,1,2,1,1,2,2,1,1,1,2,2,1,1,1,2,1,1,1,1,1,1,2,1,2,1,1,2,1,1,1,1,5,5,4,4,1,2,1,2,1,1,1,2,2,2,1,2,2,2,1,2,1,2,1,2,1,2,2,1,2,2,2,1,4,5,5,5,1,1,1,2,1,1,1,1,2,2,1,2,1,1,2,1,2,1,1,1,1,1,2,1,2,1,1,2,1,1,2,1,2,2,1,2,2,2,2,2,2,2,2,1,1,1,1,1,2,2,2,1,1,2,1,1,2,2,1,2,1,1,2,2,1,1,2,1,2,1,2,2,1,2,2,2,4,5,5,4,1,1,2,1,1,2,1,1,2,1,2,1,1,1,1,2,1,1,2,2,2,2,2,1,1,2,1,2,5,4,4,5,1,1,2,2,2,2,2,1,1,1,1,1,1,1,1,2,2,1,2,2,2,2,2,1,1,2,2,1,1,2,1,2,1,1,2,1,1,2,1,1,1,2,1,1,1,2,2,1,2,1,1,2,1,1,1,1,2,1,1,2,1,1,2,1,2,1,1,1,2,2,2,1,2,2,2,1,4,4,5,4,2,2,1,2,1,1,1,2,1,2,2,2,2,1,1,2,1,1,2,1,2,1,2,1,1,1,1,2,4,5,4,4,2,2,1,2,2,2,2,2,1,1,2,1,1,2,2,2,2,2,2,2,1,2,1,2,1,1,2,2,2,1,2,1,2,1,1,2,1,2,1,2,2,1,2,2,2,2,1,2,2,1,2,2,2,2,2,1,2,1,1,1,1,1,2,1,2,1,2,1,2,1,1,2,2,1,2,1,4,5,5,5,1,1,2,2,1,1,2,1,1,1,2,2,1,1,2,2,1,1,2,1,2,1,1,1,1,1,2,1,4,5,4,4,2,2,2,1,1,2,2,1,2,2,2,2,1,2,1,1,1,2,2,2,2,1,2,2]},{"id":2,"name":"detail","type":"tilelayer","width":112,"height":64,"x":0,"y":0,"opacity":1,"visible":true,"data":[0,0,0,0,0,0,0,0,0,0,0,0,0,0,0,0,0,0,0,0,0,0,0,0,0,0,0,0,0,0,0,0,0,0,0,0,0,0,0,0,0,0,0,0,0,0,0,0,0,0,0,0,0,0,0,0,0,0,0,0,0,0,0,0,0,0,0,0,0,0,0,0,0,0,0,0,0,0,0,0,0,0,0,0,0,0,0,0,0,0,0,0,0,0,0,0,0,0,0,0,0,0,0,0,0,0,0,0,0,0,0,0,0,0,0,0,0,0,0,0,0,0,0,0,0,0,0,0,0,0,0,0,0,0,0,0,0,0,0,0,0,0,0,0,0,0,0,0,0,0,0,0,0,0,0,0,0,0,0,0,0,0,0,0,0,0,0,0,0,0,0,0,0,0,0,0,0,0,0,0,0,0,0,0,0,0,0,0,0,0,0,0,0,0,0,0,0,0,0,0,0,0,0,0,0,0,0,0,0,0,0,0,0,0,0,0,0,0,0,0,0,0,0,0,0,0,0,0,0,0,0,0,0,0,0,0,0,0,0,0,0,0,0,0,0,0,0,0,0,0,0,0,0,0,0,0,0,0,0,0,0,0,0,0,0,0,0,0,0,0,0,0,0,0,0,0,0,0,0,0,0,0,0,0,0,0,0,0,0,0,0,0,0,0,0,0,0,0,0,0,0,0,0,0,0,0,0,0,0,0,0,0,0,0,0,0,0,0,0,0,0,0,0,0,0,0,0,0,0,0,0,0,0,0,0,0,0,0,0,0,0,0,0,0,0,0,0,0,0,0,0,0,0,0,0,0,0,0,0,0,0,0,0,0,0,0,0,0,0,0,0,0,0,0,0,0,0,0,0,0,0,0,0,0,0,0,0,0,0,0,0,0,0,0,0,0,0,0,0,0,0,0,0,0,0,0,0,0,0,0,0,0,0,0,0,0,0,0,0,0,0,0,0,0,0,0,0,0,0,0,0,0,0,0,0,0,0,0,0,0,0,0,0,0,0,0,0,0,0,0,0,0,0,0,0,0,0,0,0,0,335,0,0,283,0,0,336,0,0,0,0,336,0,0,0,0,0,335,0,0,0,0,0,0,0,0,0,0,0,0,0,0,0,0,0,0,0,0,0,0,0,0,0,0,0,0,0,0,0,0,0,0,0,0,0,0,0,0,0,0,0,0,0,0,0,0,0,0,0,0,0,0,0,0,0,0,0,0,0,0,0,0,0,0,0,0,0,0,0,0,0,0,0,0,0,0,0,0,0,0,0,0,0,0,0,0,0,0,0,0,0,0,0,0,0,319,0,0,0,0,0,0,0,0,0,0,0,0,0,0,0,0,320,0,0,0,0,0,0,320,0,0,0,0,0,0,0,0,0,0,0,0,0,0,0,0,0,0,0,0,0,0,0,0,0,0,0,0,0,0,0,0,0,0,0,0,0,0,0,0,0,0,0,0,0,0,0,0,0,0,0,0,0,0,0,0,0,0,0,0,0,0,0,0,0,0,0,0,0,0,0,0,0,0,0,0,0,0,0,0,0,0,0,0,319,0,0,0,0,0,0,0,0,0,0,0,0,0,0,0,0,0,0,0,0,0,0,0,0,0,0,0,0,0,0,0,0,0,0,0,0,0,0,0,0,0,0,0,0,0,0,0,0,0,0,0,0,0,0,0,0,0,0,0,0,0,0,0,0,0,0,0,0,0,0,0,0,0,0,0,0,0,0,0,0,0,0,0,0,0,0,0,0,0,0,0,0,0,0,0,0,0,0,0,0,0,0,0,0,0,0,0,0,0,320,0,0,0,0,0,320,0,0,0,0,319,0,0,0,0,0,0,0,0,0,0,0,0,0,0,0,0,0,0,0,0,0,0,0,0,0,0,0,0,0,0,0,0,0,0,0,0,0,0,0,0,0,0,0,0,0,0,0,0,0,0,0,0,0,0,0,0,0,0,0,0,0,0,0,0,0,0,0,0,0,0,0,0,0,0,0,0,0,0,0,0,0,0,0,0,0,0,0,0,0,0,0,0,0,0,0,0,0,0,0,0,0,0,0,0,0,0,0,0,0,0,0,0,0,0,0,0,0,0,0,0,0,0,0,0,0,0,0,336,0,0,0,0,0,0,0,0,0,0,0,0,0,0,0,0,0,0,0,0,0,0,0,0,0,0,0,0,0,0,0,0,0,0,0,0,0,0,0,0,0,0,0,0,0,0,0,0,0,0,0,0,0,0,0,0,0,0,0,0,0,0,0,0,0,0,0,0,0,0,0,0,0,0,0,0,0,0,0,0,0,0,0,336,0,0,0,0,0,0,0,0,0,0,336,0,0,0,0,0,0,320,0,0,0,0,335,0,0,0,0,336,0,0,0,0,0,0,0,0,0,0,0,0,0,0,0,0,0,0,0,0,0,0,0,0,0,0,0,0,0,0,0,0,0,0,0,0,0,0,0,0,0,0,0,0,0,0,0,0,0,0,0,0,0,0,0,0,0,0,0,0,0,0,0,0,0,0,0,0,0,0,0,0,0,0,0,0,0,0,0,0,0,0,0,335,0,0,0,0,319,0,0,320,0,0,0,0,0,0,0,0,0,0,0,0,0,0,0,0,0,0,0,336,0,0,0,0,0,0,0,0,0,0,0,0,0,0,0,0,0,0,0,0,0,0,0,0,0,0,0,0,0,0,0,0,0,0,0,0,0,0,0,0,0,0,0,0,0,0,0,0,0,0,0,0,0,0,0,0,0,0,0,0,0,0,0,0,0,0,0,0,0,0,0,0,0,0,0,0,0,0,0,0,0,0,0,0,0,0,0,335,0,336,0,0,0,0,0,0,0,0,0,0,0,320,0,0,0,0,0,0,0,284,0,0,0,0,0,0,0,0,0,0,0,0,0,0,0,0,0,0,0,0,0,0,0,0,0,0,0,0,0,0,0,0,0,0,0,0,0,0,0,0,0,0,0,0,0,0,0,0,0,0,0,0,0,0,0,0,0,0,0,0,0,0,0,0,0,0,0,0,0,0,0,0,0,0,0,0,0,0,0,0,0,0,0,0,0,0,0,0,0,336,0,0,0,0,0,0,0,0,0,0,0,0,0,0,0,0,0,0,0,0,0,0,0,0,0,0,0,0,0,0,0,0,0,0,0,0,0,0,0,0,0,0,0,0,0,0,0,0,0,0,0,0,0,0,0,0,0,0,0,0,0,0,0,0,0,0,0,0,0,0,0,0,0,0,0,0,0,0,0,0,0,0,0,0,0,0,0,0,0,0,0,0,0,0,0,0,0,0,0,0,0,0,0,0,0,0,0,0,0,0,0,0,0,0,0,0,0,0,0,0,0,0,0,0,0,319,0,0,0,0,0,335,0,0,0,0,0,0,0,0,0,0,0,0,0,0,0,0,0,0,0,0,0,0,0,0,0,0,0,0,0,0,0,0,0,0,0,0,0,0,0,0,0,0,0,0,0,0,0,0,0,0,0,0,0,0,0,0,0,0,0,0,0,0,0,0,0,0,0,0,0,0,0,0,0,0,0,0,0,0,0,0,0,0,0,0,0,0,0,0,0,0,0,0,0,0,0,0,0,0,0,0,0,0,0,0,0,0,0,0,0,0,0,0,0,0,0,0,0,0,0,0,0,0,0,0,0,0,0,0,0,0,0,0,0,0,0,0,0,0,0,0,0,0,0,0,0,0,0,0,0,0,0,0,0,0,0,0,0,0,0,0,0,0,0,0,0,0,0,0,0,0,0,0,0,0,0,0,0,0,0,0,0,0,0,0,0,0,0,0,0,0,0,0,0,0,0,0,0,0,0,0,0,0,0,0,320,0,0,0,283,0,335,0,0,0,0,0,0,0,0,0,0,0,0,0,335,0,320,0,0,0,0,0,0,0,0,0,0,0,0,0,0,0,0,0,0,0,0,0,0,0,0,0,0,0,0,0,0,0,0,0,0,0,0,0,0,0,0,0,0,0,0,0,0,0,0,0,0,0,0,0,0,0,0,0,0,0,0,0,0,0,0,0,0,0,0,0,0,0,0,0,0,0,0,0,0,0,0,0,0,0,283,0,0,0,0,0,0,283,320,0,0,0,0,0,319,0,0,0,0,0,0,0,0,0,283,320,0,0,0,0,0,0,0,0,0,0,0,0,0,0,0,0,0,0,0,0,0,0,0,0,0,0,0,0,0,0,0,0,0,0,0,0,0,0,0,0,0,0,0,0,0,0,0,0,0,0,0,0,0,0,0,0,0,0,0,0,0,0,0,0,0,0,0,0,0,0,0,0,0,0,0,0,0,0,0,0,0,0,0,0,0,0,0,0,0,0,0,0,319,0,0,0,336,0,0,0,0,0,0,0,0,0,0,0,0,0,0,0,0,0,336,0,0,0,0,0,0,0,0,0,0,0,0,0,0,0,0,0,0,0,0,0,0,0,0,0,0,0,0,0,0,0,0,0,0,0,0,0,0,0,0,0,0,0,0,0,0,0,0,0,0,0,0,0,0,0,0,0,0,0,0,0,0,0,0,0,0,0,0,0,0,0,0,0,0,0,0,0,0,0,0,0,0,0,0,320,0,0,0,335,320,0,0,0,0,0,0,0,0,0,0,0,0,0,0,0,0,0,0,0,0,0,0,0,0,0,0,0,0,0,0,0,0,0,0,0,0,0,0,0,0,0,0,0,0,0,0,0,0,0,0,0,0,0,0,0,0,0,0,0,0,0,0,0,0,0,0,0,0,0,0,0,0,0,0,0,0,0,0,0,0,0,0,0,0,0,0,0,0,0,0,0,0,0,0,0,0,0,0,0,0,0,0,0,0,0,0,319,0,0,0,0,0,0,0,0,0,0,0,0,0,0,0,0,0,0,0,319,0,0,0,0,319,0,0,0,0,0,0,0,0,0,0,0,0,0,0,0,0,0,0,0,0,0,0,0,0,0,0,0,0,0,0,0,0,0,0,0,0,0,0,0,0,0,0,0,0,0,0,0,0,0,0,0,0,0,0,0,0,0,0,0,0,0,0,0,0,0,0,0,0,0,0,0,0,0,0,0,0,0,0,0,0,0,0,0,0,0,0,0,0,0,0,0,336,0,0,0,0,0,0,0,0,0,336,0,0,320,0,0,0,0,0,0,0,0,0,0,0,0,0,0,0,0,0,0,0,0,0,0,0,0,0,0,0,0,0,0,0,0,0,0,0,0,0,0,0,0,0,0,0,0,0,0,0,0,0,0,0,0,0,0,0,0,0,0,0,0,0,0,0,0,0,0,0,0,0,0,0,0,0,0,0,0,0,0,0,0,0,0,0,0,0,0,0,0,0,0,0,0,320,0,0,0,0,0,335,0,0,0,0,0,0,335,0,0,0,0,0,335,320,0,0,0,0,0,0,0,0,319,0,0,0,0,0,0,0,0,0,0,0,0,0,0,0,0,0,0,0,0,0,0,0,0,0,0,0,0,0,0,0,0,0,0,0,0,0,0,0,0,0,0,0,0,0,0,0,0,0,0,0,0,0,0,0,0,0,0,0,0,0,0,0,0,0,0,0,0,0,0,0,0,0,0,0,0,0,0,0,0,0,0,0,0,0,0,0,0,0,0,0,0,0,0,0,0,0,0,0,0,0,0,0,0,0,0,0,0,0,0,0,0,320,283,0,0,0,0,0,0,0,0,0,0,0,0,0,0,0,0,0,0,0,0,0,0,0,0,0,0,0,0,0,0,0,0,0,0,0,0,0,0,0,0,0,0,0,0,0,0,0,0,0,0,0,0,0,0,0,0,0,0,0,0,0,0,0,0,0,0,0,0,0,0,0,0,0,0,0,0,0,0,0,0,0,0,0,0,0,0,0,0,0,283,0,0,284,0,0,0,0,0,0,0,0,0,0,0,0,0,0,0,0,0,0,0,0,0,0,0,0,0,0,0,0,0,0,0,0,0,0,0,0,0,0,0,0,0,0,0,0,0,0,0,0,0,0,0,0,0,0,0,0,0,0,0,0,0,0,0,0,0,0,0,0,0,0,0,0,0,0,0,0,0,0,0,0,0,0,0,0,0,0,0,0,0,0,0,0,0,0,0,0,0,0,0,0,0,0,0,0,0,0,0,0,0,0,0,0,0,0,0,0,0,0,0,0,0,0,0,0,0,0,0,0,0,0,0,0,0,0,0,0,0,0,0,0,0,0,0,0,0,0,0,0,0,0,0,0,0,0,0,0,0,0,0,0,0,0,0,0,0,0,0,0,0,0,0,0,0,0,0,0,0,0,0,0,0,0,0,0,0,0,0,0,0,0,0,0,0,0,0,0,0,0,0,0,0,0,0,0,0,0,0,0,0,0,0,0,0,0,0,0,0,0,0,0,0,0,0,0,0,0,0,0,0,0,0,0,0,0,0,0,0,0,0,0,0,0,0,0,0,0,0,0,0,0,0,0,0,0,0,0,0,0,0,0,0,0,0,0,0,0,0,0,0,0,0,0,0,0,0,0,0,0,0,0,0,0,0,0,0,0,0,0,0,0,0,0,0,0,0,0,0,0,0,0,0,0,0,0,0,0,0,0,0,0,0,0,0,0,0,0,0,0,0,0,0,0,0,0,0,0,0,0,0,0,0,0,0,0,0,0,0,0,0,0,0,0,0,0,0,0,0,0,0,0,0,0,0,0,0,0,0,0,0,0,0,0,0,0,0,0,0,0,0,0,0,0,0,0,0,0,0,0,0,0,0,0,0,0,0,0,0,0,0,0,0,0,0,0,0,0,0,0,0,0,0,0,0,0,0,0,0,0,0,0,0,0,0,0,0,0,0,0,0,0,0,0,0,0,0,0,0,0,0,0,0,0,0,0,0,0,0,0,0,0,0,0,0,0,0,0,0,0,0,0,0,0,0,0,0,0,0,0,0,0,0,0,0,0,0,0,0,0,0,0,0,0,0,0,0,0,0,0,0,0,0,0,0,0,0,0,0,0,0,0,0,0,0,0,0,0,0,0,0,0,0,0,0,0,0,0,0,0,0,0,0,0,0,0,0,0,0,0,0,0,0,0,0,0,0,0,0,0,0,0,0,0,0,0,0,0,0,0,0,0,0,0,0,0,0,0,0,0,0,0,0,0,0,0,0,0,0,0,0,0,0,0,0,0,0,0,0,0,0,0,0,0,0,0,0,0,0,0,0,0,0,0,0,0,0,0,0,0,0,0,0,0,0,0,0,0,0,0,0,0,0,0,0,0,0,0,0,0,0,0,0,0,0,0,0,0,0,0,0,0,0,0,0,0,0,0,0,0,0,0,0,0,0,0,0,0,0,0,0,0,0,0,0,0,0,0,0,0,0,0,0,0,0,0,0,0,0,0,0,0,0,0,0,0,0,0,0,0,0,0,0,0,0,0,0,0,0,0,0,0,0,0,0,0,0,0,0,0,0,0,0,0,0,0,0,0,0,0,0,0,0,0,0,0,0,0,0,0,0,0,0,0,0,0,0,0,0,0,0,0,0,0,0,0,0,0,0,0,0,0,0,0,0,0,0,0,0,0,0,0,0,0,0,0,0,0,0,0,0,0,0,0,0,0,0,0,0,0,0,0,0,0,0,0,0,0,0,0,0,0,0,0,0,0,0,0,0,0,0,0,0,0,0,0,0,0,0,0,0,0,0,0,0,0,0,0,0,0,0,0,0,0,0,0,0,0,0,0,0,0,0,0,0,0,0,0,0,0,0,0,0,0,0,0,0,0,0,0,0,0,0,0,0,0,0,0,0,0,0,0,0,0,0,0,0,0,0,0,0,0,0,0,0,0,0,0,0,0,0,0,0,0,0,0,0,0,0,0,0,0,0,0,0,0,0,0,0,0,0,0,0,0,0,0,0,0,0,0,0,0,0,0,0,0,0,0,0,0,0,0,0,0,0,0,0,0,0,0,0,0,0,0,0,0,0,0,0,0,0,0,0,0,0,0,0,0,0,0,0,0,0,0,0,0,0,0,0,0,0,0,0,0,0,0,0,0,0,0,0,0,0,0,0,0,0,0,0,0,0,0,0,0,0,0,0,0,0,0,0,0,0,0,0,0,0,0,0,0,0,0,0,0,0,0,0,0,0,0,0,0,0,0,0,0,0,0,0,0,0,0,0,0,0,0,0,0,0,0,0,0,0,0,0,0,0,0,0,0,0,0,0,0,0,0,0,0,0,0,0,0,0,0,0,0,0,0,0,0,0,0,0,0,0,0,0,0,0,0,0,0,0,0,0,0,0,0,0,0,0,0,0,0,0,0,0,0,0,0,0,0,0,0,0,0,0,0,0,0,0,0,0,0,0,0,0,0,0,0,0,0,0,0,0,0,0,0,0,0,0,0,0,0,0,0,0,0,0,0,0,0,0,0,0,0,0,0,0,0,0,0,0,0,0,0,0,0,0,0,0,0,0,0,0,0,0,0,0,0,0,0,0,0,0,0,0,0,0,0,0,0,0,0,0,0,0,0,0,0,0,0,0,0,0,0,0,0,0,0,0,0,0,0,0,0,0,0,0,0,0,0,0,0,0,0,0,0,0,0,0,0,0,0,0,0,0,0,0,0,0,0,0,0,0,0,0,0,0,0,0,0,0,0,0,0,0,0,0,0,0,0,0,0,0,0,0,0,0,0,0,0,0,0,0,0,0,0,0,0,0,0,0,0,0,0,0,0,0,0,0,0,0,0,0,0,0,0,0,0,0,0,0,0,0,0,0,0,0,0,0,0,0,0,0,0,0,0,0,0,0,0,0,0,0,0,0,0,0,0,0,0,0,0,0,0,0,0,0,0,0,0,0,0,0,0,0,0,0,0,0,0,0,0,0,0,0,0,0,0,0,0,0,0,0,0,0,0,0,0,0,0,0,0,0,0,0,0,0,0,0,0,0,0,0,0,0,0,0,0,0,0,0,0,0,0,0,0,0,0,0,0,0,0,0,0,0,0,0,0,0,0,0,0,0,0,0,0,0,0,0,0,0,0,0,0,0,0,0,0,0,0,0,0,0,0,0,0,0,0,0,0,0,0,0,0,0,0,0,0,0,0,0,0,0,0,0,0,0,0,0,0,0,0,0,0,0,0,0,0,0,0,0,0,0,0,0,0,0,0,0,0,0,0,0,0,0,0,0,0,0,0,0,0,0,0,0,0,0,0,0,0,0,0,0,0,0,0,0,0,0,0,0,0,0,0,0,0,0,0,0,0,0,0,0,0,0,0,0,0,0,0,0,0,0,0,0,0,0,0,0,0,0,0,0,0,0,0,0,0,0,0,0,0,0,0,0,0,0,0,0,0,0,0,0,0,0,0,0,0,0,0,0,0,0,0,0,0,0,0,0,0,0,0,0,0,0,0,0,0,0,0,0,0,0,0,0,0,0,0,0,0,0,0,0,0,0,0,0,0,0,0,0,0,0,0,0,0,0,0,0,0,0,0,0,0,0,0,0,0,0,0,0,0,0,0,0,0,0,0,0,0,0,0,0,0,0,0,0,0,0,0,0,0,0,0,0,0,0,0,0,0,0,0,0,0,0,0,0,0,0,0,0,0,0,0,0,0,0,0,0,0,0,0,0,0,0,0,0,0,0,0,0,0,0,0,0,0,0,0,0,0,0,0,0,0,0,0,0,0,0,0,0,0,0,0,0,0,0,0,0,0,0,0,0,0,0,0,0,0,0,0,0,0,0,0,0,0,0,0,0,0,0,0,0,0,0,0,0,0,0,0,0,0,0,0,0,0,0,0,0,0,0,0,0,0,0,0,0,0,0,0,0,0,0,0,0,0,0,0,0,0,0,0,0,0,0,0,0,0,0,0,0,0,0,0,0,0,0,0,0,0,0,0,0,0,0,0,0,0,0,0,0,0,0,0,0,0,0,0,0,0,0,0,0,0,0,0,0,0,0,0,0,0,0,0,0,0,0,0,0,0,0,0,0,0,0,0,0,0,0,0,0,0,0,0,0,0,0,0,0,0,0,0,0,0,0,0,0,0,0,0,0,0,0,0,0,0,0,0,0,0,0,0,0,0,0,0,0,0,0,0,0,0,0,0,0,0,0,0,0,0,0,0,0,0,0,0,0,0,0,0,0,0,0,0,0,0,0,0,0,0,0,0,0,0,0,0,0,0,0,0,0,0,0,0,0,0,0,0,0,0,0,0,0,0,0,0,0,0,0,0,0,0,0,0,0,0,0,0,0,0,0,0,0,0,0,0,0,0,0,0,0,0,0,0,0,0,0,0,0,0,0,0,0,0,0,0,0,0,0,0,0,0,0,0,0,0,0,0,0,0,0,0,0,0,0,0,0,0,0,0,0,0,0,0,0,0,0,0,0,0,0,0,0,0,0,0,0,0,0,0,0,0,0,0,0,0,0,0,0,0,0,0,0,0,0,0,0,0,0,0,0,0,0,0,0,0,0,0,0,0,0,0,0,0,0,0,0,0,0,0,0,0,0,0,0,0,0,0,0,0,0,0,0,0,0,0,0,0,0,0,0,0,0,0,0,0,0,0,0,0,0,0,0,0,0,0,0,0,0,0,0,0,0,0,0,0,0,0,0,0,0,0,0,0,0,0,0,0,0,0,0,0,0,0,0,0,0,0,0,0,0,0,0,0,0,0,0,0,0,0,0,0,0,0,0,0,0,0,0,0,0,0,0,0,0,0,0,0,0,0,0,0,0,0,0,0,0,0,0,0,0,0,0,0,0,0,0,0,0,0,0,0,0,0,0,0,0,0,0,0,0,0,0,0,0,0,0,0,0,0,0,0,0,0,0,0,0,0,0,0,0,0,0,0,0,0,0,0,0,0,0,0,0,0,0,0,0,0,0,0,0,0,0,0,0,0,0,0,0,0,0,0,0,0,0,0,0,0,0,0,0,0,0,0,0,0,0,0,0,0,0,0,0,0,0,0,0,0,0,0,0,0,0,0,0,0,0,0,0,0,0,0,0,0,0,0,0,0,0,0,0,0,0,0,0,0,0,0,0,0,0,0,0,0,0,0,0,0,0,0,0,0,0,0,0,0,0,0,0,0,0,0,0,0,0,0,0,0,0,0,0,0,0,0,0,0,0,0,0,0,0,0,0,0,0,0,0,0,0,0,0,0,0,0,0,0,0,0,0,0,0,0,0,0,0,0,0,0,0,0,0,0,0,0,0,0,0,0,0,0,0,0,0,0,0,0,0,0,0,0,0,0,0,0,0,0,0,0,0,0,0,0,0,0,0,0,0,0,0,0,0,0,0,0,0,0,0,0,0,0,0,0,0,0,0,0,0,0,0,0,0,0,0,0,0,0,0,0,0,0,0,0,0,0,0,0,0,0,0,0,0,0,0,0,0,0,0,0,0,0,0,0,0,0,0,0,0,0,0,0,0,0,0,0,0,0,0,0,0,0,0,0,0,0,0,0,0,0,0,0,0,0,0,0,0,0,0,0,0,0,0,0,0,0,0,0,0,0,0,0,0,0,0,0,0,0,0,0,0,0,0,0,0,0,0,0,0,0,0,0,0,0,0,0,0,0,0,0,0,0,0,0,0,0,0,0,0,0,0,0,0,0,0,0,0,0,0,0,0,0,0,0,0,0,0,0,0,0,0,0,0,0,0,0,0,0,0,0,0,0,0,0,0,0,0,0,0,0,0,0,0,0,0,0,0,0,0,0,0,0,0,0,0,0,0,0,0,0,0,0,0,0,0,0,0,0,0,0,0,0,0,0,0,0,0,0,0,0,0,0,0,0,0,0,0,0,0,0,0,0,0,0,0,0,0,0,0,0,0,0,0,0,0,0,0,0,0,0,0,0,0,0,0,0,0,0,0,0,0,0,0,0,0,0,0,0,0,0,0,0,0,0,0,0,0,0,0,0,0,0,0,0,0,0,0,0,0,0,0,0,0,0,0,0,0,0,0,0,0,0,0,0,0,0,0,0,0,0,0,0,0,0,0,0,0,0,0,0,0,0,0,0,0,0,0,0,0,0,0,0,0,0,0,0,0,0,0,0,0,0,0,0,0,0,0,0,0,0,0,0,0,0,0,0,0,0,0,0,0,0,0,0,0,0,0,0,0,0,0,0,0,0,0,0,0,0,0,0,0,0,0,0,0,0,0,0,0,0,0,0,0,0,0,0,0,0,0,0,0,0,0,0,0,0,0,0,0,0,0,0,0,0,0,0,0,0,0,0,0,0,0,0,0,0,0,0,0,0,0,0,0,0,0,0,0,0,0,0,0,0,0,0,0,0,0,0,0,0,0,0,0,0,0,0,0,0,0,0,0,0,0,0,0,0,0,0,0,0,0,0,0,0,0,0,0,0,0,0,0,0,0,0,0,0,0,0,0,0,0,0,0,0,0,0,0,0,0,0,0,0,0,0,0,0,0,0,0,0,0,0,0,0,0,0,0,0,0,0,0,0,0,0,0,0,0,0,0,0,0,0,0,0,0,0,0,0,0,0,0,0,0,0,0,0,0,0,0,0,0,0,0,0,0,0,0,0,0,0,0,0,0,0,0,0,0,0,0,0,0,0,0,0,0,0,0,0,0,0,0,0,0,0,0,0,0,0,0,0,0,0,0,0,0,0,0,0,0,0,0,0,0,0,0,0,0,0,0,0,0,0,0,0,0,0,0,0,0,0,0,0,0,0,0,0,0,0,0,0,0,0,0,0,0,0,0,0,0,0,0,0,0,0,0,0,0,0,0,0,0,0,0,0,0,0,0,0,0,0,0,0,0,0,0,0,0,0,0,0,0,0,0,0,0,0,0,0,0,0,0,0,0,0,0,0,0,0,0,0,0,0,0,0,0,0,0,0,0,0,0,0,0,0,0,0,0,0,0,0,0,0,0,0,0,0,0,0,0,0,0,0,0,0,0,0,0,0,0,0,0,0,0,0,0,0,0,0,0,0,0,0,0,0,0,0,0,0,0,0,0,0,0,0,0,0,0,0,0,0,0,0,0,0,0,0,0,0,0,0,0,0,0,0,0,0,0,0,0,0,0,0,0,0,0,0,0,0,0,0,0,0,0,0,0,0,0,0,0,0,0,0,0,0,0,0,0,0,0,0,0,0,0,0,0,0,0,0,0,0,0,0,0,0,0,0,0,0,0,0,0,0,0,0,0,0,0,0,0,0,0,0,0,0,0,0,0,0,0,0,0,0,0,0,0,0,0,0,0,0,0,0,0,0,0,0,0,0,0,0,0,0,0,0,0,0,0,0,0,0,0,0,0,0,0,0,0,0,0,0,0,0,0,0,0,0,0,0,0,0,0,0,0,0,0,0,0,0,0,0,0,0,0,0,0,0,0,0,0,0,0,0,0,0,0,0,0,0,0,0,0,0,0,0,0,0,0,0,0,0,0,0,0,0,0,0,0,0,0,0,0,0,0,0,0,0,0,0,0,0,0,0,0,0,0,0,0,0,0,0,0,0,0,0,0,0,0,0,0,0,0,0,0,0,0,0,0,0,0,0,0,0,0,0,0,0,0,0,0,0,0,0,0,0,0,0,0,0,0,0,0,0,0,0,0,0,0,0,0,0,0,0,0,0,0,0,0,0,0,0,0,0,0,0,0,0,0,0,0,0,0,0,0,0,0,0,0,0,0,0,0,0,0,0,0,0,0,0,0,0,0,0,0,0,0,0,0,0,0,0,0,0,0,0,0,0,0,0,0,0,0,0,0,0,0,0,0,0,0,0,0,0,0,0,0,0,0,0,0,0,0,0,0,0,0,0,0,0,0,0,0,0,0,0,0,0,0,0,0,0,0,0,0,0,0,0,0,0,0,0,0,0,0,0,0,0,0,0,0,0,0,0,0,0,0,0,0,0,0,0,0,0,0,0,0,0,0,0,0,0,0,0,0,0,0,0,0,0,0,0,0,0,0,0,0,0,0,0,0,0,0,0,0,0,0,0,0,0,0,0,0,0,0,0,0,0,0,0,0,0,0,0,0,0,0,0,0,0,0,0,0,0,0,0,0,0,0,0,0,0,0,0,0,0,0,0,0,0,0,0,0,0,0,0,0,0,0,0,0,0,0,0,0,0,0,0,0,0,0,0,0,0,0,0,0,0,0,0,0,0,0,0,0,0,0,0,0,0,0,0,0,0,0,0,0,0,0,0,0,0,0,0,0,0,0,0,0,0,0,0,0,0,0,0,0,0,0,0,0,0,0,0,0,0,0,0,0,0,0,0,0,0,0,0,0,0,0,0,0,0,0,0,0,0,0,0,0,0,0,0,0,0,0,0,0,0,0,0,0,0,0,0,0,0,0,0,0,0,0,0,0,0,0,0,0,0,0,0,0,0,0,0,0,0,0,0,0,0,0,0,0,0,0,0,0,0,0,0,0,0,0,0,0,0,0,0,0,0,0,0,0,0,0,0,0,0,0,0,0,0,0,0,0,0,0,0,0,0,0,0,0,0,0,0,0,0,0,0,0,0,0,0,0,0,0,0,0,0,0,0,0,0,0,0,0,0,0,0,0,0,0,0,0,0,0,0,0,0,0,0,0,0,0,0,0,0,0,0,0,0,0,0,0,0,0,0,0,0,0,0,0,0,0,0,0,0,0,0,0,0,0,0,0,0,0,0,0,0,0,0,0,0,0,0,0,0,0,0,0,0,0,0,0,0,0,0,0,0,0,0,0,0,0,0,0,0,0,0,0,0,0,0,0,0,0,0,0,0,0,0,0,0,0,0,0,0,0,0,0,0,0,0,0,0,0,0,0,0,0,0,0,0,0,0,0,0,0,0,0,0,0,0,0,0,0,0,0,0,0,0,0,0,0,0,0,0,0,0,0,0,0,0,0,0,0,0,0,0,0,0,0,0,0,0,0,0,0,0,0,0,0,0,0,0,0,0,0,0,0,0,0,0,0,0,0,0,0,0,0,0,0,0,0,0,0,0,0,0,0,0,0,0,0,0,0,0,0,0,0,0,0,0,0,0,0,0,0,0,0,0,0,0,0,0,0,0,0,0,0,0,0,0,0,0,0,0,0,0,0,0,0,0,0,0,0,0,0,0,0,0,0,0,0,0,0,0,0,0,0,0,0,0,0,0,0,0,0,0,0,0,0,0,0,0,0,0,0,0,0,0,0,0,0,0,0,0,0,0,0,0,0,0,0,0,0,0,0,0,0,0,0,0,0,0,0,0,0,0,0,0,0,0,0,0,0,0,0,0,0,0,0,0,0,0,0,0,0,0,0,0,0,0,0,0,0,0,0,0,0,0,0,0,0,0,0,0,0,0,0,0,0,0,0,0,0,0,0,0,0,0,0,0,0,0,0,0,0,0,0,0,0,0,0,0,0,0,0,0,0,0,0,0,0,0,0,0,0,0,0,0,0,0,0,0,0,0,0,0,0,0,0,0,0,0,0,0,0,0,0,0,0,0,0,0,0,0,0,0,0,0,0,0,0,0,0,0,0,0,0,0,0,0,0,0,0,0,0,0,0,0,0,0,0,0,0,0,0,0,0,0,0,0,0,0,0,0,0,0,0,0,0,0,0,0,0,0,0,0,0,0,0,0,0,0,0,0,0,0,0,0,0,0,0,0,0,0,0,0,0,0,0,0,0,0,0,0,0,0,0,0,0,0,0,0,0,0,0,0,0,0,0,0,0,0,0,0,0,0,0,0,0,0,0,0,0,0,0,0,0,0,0,0,0,0,0,0,0,0,0,0,0,0,0,0,0,0,0,0,0,0,0,0,0,0,0,0,0,0,0,0,0,0,0,0,0,0,0,0,0,0,0,0,0,0,0,0,0,0,0,0,0,0,0,0,0,0,0,0,0,0,0,0,0,0,0,0,0,0,0,0,0,0,0,0,0,0,0,0,0,0,0,0,0,0,0,0,0,0,0,0,0,0,0,0,0,0,0,0,0,0,0,0,0,0,0,0,0,0,0,0,0,0,0,0,0,0,0,0,0,0,0,0,0,0,0,0,0,0,0,0,0,0,0,0,0,0,0,0,0,0,0,0,0,0,0,0,0,0,0,0,0,0,0,0,0,0,0,0,0,0,0,0,0,0,0,0,0,0,0,0,0,0,0,0,0,0,0,0,0,0,0,0,0,0,0,0,0,0,0,0,0,0,0,0,0,0,0,0,0,0,0,0,0,0,0,0,0,0,0,0,0,0,0,0,0,0,0,0,0,0,0,0,0,0,0,0,0,0,0,0,0,0,0]},{"id":3,"name":"wall","type":"tilelayer","width":112,"height":64,"x":0,"y":0,"opacity":1,"visible":true,"data":[0,0,0,0,0,0,0,0,0,0,0,0,0,0,0,0,0,0,0,0,0,0,0,0,0,0,0,0,0,0,0,0,0,0,0,0,0,0,0,0,0,0,0,0,0,0,0,0,0,0,0,0,0,0,0,0,0,0,0,0,0,0,0,0,0,0,0,0,0,0,0,0,0,0,0,0,0,0,0,0,0,0,0,0,0,0,0,0,0,0,0,0,0,0,0,0,0,0,0,0,0,0,0,0,0,0,0,0,0,0,0,0,0,0,0,0,0,0,0,0,0,0,0,0,0,0,0,0,0,0,0,0,0,0,0,0,0,0,0,0,0,0,0,0,0,0,0,0,0,0,0,0,0,0,0,0,0,0,0,0,0,0,0,0,0,0,0,0,0,0,0,0,0,0,0,0,0,0,0,0,0,0,0,0,0,0,0,0,0,0,0,0,0,0,0,0,0,0,0,0,0,0,0,0,0,0,0,0,0,0,0,0,0,0,0,0,0,0,0,0,0,0,0,0,0,0,0,0,0,0,0,0,0,0,0,0,0,0,0,0,0,0,0,0,0,0,0,0,0,0,0,0,0,0,0,0,0,0,0,0,0,0,0,0,0,0,0,0,0,0,0,0,0,0,0,0,0,0,0,0,0,0,0,0,0,0,0,0,0,0,0,0,0,0,0,0,0,0,0,0,0,0,0,0,0,0,0,0,0,0,0,0,0,0,0,0,0,0,0,0,0,0,0,0,0,0,0,0,0,0,0,0,0,0,0,0,0,0,0,0,0,0,0,50,44,44,44,44,44,44,44,44,44,44,44,44,44,44,44,44,44,44,44,44,44,44,44,44,44,44,44,44,44,44,44,44,50,0,0,0,0,0,0,0,0,0,0,0,0,0,0,0,0,0,0,0,0,0,0,0,0,0,0,0,0,0,0,0,0,0,0,0,0,0,0,0,0,0,0,0,0,0,0,0,0,0,0,0,0,0,0,0,0,0,0,0,0,0,0,0,0,0,0,0,0,0,0,0,0,0,0,0,0,0,0,46,0,0,0,0,0,0,0,0,0,0,0,0,0,0,0,0,0,0,0,0,0,0,0,0,0,0,0,0,0,0,0,0,46,0,0,0,0,0,0,0,0,0,0,0,0,0,0,0,0,0,0,0,0,0,0,0,0,0,0,0,0,0,0,0,0,0,0,0,0,0,0,0,0,0,0,0,0,0,0,0,0,0,0,0,0,0,0,0,0,0,0,0,0,0,0,0,0,0,0,0,0,0,0,0,0,0,0,0,0,0,0,46,0,0,0,0,0,0,0,0,0,0,0,0,0,0,0,0,0,0,0,0,0,0,0,0,0,0,0,0,0,0,0,0,46,0,0,0,0,0,0,0,0,0,0,0,0,0,0,0,0,0,0,0,0,0,0,0,0,0,0,0,0,0,0,0,0,0,0,0,0,0,0,0,0,0,0,0,0,0,0,0,0,0,0,0,0,0,0,0,0,0,0,0,0,0,0,0,0,0,0,0,0,0,0,0,0,0,0,0,0,0,0,46,0,0,0,0,0,0,0,0,0,0,0,0,0,0,0,0,0,0,0,0,0,0,0,0,0,0,0,0,0,0,0,0,46,0,0,0,0,0,0,0,0,0,0,0,0,0,0,0,0,0,0,0,0,0,0,0,0,0,0,0,0,0,0,0,0,0,0,0,0,0,0,0,0,0,0,0,0,0,0,0,0,0,0,0,0,0,0,0,0,0,0,0,0,0,0,0,0,0,0,0,0,0,0,0,0,0,0,0,0,0,0,46,0,0,0,0,0,0,0,0,0,0,0,0,0,0,0,0,0,0,0,0,0,0,0,0,0,0,0,0,0,0,0,0,46,0,0,0,0,0,0,0,0,0,0,0,0,0,0,0,0,0,0,0,0,0,0,0,0,0,0,0,0,0,0,0,0,0,0,0,0,0,0,0,0,0,0,0,0,0,0,0,0,0,0,0,0,0,0,0,0,0,0,0,0,0,0,0,0,0,0,0,0,0,0,0,0,0,0,0,0,0,0,46,0,0,0,0,0,0,0,0,0,0,0,0,0,0,0,0,0,0,0,0,0,0,0,0,0,0,0,0,0,0,0,0,46,0,0,0,0,0,0,0,0,0,0,0,0,0,0,0,0,0,0,0,0,0,0,0,0,0,0,0,0,0,0,0,0,0,0,0,0,0,0,0,0,0,0,0,0,0,0,0,0,0,0,0,0,0,0,0,0,0,0,0,0,0,0,0,0,0,0,0,0,0,0,0,0,0,0,0,0,0,0,46,0,0,0,0,0,0,0,0,0,0,0,0,0,0,0,0,0,0,0,0,0,0,0,0,0,0,0,0,0,0,0,0,46,0,0,0,0,0,0,0,0,0,0,0,0,0,0,0,0,0,0,0,0,0,0,0,0,0,0,0,0,0,0,0,0,0,0,0,0,0,0,0,0,0,0,0,0,0,0,0,0,0,0,0,0,0,0,0,0,0,0,0,0,0,0,0,0,0,0,0,0,0,0,0,0,0,0,0,0,0,0,46,0,0,0,0,0,0,0,0,0,0,0,0,0,0,0,0,0,0,0,0,0,0,0,0,0,0,0,0,0,0,0,0,46,0,0,0,0,0,0,0,0,0,0,0,0,0,0,0,0,0,0,0,0,0,0,0,0,0,0,0,0,0,0,0,0,0,0,0,0,0,0,0,0,0,0,0,0,0,0,0,0,0,0,0,0,0,0,0,0,0,0,0,0,0,0,0,0,0,0,0,0,0,0,0,0,0,0,0,0,0,0,46,0,0,0,0,0,0,0,0,0,0,0,0,0,0,0,0,0,0,0,0,0,0,0,0,0,0,0,0,0,0,0,0,46,0,0,0,0,0,0,0,0,0,0,0,0,0,0,0,0,0,0,0,0,0,0,0,0,0,0,0,0,0,0,0,0,0,0,0,0,0,0,0,0,0,0,0,0,0,0,0,0,0,0,0,0,0,0,0,0,0,0,0,0,0,0,0,0,0,0,0,0,0,0,0,0,0,0,0,0,0,0,46,0,0,0,0,0,0,0,0,0,0,0,0,0,0,0,0,0,0,0,0,0,0,0,0,0,0,0,0,0,0,0,0,46,0,0,0,0,0,0,0,0,0,0,0,0,0,0,0,0,0,0,0,0,0,0,0,0,0,0,0,0,0,0,0,0,0,0,0,0,0,0,0,0,0,0,0,0,0,0,0,0,0,0,0,0,0,0,0,0,0,0,0,0,0,0,0,0,0,0,0,0,0,0,0,0,0,0,0,0,0,0,46,0,0,0,0,0,0,0,0,0,0,0,0,0,0,0,0,0,0,0,0,0,0,0,0,0,0,0,0,0,0,0,0,46,0,0,0,0,0,0,0,0,0,0,0,0,0,0,0,0,0,0,0,0,0,0,0,0,0,0,0,0,0,0,0,0,0,0,0,0,0,0,0,0,0,0,0,0,0,0,0,0,0,0,0,0,0,0,0,0,0,0,0,0,0,0,0,0,0,0,0,0,0,0,0,0,0,0,0,0,0,0,46,0,0,0,0,0,0,0,0,0,0,0,0,0,0,0,0,0,0,0,0,0,0,0,0,0,0,0,0,0,0,0,0,46,0,0,0,0,0,0,0,0,0,0,0,0,0,0,0,0,0,0,0,0,0,0,0,0,0,0,0,0,0,0,0,0,0,0,0,0,0,0,0,0,0,0,0,0,0,0,0,0,0,0,0,0,0,0,0,0,0,0,0,0,0,0,0,0,0,0,0,0,0,0,0,0,0,0,0,0,0,0,46,0,0,0,0,0,0,0,0,0,0,0,0,0,0,0,0,0,0,0,0,0,0,0,0,0,0,0,0,0,0,0,0,46,0,0,0,0,0,0,0,0,0,0,0,0,0,0,0,0,0,0,0,0,0,0,0,0,0,0,0,0,0,0,0,0,0,0,0,0,0,0,0,0,0,0,0,0,0,0,0,0,0,0,0,0,0,0,0,0,0,0,0,0,0,0,0,0,0,0,0,0,0,0,0,0,0,0,0,0,0,0,46,0,0,0,0,0,0,0,0,0,0,0,0,0,0,0,0,0,0,0,0,0,0,0,0,0,0,0,0,0,0,0,0,46,0,0,0,0,0,0,0,0,0,0,0,0,0,0,0,0,0,0,0,0,0,0,0,0,0,0,0,0,0,0,0,0,0,0,0,0,0,0,0,0,0,0,0,0,0,0,0,0,0,0,0,0,0,0,0,0,0,0,0,0,0,0,0,0,0,0,0,0,0,0,0,0,0,0,0,0,0,0,46,0,0,0,0,0,0,0,0,0,0,0,0,0,0,0,0,0,0,0,0,0,0,0,0,0,0,0,0,0,0,0,0,46,0,0,0,0,0,0,0,0,0,0,0,0,0,0,0,0,0,0,0,0,0,0,0,0,0,0,0,0,0,0,0,0,0,0,0,0,0,0,0,0,0,0,0,0,0,0,0,0,0,0,0,0,0,0,0,0,0,0,0,0,0,0,0,0,0,0,0,0,0,0,0,0,0,0,0,0,0,0,46,0,0,0,0,0,0,0,0,0,0,0,0,0,0,0,0,0,0,0,0,0,0,0,0,0,0,0,0,0,0,0,0,46,0,0,0,0,0,0,0,0,0,0,0,0,0,0,0,0,0,0,0,0,0,0,0,0,0,0,0,0,0,0,0,0,0,0,0,0,0,0,0,0,0,0,0,0,0,0,0,0,0,0,0,0,0,0,0,0,0,0,0,0,0,0,0,0,0,0,0,0,0,0,0,0,0,0,0,0,0,0,46,0,0,0,0,0,0,0,0,0,0,0,0,0,0,0,0,0,0,0,0,0,0,0,0,0,0,0,0,0,0,0,0,46,0,0,0,0,0,0,0,0,0,0,0,0,0,0,0,0,0,0,0,0,0,0,0,0,0,0,0,0,0,0,0,0,0,0,0,0,0,0,0,0,0,0,0,0,0,0,0,0,0,0,0,0,0,0,0,0,0,0,0,0,0,0,0,0,0,0,0,0,0,0,0,0,0,0,0,0,0,0,46,0,0,0,0,0,0,0,0,0,0,0,0,0,0,0,0,0,0,0,0,0,0,0,0,0,0,0,0,0,0,0,0,46,0,0,0,0,0,0,0,0,0,0,0,0,0,0,0,0,0,0,0,0,0,0,0,0,0,0,0,0,0,0,0,0,0,0,0,0,0,0,0,0,0,0,0,0,0,0,0,0,0,0,0,0,0,0,0,0,0,0,0,0,0,0,0,0,0,0,0,0,0,0,0,0,0,0,0,0,0,0,46,0,0,0,0,0,0,0,0,0,0,0,0,0,0,0,0,0,0,0,0,0,0,0,0,0,0,0,0,0,0,0,0,46,0,0,0,0,0,0,0,0,0,0,0,0,0,0,0,0,0,0,0,0,0,0,0,0,0,0,0,0,0,0,0,0,0,0,0,0,0,0,0,0,0,0,0,0,0,0,0,0,0,0,0,0,0,0,0,0,0,0,0,0,0,0,0,0,0,0,0,0,0,0,0,0,0,0,0,0,0,0,46,0,0,0,0,0,0,0,0,0,0,0,0,0,0,0,0,0,0,0,0,0,0,0,0,0,0,0,0,0,0,0,0,46,0,0,0,0,0,0,0,0,0,0,0,0,0,0,0,0,0,0,0,0,0,0,0,0,0,0,0,0,0,0,0,0,0,0,0,0,0,0,0,0,0,0,0,0,0,0,0,0,0,0,0,0,0,0,0,0,0,0,0,0,0,0,0,0,0,0,0,0,0,0,0,0,0,0,0,0,0,0,46,0,0,0,0,0,0,0,0,0,0,0,0,0,0,0,0,0,0,0,0,0,0,0,0,0,0,0,0,0,0,0,0,46,0,0,0,0,0,0,0,0,0,0,0,0,0,0,0,0,0,0,0,0,0,0,0,0,0,0,0,0,0,0,0,0,0,0,0,0,0,0,0,0,0,0,0,0,0,0,0,0,0,0,0,0,0,0,0,0,0,0,0,0,0,0,0,0,0,0,0,0,0,0,0,0,0,0,0,0,0,0,44,44,44,44,44,44,44,44,44,44,44,44,44,44,44,44,44,44,0,0,44,44,44,44,44,44,44,44,44,44,44,44,44,44,0,0,0,0,0,0,0,0,0,0,0,0,0,0,0,0,0,0,0,0,0,0,0,0,0,0,0,0,0,0,0,0,0,0,0,0,0,0,0,0,0,0,0,0,0,0,0,0,0,0,0,0,0,0,0,0,0,0,0,0,0,0,0,0,0,0,0,0,0,0,0,0,0,0,0,0,0,0,0,0,0,0,0,0,0,0,0,0,0,0,0,0,0,0,0,0,0,0,0,0,0,0,0,0,0,0,0,0,0,0,0,0,0,0,0,0,0,0,0,0,0,0,0,0,0,0,0,0,0,0,0,0,0,0,0,0,0,0,0,0,0,0,0,0,0,0,0,0,0,0,0,0,0,0,0,0,0,0,0,0,0,0,0,0,0,0,0,0,0,0,0,0,0,0,0,0,0,0,0,0,0,0,0,0,0,0,0,0,0,0,0,0,0,0,0,0,0,0,0,0,0,0,0,0,0,0,0,0,0,0,0,0,0,0,0,0,0,0,0,0,0,0,0,0,0,0,0,0,0,0,0,0,0,0,0,0,0,0,0,0,0,0,0,0,0,0,0,0,0,0,0,0,0,0,0,0,0,0,0,0,0,0,0,0,0,0,0,0,0,0,0,0,0,0,0,0,0,0,0,0,0,0,0,0,0,0,0,0,0,0,0,0,0,0,0,0,0,0,0,0,0,0,0,0,0,0,0,0,0,0,0,0,0,0,0,0,0,0,0,0,0,0,0,0,0,0,0,0,0,0,0,0,0,0,0,0,0,0,0,0,0,0,0,0,0,0,0,0,0,0,0,0,0,0,0,0,0,0,0,0,0,0,0,0,0,0,0,0,0,0,0,0,0,0,0,0,0,0,0,0,0,0,0,0,0,0,0,0,0,0,0,0,0,0,0,0,0,0,0,0,0,0,0,0,0,0,0,0,0,0,0,0,0,0,0,0,0,0,0,0,0,0,0,0,0,0,0,0,0,0,0,0,0,0,0,0,0,0,0,0,0,0,0,0,0,0,0,0,0,0,0,0,0,0,0,0,0,0,0,0,0,0,0,0,0,0,0,0,0,0,0,0,0,0,0,0,0,0,0,0,0,0,0,0,0,0,0,0,0,0,0,0,0,0,0,0,0,0,0,0,0,0,0,0,0,0,0,0,0,0,0,0,0,0,0,0,0,0,0,0,0,0,0,0,0,0,0,0,0,0,0,0,0,0,0,0,0,0,0,0,0,0,0,0,0,0,0,0,0,0,0,0,0,0,0,0,0,0,0,0,0,0,0,0,0,0,0,0,0,0,0,0,0,0,0,0,0,0,0,0,0,0,0,0,0,0,0,0,0,0,0,0,0,0,0,0,0,0,0,0,0,0,0,0,0,0,0,0,0,0,0,0,0,0,0,0,0,0,0,0,0,0,0,0,0,0,0,0,0,0,0,0,0,0,0,0,0,0,0,0,0,0,0,0,0,0,0,0,0,0,0,0,0,0,0,0,0,0,0,0,0,0,0,0,0,0,0,0,0,0,0,0,0,0,0,0,0,0,0,0,0,0,0,0,0,0,0,0,0,0,0,0,0,0,0,0,0,0,0,0,0,0,0,0,0,0,0,0,0,0,0,0,0,0,0,0,0,0,0,0,0,0,0,0,0,0,0,0,0,0,0,0,0,0,0,0,0,0,0,0,0,0,0,0,0,0,0,0,0,0,0,0,0,0,0,0,0,0,0,0,0,0,0,0,0,0,0,0,0,0,0,0,0,0,0,0,0,0,0,0,0,0,0,0,0,0,0,0,0,0,0,0,0,0,0,0,0,0,0,0,0,0,0,0,0,0,0,0,0,0,0,0,0,0,0,0,0,0,0,0,0,0,0,0,0,0,0,0,0,0,0,0,0,0,0,0,0,0,0,0,0,0,0,0,0,0,0,0,0,0,0,0,0,0,0,0,0,0,0,0,0,0,0,0,0,0,0,0,0,0,0,0,0,0,0,0,0,0,0,0,0,0,0,0,0,0,0,0,0,0,0,0,0,0,0,0,0,0,0,0,0,0,0,0,0,0,0,0,0,0,0,0,0,0,0,0,0,0,0,0,0,0,0,0,0,0,0,0,0,0,0,0,0,0,0,0,0,0,0,0,0,0,0,0,0,0,0,0,0,0,0,0,0,0,0,0,0,0,0,0,0,0,0,0,0,0,0,0,0,0,0,0,0,0,0,0,0,0,0,0,0,0,0,0,0,0,0,0,0,0,0,0,0,0,0,0,0,0,0,0,0,0,0,0,0,0,0,0,0,0,0,0,0,0,0,0,0,0,0,0,0,0,0,0,0,0,0,0,0,0,0,0,0,0,0,0,0,0,0,0,0,0,0,0,0,0,0,0,0,0,0,0,0,0,0,0,0,0,0,0,0,0,0,0,0,0,0,0,0,0,0,0,0,0,0,0,0,0,0,0,0,0,0,0,0,0,0,0,0,0,0,0,0,0,0,0,0,0,0,0,0,0,0,0,0,0,0,0,0,0,0,0,0,0,0,0,0,0,0,0,0,0,0,0,0,0,0,0,0,0,0,0,0,0,0,0,0,0,0,0,0,0,0,0,0,0,0,0,0,0,0,0,0,0,0,0,0,0,0,0,0,0,0,0,0,0,0,0,0,0,0,0,0,0,0,0,0,0,0,0,0,0,0,0,0,0,0,0,0,0,0,0,0,0,0,0,0,0,0,0,0,0,0,0,0,0,0,0,0,0,0,0,0,0,0,0,0,0,0,0,0,0,0,0,0,0,0,0,0,0,0,0,0,0,0,0,0,0,0,0,0,0,0,0,0,0,0,0,0,0,0,0,0,0,0,0,0,0,0,0,0,0,0,0,0,0,0,0,0,0,0,0,0,0,0,0,0,0,0,0,0,0,0,0,0,0,0,0,0,0,0,0,0,0,0,0,0,0,0,0,0,0,0,0,0,0,0,0,0,0,0,0,0,0,0,0,0,0,0,0,0,0,0,0,0,0,0,0,0,0,0,0,0,0,0,0,0,0,0,0,0,0,0,0,0,0,0,0,0,0,0,0,0,0,0,0,0,0,0,0,0,0,0,0,0,0,0,0,0,0,0,0,0,0,0,0,0,0,0,0,0,0,0,0,0,0,0,0,0,0,0,0,0,0,0,0,0,0,0,0,0,0,0,0,0,0,0,0,0,0,0,0,0,0,0,0,0,0,0,0,0,0,0,0,0,0,0,0,0,0,0,0,0,0,0,0,0,0,0,0,0,0,0,0,0,0,0,0,0,0,0,0,0,0,0,0,0,0,0,0,0,0,0,0,0,0,0,0,0,0,0,0,0,0,0,0,0,0,0,0,0,0,0,0,0,0,0,0,0,0,0,0,0,0,0,0,0,0,0,0,0,0,0,0,0,0,0,0,0,0,0,0,0,0,0,0,0,0,0,0,0,0,0,0,0,0,0,0,0,0,0,0,0,0,0,0,0,0,0,0,0,0,0,0,0,0,0,0,0,0,0,0,0,0,0,0,0,0,0,0,0,0,0,0,0,0,0,0,0,0,0,0,0,0,0,0,0,0,0,0,0,0,0,0,0,0,0,0,0,0,0,0,0,0,0,0,0,0,0,0,0,0,0,0,0,0,0,0,0,0,0,0,0,0,0,0,0,0,0,0,0,0,0,0,0,0,0,0,0,0,0,0,0,0,0,0,0,0,0,0,0,0,0,0,0,0,0,0,0,0,0,0,0,0,0,0,0,0,0,0,0,0,0,0,0,0,0,0,0,0,0,0,0,0,0,0,0,0,0,0,0,0,0,0,0,0,0,0,0,0,0,0,0,0,0,0,0,0,0,0,0,0,0,0,0,0,0,0,0,0,0,0,0,0,0,0,0,0,0,0,0,0,0,0,0,0,0,0,0,0,0,0,0,0,0,0,0,0,0,0,0,0,0,0,0,0,0,0,0,0,0,0,0,0,0,0,0,0,0,0,0,0,0,0,0,0,0,0,0,0,0,0,0,0,0,0,0,0,0,0,0,0,0,0,0,0,0,0,0,0,0,0,0,0,0,0,0,0,0,0,0,0,0,0,0,0,0,0,0,0,0,0,0,0,0,0,0,0,0,0,0,0,0,0,0,0,0,0,0,0,0,0,0,0,0,0,0,0,0,0,0,0,0,0,0,0,0,0,0,0,0,0,0,0,0,0,0,0,0,0,0,0,0,0,0,0,0,0,0,0,0,0,0,0,0,0,0,0,0,0,0,0,0,0,0,0,0,0,0,0,0,0,0,0,0,0,0,0,0,0,0,0,0,0,0,0,0,0,0,0,0,0,0,0,0,0,0,0,0,0,0,0,0,0,0,0,0,0,0,0,0,0,0,0,0,0,0,0,0,0,0,0,0,0,0,0,0,0,0,0,0,0,0,0,0,0,0,0,0,0,0,0,0,0,0,0,0,0,0,0,0,0,0,0,0,0,0,0,0,0,0,0,0,0,0,0,0,0,0,0,0,0,0,0,0,0,0,0,0,0,0,0,0,0,0,0,0,0,0,0,0,0,0,0,0,0,0,0,0,0,0,0,0,0,0,0,0,0,0,0,0,0,0,0,0,0,0,0,0,0,0,0,0,0,0,0,0,0,0,0,0,0,0,0,0,0,0,0,0,0,0,0,0,0,0,0,0,0,0,0,0,0,0,0,0,0,0,0,0,0,0,0,0,0,0,0,0,0,0,0,0,0,0,0,0,0,0,0,0,0,0,0,0,0,0,0,0,0,0,0,0,0,0,0,0,0,0,0,0,0,0,0,0,0,0,0,0,0,0,0,0,0,0,0,0,0,0,0,0,0,0,0,0,0,0,0,0,0,0,0,0,0,0,0,0,0,0,0,0,0,0,0,0,0,0,0,0,0,0,0,0,0,0,0,0,0,0,0,0,0,0,0,0,0,0,0,0,0,0,0,0,0,0,0,0,0,0,0,0,0,0,0,0,0,0,0,0,0,0,0,0,0,0,0,0,0,0,0,0,0,0,0,0,0,0,0,0,0,0,0,0,0,0,0,0,0,0,0,0,0,0,0,0,0,0,0,0,0,0,0,0,0,0,0,0,0,0,0,0,0,0,0,0,0,0,0,0,0,0,0,0,0,0,0,0,0,0,0,0,0,0,0,0,0,0,0,0,0,0,0,0,0,0,0,0,0,0,0,0,0,0,0,0,0,0,0,0,0,0,0,0,0,0,0,0,0,0,0,0,0,0,0,0,0,0,0,0,0,0,0,0,0,0,0,0,0,0,0,0,0,0,0,0,0,0,0,0,0,0,0,0,0,0,0,0,0,0,0,0,0,0,0,0,0,0,0,0,0,0,0,0,0,0,0,0,0,0,0,0,0,0,0,0,0,0,0,0,0,0,0,0,0,0,0,0,0,0,0,0,0,0,0,0,0,0,0,0,0,0,0,0,0,0,0,0,0,0,0,0,0,0,0,0,0,0,0,0,0,0,0,0,0,0,0,0,0,0,0,0,0,0,0,0,0,0,0,0,0,0,0,0,0,0,0,0,0,0,0,0,0,0,0,0,0,0,0,0,0,0,0,0,0,0,0,0,0,0,0,0,0,0,0,0,0,0,0,0,0,0,0,0,0,0,0,0,0,0,0,0,0,0,0,0,0,0,0,0,0,0,0,0,0,0,0,0,0,0,0,0,0,0,0,0,0,0,0,0,0,0,0,0,0,0,0,0,0,0,0,0,0,0,0,0,0,0,0,0,0,0,0,0,0,0,0,0,0,0,0,0,0,0,0,0,0,0,0,0,0,0,0,0,0,0,0,0,0,0,0,0,0,0,0,0,0,0,0,0,0,0,0,0,0,0,0,0,0,0,0,0,0,0,0,0,0,0,0,0,0,0,0,0,0,0,0,0,0,0,0,0,0,0,0,0,0,0,0,0,0,0,0,0,0,0,0,0,0,0,0,0,0,0,0,0,0,0,0,0,0,0,0,0,0,0,0,0,0,0,0,0,0,0,0,0,0,0,0,0,0,0,0,0,0,0,0,0,0,0,0,0,0,0,0,0,0,0,0,0,0,0,0,0,0,0,0,0,0,0,0,0,0,0,0,0,0,0,0,0,0,0,0,0,0,0,0,0,0,0,0,0,0,0,0,0,0,0,0,0,0,0,0,0,0,0,0,0,0,0,0,0,0,0,0,0,0,0,0,0,0,0,0,0,0,0,0,0,0,0,0,0,0,0,0,0,0,0,0,0,0,0,0,0,0,0,0,0,0,0,0,0,0,0,0,0,0,0,0,0,0,0,0,0,0,0,0,0,0,0,0,0,0,0,0,0,0,0,0,0,0,0,0,0,0,0,0,0,0,0,0,0,0,0,0,0,0,0,0,0,0,0,0,0,0,0,0,0,0,0,0,0,0,0,0,0,0,0,0,0,0,0,0,0,0,0,0,0,0,0,0,0,0,0,0,0,0,0,0,0,0,0,0,0,0,0,0,0,0,0,0,0,0,0,0,0,0,0,0,0,0,0,0,0,0,0,0,0,0,0,0,0,0,0,0,0,0,0,0,0,0,0,0,0,0,0,0,0,0,0,0,0,0,0,0,0,0,0,0,0,0,0,0,0,0,0,0,0,0,0,0,0,0,0,0,0,0,0,0,0,0,0,0,0,0,0,0,0,0,0,0,0,0,0,0,0,0,0,0,0,0,0,0,0,0,0,0,0,0,0,0,0,0,0,0,0,0,0,0,0,0,0,0,0,0,0,0,0,0,0,0,0,0,0,0,0,0,0,0,0,0,0,0,0,0,0,0,0,0,0,0,0,0,0,0,0,0,0,0,0,0,0,0,0,0,0,0,0,0,0,0,0,0,0,0,0,0,0,0,0,0,0,0,0,0,0,0,0,0,0,0,0,0,0,0,0,0,0,0,0,0,0,0,0,0,0,0,0,0,0,0,0,0,0,0,0,0,0,0,0,0,0,0,0,0,0,0,0,0,0,0,0,0,0,0,0,0,0,0,0,0,0,0,0,0,0,0,0,0,0,0,0,0,0,0,0,0,0,0,0,0,0,0,0,0,0,0,0,0,0,0,0,0,0,0,0,0,0,0,0,0,0,0,0,0,0,0,0,0,0,0,0,0,0,0,0,0,0,0,0,0,0,0,0,0,0,0,0,0,0,0,0,0,0,0,0,0,0,0,0,0,0,0,0,0,0,0,0,0,0,0,0,0,0,0,0,0,0,0,0,0,0,0,0,0,0,0,0,0,0,0,0,0,0,0,0,0,0,0,0,0,0,0,0,0,0,0,0,0,0,0,0,0,0,0,0,0,0,0,0,0,0,0,0,0,0,0,0,0,0,0,0,0,0,0,0,0,0,0,0,0,0,0,0,0,0,0,0,0,0,0,0,0,0,0,0,0,0,0,0,0,0,0,0,0,0,0,0,0,0,0,0,0,0,0,0,0,0,0,0,0,0,0,0,0,0,0,0,0,0,0,0,0,0,0,0,0,0,0,0,0,0,0,0,0,0,0,0,0,0,0,0,0,0,0,0,0,0,0,0,0,0,0,0,0,0,0,0,0,0,0,0,0,0,0,0,0,0,0,0,0,0,0,0,0,0,0,0,0,0,0,0,0,0,0,0,0,0,0,0,0,0,0,0,0,0,0,0,0,0,0,0,0,0,0,0,0,0,0,0,0,0,0,0,0,0,0,0,0,0,0,0,0,0,0,0,0,0,0,0,0,0,0,0,0,0,0,0,0,0,0,0,0,0,0,0,0,0,0,0,0,0,0,0,0,0,0,0,0,0,0,0,0,0,0,0,0,0,0,0,0,0,0,0,0,0,0,0,0,0,0,0,0,0,0,0,0,0,0,0,0,0,0,0,0,0,0,0,0,0,0,0,0,0,0,0,0,0,0,0,0,0,0,0,0,0,0,0,0,0,0,0,0,0,0,0,0,0,0,0,0,0,0,0,0,0,0,0,0,0,0,0,0,0,0,0,0,0,0,0,0,0,0,0,0,0,0,0,0,0,0,0,0,0,0,0,0,0,0,0,0,0,0,0,0,0,0,0,0,0,0,0,0,0,0,0,0,0,0,0,0,0,0,0,0,0,0,0,0,0,0,0,0,0,0,0,0,0,0,0,0,0,0,0,0,0,0,0,0,0,0,0,0,0,0,0,0,0,0,0,0,0,0,0,0,0,0,0,0,0,0,0,0,0,0,0,0,0,0,0,0,0,0,0,0,0,0,0,0,0,0,0,0,0,0,0,0,0,0,0,0,0,0,0,0,0,0,0,0,0,0,0,0,0,0,0,0,0,0,0,0,0,0,0,0,0,0,0,0,0,0,0,0,0,0,0,0,0,0,0,0,0,0,0,0,0,0,0,0,0,0,0,0,0,0,0,0,0,0,0,0,0,0,0,0,0,0,0,0,0,0,0,0,0,0,0,0,0,0,0,0,0,0,0,0,0,0,0,0,0,0,0,0,0,0,0,0,0,0,0,0,0,0,0,0,0,0,0,0,0,0,0,0,0,0,0,0,0,0,0,0,0,0,0,0,0,0,0,0,0,0,0,0,0,0,0,0,0,0,0,0,0,0,0,0,0,0,0,0,0,0,0,0,0,0,0,0,0,0,0,0,0,0,0,0,0,0,0,0,0,0,0,0,0,0,0,0,0,0,0,0,0,0,0,0,0,0,0,0,0,0,0,0,0,0,0,0,0,0,0,0,0,0,0,0,0,0,0,0,0,0,0,0,0,0,0,0,0,0,0,0,0,0,0,0,0,0,0,0,0,0,0,0,0,0,0,0,0,0,0,0,0,0,0,0,0,0,0,0,0,0,0,0,0,0,0,0,0,0,0,0,0,0,0,0,0,0,0,0,0,0,0,0,0,0,0,0,0,0,0,0,0,0,0,0,0,0,0,0,0,0,0,0,0,0,0,0,0,0,0,0,0,0,0,0,0,0,0,0,0,0,0,0,0,0,0,0,0,0,0,0,0,0,0,0,0,0,0,0,0,0,0,0,0,0,0,0,0,0,0,0,0,0,0,0,0,0,0,0,0,0,0,0,0,0,0,0,0,0,0,0,0,0,0,0,0,0,0,0,0,0,0,0,0,0,0,0,0,0,0,0,0,0,0,0,0,0,0,0,0,0,0,0,0,0,0,0,0,0,0,0,0,0,0,0,0,0,0,0,0,0,0,0,0,0,0,0,0,0,0,0,0,0,0,0,0,0,0,0,0,0,0,0,0,0,0,0,0,0,0,0,0,0,0,0,0,0,0,0,0,0,0,0,0,0,0,0,0,0,0,0,0,0,0,0,0,0,0,0,0,0,0,0,0,0,0,0,0,0,0,0,0,0,0,0,0,0,0,0,0,0,0,0,0,0,0,0,0,0,0,0,0,0,0,0,0,0,0,0,0,0,0,0,0,0,0,0,0,0,0,0,0,0,0,0,0,0,0,0,0,0,0,0,0,0,0,0,0,0,0,0,0,0,0,0,0,0,0,0,0,0,0,0,0,0,0,0,0,0,0,0,0,0,0,0,0,0,0,0,0,0,0,0,0,0,0,0,0,0,0,0,0,0,0,0,0,0,0,0,0,0,0,0,0,0,0,0,0,0,0,0,0,0,0,0,0,0,0,0,0,0,0,0,0,0,0,0,0,0,0,0,0,0,0,0,0,0,0,0,0,0,0,0,0,0,0,0,0,0,0,0,0,0,0,0,0,0,0,0,0,0,0,0,0,0,0,0,0,0,0,0,0,0,0,0,0,0,0,0,0,0,0,0,0,0,0,0,0,0,0,0,0,0,0,0,0,0,0,0,0,0,0,0,0,0,0,0,0,0,0,0,0,0,0,0,0,0,0,0,0,0,0,0,0,0,0,0,0,0,0,0,0,0,0,0,0,0,0,0,0,0,0,0,0,0,0,0,0,0,0,0,0,0,0,0,0,0,0,0,0,0,0,0,0,0,0,0,0,0,0,0,0,0,0,0,0,0,0,0,0,0,0]},{"id":4,"name":"objects","type":"objectgroup","draworder":"topdown","x":0,"y":0,"opacity":1,"visible":true,"objects":[{"id":1,"name":"building.gatehouse#0","type":"prop","x":416.0,"y":400,"width":0,"height":0,"rotation":0,"visible":true,"point":true,"properties":[{"name":"kind","type":"string","value":"building.gatehouse"},{"name":"fw","type":"int","value":32},{"name":"fh","type":"int","value":16},{"name":"solid","type":"bool","value":false},{"name":"ref","type":"string","value":"park-gate"}]},{"id":2,"name":"building.pavilion#0","type":"prop","x":184.0,"y":176,"width":0,"height":0,"rotation":0,"visible":true,"point":true,"properties":[{"name":"kind","type":"string","value":"building.pavilion"},{"name":"fw","type":"int","value":48},{"name":"fh","type":"int","value":48},{"name":"solid","type":"bool","value":true},{"name":"ref","type":"string","value":"pavilion"},{"name":"cl","type":"float","value":28.0},{"name":"cr","type":"float","value":28.0}]},{"id":3,"name":"landmark.pagoda#0","type":"prop","x":568.0,"y":144,"width":0,"height":0,"rotation":0,"visible":true,"point":true,"properties":[{"name":"kind","type":"string","value":"landmark.pagoda"},{"name":"fw","type":"int","value":48},{"name":"fh","type":"int","value":48},{"name":"solid","type":"bool","value":true},{"name":"ref","type":"string","value":"pagoda"}]},{"id":4,"name":"furniture.gotable#0","type":"prop","x":216.0,"y":288,"width":0,"height":0,"rotation":0,"visible":true,"point":true,"properties":[{"name":"kind","type":"string","value":"furniture.gotable"},{"name":"fw","type":"int","value":16},{"name":"fh","type":"int","value":16},{"name":"solid","type":"bool","value":true},{"name":"ref","type":"string","value":"gotable-1"}]},{"id":5,"name":"furniture.gotable#0","type":"prop","x":536.0,"y":288,"width":0,"height":0,"rotation":0,"visible":true,"point":true,"properties":[{"name":"kind","type":"string","value":"furniture.gotable"},{"name":"fw","type":"int","value":16},{"name":"fh","type":"int","value":16},{"name":"solid","type":"bool","value":true},{"name":"ref","type":"string","value":"gotable-2"}]},{"id":6,"name":"furniture.gotable#0","type":"prop","x":280.0,"y":352,"width":0,"height":0,"rotation":0,"visible":true,"point":true,"properties":[{"name":"kind","type":"string","value":"furniture.gotable"},{"name":"fw","type":"int","value":16},{"name":"fh","type":"int","value":16},{"name":"solid","type":"bool","value":true},{"name":"ref","type":"string","value":"gotable-3"}]},{"id":7,"name":"building.office_tower#0","type":"prop","x":928.0,"y":368,"width":0,"height":0,"rotation":0,"visible":true,"point":true,"properties":[{"name":"kind","type":"string","value":"building.office_tower"},{"name":"fw","type":"int","value":192},{"name":"fh","type":"int","value":80},{"name":"solid","type":"bool","value":true},{"name":"ref","type":"string","value":"tower"},{"name":"plaque","type":"string","value":"ONE INTERNATIONAL"},{"name":"cl","type":"float","value":92.0},{"name":"cr","type":"float","value":92.0}]},{"id":8,"name":"building.office_block#1","type":"prop","x":1344.0,"y":240,"width":0,"height":0,"rotation":0,"visible":true,"point":true,"properties":[{"name":"kind","type":"string","value":"building.office_block"},{"name":"fw","type":"int","value":96},{"name":"fh","type":"int","value":48},{"name":"solid","type":"bool","value":true},{"name":"ref","type":"string","value":"client"},{"name":"cl","type":"float","value":44.0},{"name":"cr","type":"float","value":44.0}]},{"id":9,"name":"building.office_block#2","type":"prop","x":1536.0,"y":240,"width":0,"height":0,"rotation":0,"visible":true,"point":true,"properties":[{"name":"kind","type":"string","value":"building.office_block"},{"name":"fw","type":"int","value":96},{"name":"fh","type":"int","value":48},{"name":"solid","type":"bool","value":true},{"name":"ref","type":"string","value":"hq"},{"name":"cl","type":"float","value":44.0},{"name":"cr","type":"float","value":44.0}]},{"id":10,"name":"building.office_block#0","type":"prop","x":1664.0,"y":112,"width":0,"height":0,"rotation":0,"visible":true,"point":true,"properties":[{"name":"kind","type":"string","value":"building.office_block"},{"name":"fw","type":"int","value":96},{"name":"fh","type":"int","value":48},{"name":"solid","type":"bool","value":true},{"name":"ref","type":"string","value":"office-3"},{"name":"cl","type":"float","value":44.0},{"name":"cr","type":"float","value":44.0}]},{"id":11,"name":"building.storefront#3","type":"prop","x":1344.0,"y":432,"width":0,"height":0,"rotation":0,"visible":true,"point":true,"properties":[{"name":"kind","type":"string","value":"building.storefront"},{"name":"fw","type":"int","value":64},{"name":"fh","type":"int","value":32},{"name":"solid","type":"bool","value":true},{"name":"ref","type":"string","value":"corner-shop"},{"name":"cl","type":"float","value":28.0},{"name":"cr","type":"float","value":28.0}]},{"id":12,"name":"building.storefront#3","type":"prop","x":1536.0,"y":432,"width":0,"height":0,"rotation":0,"visible":true,"point":true,"properties":[{"name":"kind","type":"string","value":"building.storefront"},{"name":"fw","type":"int","value":64},{"name":"fh","type":"int","value":32},{"name":"solid","type":"bool","value":true},{"name":"ref","type":"string","value":"phone-shop"},{"name":"cl","type":"float","value":28.0},{"name":"cr","type":"float","value":28.0}]},{"id":13,"name":"building.storefront#2","type":"prop","x":1664.0,"y":432,"width":0,"height":0,"rotation":0,"visible":true,"point":true,"properties":[{"name":"kind","type":"string","value":"building.storefront"},{"name":"fw","type":"int","value":64},{"name":"fh","type":"int","value":32},{"name":"solid","type":"bool","value":true},{"name":"ref","type":"string","value":"cafe"},{"name":"cl","type":"float","value":28.0},{"name":"cr","type":"float","value":28.0}]},{"id":14,"name":"building.subway_entrance#0","type":"prop","x":120.0,"y":752,"width":0,"height":0,"rotation":0,"visible":true,"point":true,"properties":[{"name":"kind","type":"string","value":"building.subway_entrance"},{"name":"fw","type":"int","value":48},{"name":"fh","type":"int","value":32},{"name":"solid","type":"bool","value":true},{"name":"ref","type":"string","value":"station"},{"name":"cl","type":"float","value":20.0},{"name":"cr","type":"float","value":20.0}]},{"id":15,"name":"building.storefront#0","type":"prop","x":320.0,"y":752,"width":0,"height":0,"rotation":0,"visible":true,"point":true,"properties":[{"name":"kind","type":"string","value":"building.storefront"},{"name":"fw","type":"int","value":64},{"name":"fh","type":"int","value":32},{"name":"solid","type":"bool","value":true},{"name":"ref","type":"string","value":"shop-s1"},{"name":"cl","type":"float","value":28.0},{"name":"cr","type":"float","value":28.0}]},{"id":16,"name":"building.storefront#3","type":"prop","x":512.0,"y":752,"width":0,"height":0,"rotation":0,"visible":true,"point":true,"properties":[{"name":"kind","type":"string","value":"building.storefront"},{"name":"fw","type":"int","value":64},{"name":"fh","type":"int","value":32},{"name":"solid","type":"bool","value":true},{"name":"ref","type":"string","value":"shop-s2"},{"name":"cl","type":"float","value":28.0},{"name":"cr","type":"float","value":28.0}]},{"id":17,"name":"building.storefront#0","type":"prop","x":704.0,"y":752,"width":0,"height":0,"rotation":0,"visible":true,"point":true,"properties":[{"name":"kind","type":"string","value":"building.storefront"},{"name":"fw","type":"int","value":64},{"name":"fh","type":"int","value":32},{"name":"solid","type":"bool","value":true},{"name":"ref","type":"string","value":"shop-s3"},{"name":"cl","type":"float","value":28.0},{"name":"cr","type":"float","value":28.0}]},{"id":18,"name":"building.storefront#0","type":"prop","x":1024.0,"y":752,"width":0,"height":0,"rotation":0,"visible":true,"point":true,"properties":[{"name":"kind","type":"string","value":"building.storefront"},{"name":"fw","type":"int","value":64},{"name":"fh","type":"int","value":32},{"name":"solid","type":"bool","value":true},{"name":"ref","type":"string","value":"shop-s4"},{"name":"cl","type":"float","value":28.0},{"name":"cr","type":"float","value":28.0}]},{"id":19,"name":"building.storefront#0","type":"prop","x":1664.0,"y":752,"width":0,"height":0,"rotation":0,"visible":true,"point":true,"properties":[{"name":"kind","type":"string","value":"building.storefront"},{"name":"fw","type":"int","value":64},{"name":"fh","type":"int","value":32},{"name":"solid","type":"bool","value":true},{"name":"ref","type":"string","value":"shop-s5"},{"name":"cl","type":"float","value":28.0},{"name":"cr","type":"float","value":28.0}]},{"id":20,"name":"building.pojangmacha#0","type":"prop","x":936.0,"y":880,"width":0,"height":0,"rotation":0,"visible":true,"point":true,"properties":[{"name":"kind","type":"string","value":"building.pojangmacha"},{"name":"fw","type":"int","value":48},{"name":"fh","type":"int","value":32},{"name":"solid","type":"bool","value":true},{"name":"ref","type":"string","value":"pojangmacha"},{"name":"cl","type":"float","value":20.0},{"name":"cr","type":"float","value":20.0}]},{"id":21,"name":"building.storefront#2","type":"prop","x":784.0,"y":880,"width":0,"height":0,"rotation":0,"visible":true,"point":true,"properties":[{"name":"kind","type":"string","value":"building.storefront"},{"name":"fw","type":"int","value":64},{"name":"fh","type":"int","value":32},{"name":"solid","type":"bool","value":true},{"name":"ref","type":"string","value":"eatery"},{"name":"cl","type":"float","value":28.0},{"name":"cr","type":"float","value":28.0}]},{"id":22,"name":"market.stalls#0","type":"prop","x":1280.0,"y":816,"width":0,"height":0,"rotation":0,"visible":true,"point":true,"properties":[{"name":"kind","type":"string","value":"market.stalls"},{"name":"fw","type":"int","value":96},{"name":"fh","type":"int","value":32},{"name":"solid","type":"bool","value":true},{"name":"ref","type":"string","value":"stalls-1"}]},{"id":23,"name":"market.stalls#0","type":"prop","x":1472.0,"y":816,"width":0,"height":0,"rotation":0,"visible":true,"point":true,"properties":[{"name":"kind","type":"string","value":"market.stalls"},{"name":"fw","type":"int","value":96},{"name":"fh","type":"int","value":32},{"name":"solid","type":"bool","value":true},{"name":"ref","type":"string","value":"stalls-2"}]},{"id":24,"name":"market.stalls#0","type":"prop","x":1280.0,"y":944,"width":0,"height":0,"rotation":0,"visible":true,"point":true,"properties":[{"name":"kind","type":"string","value":"market.stalls"},{"name":"fw","type":"int","value":96},{"name":"fh","type":"int","value":32},{"name":"solid","type":"bool","value":true},{"name":"ref","type":"string","value":"stalls-3"}]},{"id":25,"name":"market.stalls#0","type":"prop","x":1472.0,"y":944,"width":0,"height":0,"rotation":0,"visible":true,"point":true,"properties":[{"name":"kind","type":"string","value":"market.stalls"},{"name":"fw","type":"int","value":96},{"name":"fh","type":"int","value":32},{"name":"solid","type":"bool","value":true},{"name":"ref","type":"string","value":"stalls-4"}]},{"id":26,"name":"prop.car#1","type":"prop","x":192.0,"y":560,"width":0,"height":0,"rotation":0,"visible":true,"point":true,"properties":[{"name":"kind","type":"string","value":"prop.car"},{"name":"fw","type":"int","value":64},{"name":"fh","type":"int","value":32},{"name":"solid","type":"bool","value":true},{"name":"ref","type":"string","value":"car-1"}]},{"id":27,"name":"prop.car#3","type":"prop","x":640.0,"y":624,"width":0,"height":0,"rotation":0,"visible":true,"point":true,"properties":[{"name":"kind","type":"string","value":"prop.car"},{"name":"fw","type":"int","value":64},{"name":"fh","type":"int","value":32},{"name":"solid","type":"bool","value":true},{"name":"ref","type":"string","value":"car-2"}]},{"id":28,"name":"prop.car#2","type":"prop","x":960.0,"y":560,"width":0,"height":0,"rotation":0,"visible":true,"point":true,"properties":[{"name":"kind","type":"string","value":"prop.car"},{"name":"fw","type":"int","value":64},{"name":"fh","type":"int","value":32},{"name":"solid","type":"bool","value":true},{"name":"ref","type":"string","value":"car-3"}]},{"id":29,"name":"prop.car#2","type":"prop","x":1536.0,"y":624,"width":0,"height":0,"rotation":0,"visible":true,"point":true,"properties":[{"name":"kind","type":"string","value":"prop.car"},{"name":"fw","type":"int","value":64},{"name":"fh","type":"int","value":32},{"name":"solid","type":"bool","value":true},{"name":"ref","type":"string","value":"car-4"}]},{"id":30,"name":"tree.ginkgo#0","type":"prop","x":88.0,"y":448,"width":0,"height":0,"rotation":0,"visible":true,"point":true,"properties":[{"name":"kind","type":"string","value":"tree.ginkgo"},{"name":"fw","type":"int","value":16},{"name":"fh","type":"int","value":16},{"name":"solid","type":"bool","value":true}]},{"id":31,"name":"tree.ginkgo#1","type":"prop","x":72.0,"y":720,"width":0,"height":0,"rotation":0,"visible":true,"point":true,"properties":[{"name":"kind","type":"string","value":"tree.ginkgo"},{"name":"fw","type":"int","value":16},{"name":"fh","type":"int","value":16},{"name":"solid","type":"bool","value":true}]},{"id":32,"name":"tree.pine#0","type":"prop","x":392.0,"y":112,"width":0,"height":0,"rotation":0,"visible":true,"point":true,"properties":[{"name":"kind","type":"string","value":"tree.pine"},{"name":"fw","type":"int","value":16},{"name":"fh","type":"int","value":16},{"name":"solid","type":"bool","value":true}]},{"id":33,"name":"tree.pine#1","type":"prop","x":616.0,"y":240,"width":0,"height":0,"rotation":0,"visible":true,"point":true,"properties":[{"name":"kind","type":"string","value":"tree.pine"},{"name":"fw","type":"int","value":16},{"name":"fh","type":"int","value":16},{"name":"solid","type":"bool","value":true}]},{"id":34,"name":"tree.pine#1","type":"prop","x":584.0,"y":192,"width":0,"height":0,"rotation":0,"visible":true,"point":true,"properties":[{"name":"kind","type":"string","value":"tree.pine"},{"name":"fw","type":"int","value":16},{"name":"fh","type":"int","value":16},{"name":"solid","type":"bool","value":true}]},{"id":35,"name":"tree.pine#1","type":"prop","x":328.0,"y":304,"width":0,"height":0,"rotation":0,"visible":true,"point":true,"properties":[{"name":"kind","type":"string","value":"tree.pine"},{"name":"fw","type":"int","value":16},{"name":"fh","type":"int","value":16},{"name":"solid","type":"bool","value":true}]},{"id":36,"name":"tree.pine#1","type":"prop","x":488.0,"y":176,"width":0,"height":0,"rotation":0,"visible":true,"point":true,"properties":[{"name":"kind","type":"string","value":"tree.pine"},{"name":"fw","type":"int","value":16},{"name":"fh","type":"int","value":16},{"name":"solid","type":"bool","value":true}]},{"id":37,"name":"tree.pine#0","type":"prop","x":568.0,"y":256,"width":0,"height":0,"rotation":0,"visible":true,"point":true,"properties":[{"name":"kind","type":"string","value":"tree.pine"},{"name":"fw","type":"int","value":16},{"name":"fh","type":"int","value":16},{"name":"solid","type":"bool","value":true}]},{"id":38,"name":"prop.bench#0","type":"prop","x":256.0,"y":304,"width":0,"height":0,"rotation":0,"visible":true,"point":true,"properties":[{"name":"kind","type":"string","value":"prop.bench"},{"name":"fw","type":"int","value":32},{"name":"fh","type":"int","value":16},{"name":"solid","type":"bool","value":true}]},{"id":39,"name":"prop.bench#0","type":"prop","x":496.0,"y":128,"width":0,"height":0,"rotation":0,"visible":true,"point":true,"properties":[{"name":"kind","type":"string","value":"prop.bench"},{"name":"fw","type":"int","value":32},{"name":"fh","type":"int","value":16},{"name":"solid","type":"bool","value":true}]},{"id":40,"name":"prop.bench#0","type":"prop","x":528.0,"y":176,"width":0,"height":0,"rotation":0,"visible":true,"point":true,"properties":[{"name":"kind","type":"string","value":"prop.bench"},{"name":"fw","type":"int","value":32},{"name":"fh","type":"int","value":16},{"name":"solid","type":"bool","value":true}]},{"id":41,"name":"lamp.post#0","type":"prop","x":760.0,"y":416,"width":0,"height":0,"rotation":0,"visible":true,"point":true,"properties":[{"name":"kind","type":"string","value":"lamp.post"},{"name":"fw","type":"int","value":16},{"name":"fh","type":"int","value":16},{"name":"solid","type":"bool","value":true}]},{"id":42,"name":"lamp.post#0","type":"prop","x":792.0,"y":384,"width":0,"height":0,"rotation":0,"visible":true,"point":true,"properties":[{"name":"kind","type":"string","value":"lamp.post"},{"name":"fw","type":"int","value":16},{"name":"fh","type":"int","value":16},{"name":"solid","type":"bool","value":true}]},{"id":43,"name":"lamp.post#0","type":"prop","x":888.0,"y":384,"width":0,"height":0,"rotation":0,"visible":true,"point":true,"properties":[{"name":"kind","type":"string","value":"lamp.post"},{"name":"fw","type":"int","value":16},{"name":"fh","type":"int","value":16},{"name":"solid","type":"bool","value":true}]},{"id":44,"name":"lamp.post#0","type":"prop","x":984.0,"y":384,"width":0,"height":0,"rotation":0,"visible":true,"point":true,"properties":[{"name":"kind","type":"string","value":"lamp.post"},{"name":"fw","type":"int","value":16},{"name":"fh","type":"int","value":16},{"name":"solid","type":"bool","value":true}]},{"id":45,"name":"lamp.post#0","type":"prop","x":1080.0,"y":384,"width":0,"height":0,"rotation":0,"visible":true,"point":true,"properties":[{"name":"kind","type":"string","value":"lamp.post"},{"name":"fw","type":"int","value":16},{"name":"fh","type":"int","value":16},{"name":"solid","type":"bool","value":true}]},{"id":46,"name":"prop.vending#0","type":"prop","x":1320.0,"y":448,"width":0,"height":0,"rotation":0,"visible":true,"point":true,"properties":[{"name":"kind","type":"string","value":"prop.vending"},{"name":"fw","type":"int","value":16},{"name":"fh","type":"int","value":16},{"name":"solid","type":"bool","value":true}]},{"id":47,"name":"prop.bus_stop#0","type":"prop","x":472.0,"y":720,"width":0,"height":0,"rotation":0,"visible":true,"point":true,"properties":[{"name":"kind","type":"string","value":"prop.bus_stop"},{"name":"fw","type":"int","value":48},{"name":"fh","type":"int","value":16},{"name":"solid","type":"bool","value":true}]},{"id":48,"name":"","type":"prop","x":384.0,"y":64,"width":0,"height":0,"rotation":0,"visible":true,"point":true,"properties":[{"name":"kind","type":"string","value":"wall"},{"name":"fw","type":"int","value":544},{"name":"fh","type":"int","value":16},{"name":"solid","type":"bool","value":true}]},{"id":49,"name":"","type":"prop","x":120.0,"y":80,"width":0,"height":0,"rotation":0,"visible":true,"point":true,"properties":[{"name":"kind","type":"string","value":"wall"},{"name":"fw","type":"int","value":16},{"name":"fh","type":"int","value":16},{"name":"solid","type":"bool","value":true}]},{"id":50,"name":"","type":"prop","x":648.0,"y":80,"width":0,"height":0,"rotation":0,"visible":true,"point":true,"properties":[{"name":"kind","type":"string","value":"wall"},{"name":"fw","type":"int","value":16},{"name":"fh","type":"int","value":16},{"name":"solid","type":"bool","value":true}]},{"id":51,"name":"","type":"prop","x":120.0,"y":96,"width":0,"height":0,"rotation":0,"visible":true,"point":true,"properties":[{"name":"kind","type":"string","value":"wall"},{"name":"fw","type":"int","value":16},{"name":"fh","type":"int","value":16},{"name":"solid","type":"bool","value":true}]},{"id":52,"name":"","type":"prop","x":648.0,"y":96,"width":0,"height":0,"rotation":0,"visible":true,"point":true,"properties":[{"name":"kind","type":"string","value":"wall"},{"name":"fw","type":"int","value":16},{"name":"fh","type":"int","value":16},{"name":"solid","type":"bool","value":true}]},{"id":53,"name":"","type":"prop","x":120.0,"y":112,"width":0,"height":0,"rotation":0,"visible":true,"point":true,"properties":[{"name":"kind","type":"string","value":"wall"},{"name":"fw","type":"int","value":16},{"name":"fh","type":"int","value":16},{"name":"solid","type":"bool","value":true}]},{"id":54,"name":"","type":"prop","x":648.0,"y":112,"width":0,"height":0,"rotation":0,"visible":true,"point":true,"properties":[{"name":"kind","type":"string","value":"wall"},{"name":"fw","type":"int","value":16},{"name":"fh","type":"int","value":16},{"name":"solid","type":"bool","value":true}]},{"id":55,"name":"","type":"prop","x":120.0,"y":128,"width":0,"height":0,"rotation":0,"visible":true,"point":true,"properties":[{"name":"kind","type":"string","value":"wall"},{"name":"fw","type":"int","value":16},{"name":"fh","type":"int","value":16},{"name":"solid","type":"bool","value":true}]},{"id":56,"name":"","type":"prop","x":648.0,"y":128,"width":0,"height":0,"rotation":0,"visible":true,"point":true,"properties":[{"name":"kind","type":"string","value":"wall"},{"name":"fw","type":"int","value":16},{"name":"fh","type":"int","value":16},{"name":"solid","type":"bool","value":true}]},{"id":57,"name":"","type":"prop","x":120.0,"y":144,"width":0,"height":0,"rotation":0,"visible":true,"point":true,"properties":[{"name":"kind","type":"string","value":"wall"},{"name":"fw","type":"int","value":16},{"name":"fh","type":"int","value":16},{"name":"solid","type":"bool","value":true}]},{"id":58,"name":"","type":"prop","x":648.0,"y":144,"width":0,"height":0,"rotation":0,"visible":true,"point":true,"properties":[{"name":"kind","type":"string","value":"wall"},{"name":"fw","type":"int","value":16},{"name":"fh","type":"int","value":16},{"name":"solid","type":"bool","value":true}]},{"id":59,"name":"","type":"prop","x":120.0,"y":160,"width":0,"height":0,"rotation":0,"visible":true,"point":true,"properties":[{"name":"kind","type":"string","value":"wall"},{"name":"fw","type":"int","value":16},{"name":"fh","type":"int","value":16},{"name":"solid","type":"bool","value":true}]},{"id":60,"name":"","type":"prop","x":648.0,"y":160,"width":0,"height":0,"rotation":0,"visible":true,"point":true,"properties":[{"name":"kind","type":"string","value":"wall"},{"name":"fw","type":"int","value":16},{"name":"fh","type":"int","value":16},{"name":"solid","type":"bool","value":true}]},{"id":61,"name":"","type":"prop","x":120.0,"y":176,"width":0,"height":0,"rotation":0,"visible":true,"point":true,"properties":[{"name":"kind","type":"string","value":"wall"},{"name":"fw","type":"int","value":16},{"name":"fh","type":"int","value":16},{"name":"solid","type":"bool","value":true}]},{"id":62,"name":"","type":"prop","x":648.0,"y":176,"width":0,"height":0,"rotation":0,"visible":true,"point":true,"properties":[{"name":"kind","type":"string","value":"wall"},{"name":"fw","type":"int","value":16},{"name":"fh","type":"int","value":16},{"name":"solid","type":"bool","value":true}]},{"id":63,"name":"","type":"prop","x":120.0,"y":192,"width":0,"height":0,"rotation":0,"visible":true,"point":true,"properties":[{"name":"kind","type":"string","value":"wall"},{"name":"fw","type":"int","value":16},{"name":"fh","type":"int","value":16},{"name":"solid","type":"bool","value":true}]},{"id":64,"name":"","type":"prop","x":648.0,"y":192,"width":0,"height":0,"rotation":0,"visible":true,"point":true,"properties":[{"name":"kind","type":"string","value":"wall"},{"name":"fw","type":"int","value":16},{"name":"fh","type":"int","value":16},{"name":"solid","type":"bool","value":true}]},{"id":65,"name":"","type":"prop","x":120.0,"y":208,"width":0,"height":0,"rotation":0,"visible":true,"point":true,"properties":[{"name":"kind","type":"string","value":"wall"},{"name":"fw","type":"int","value":16},{"name":"fh","type":"int","value":16},{"name":"solid","type":"bool","value":true}]},{"id":66,"name":"","type":"prop","x":648.0,"y":208,"width":0,"height":0,"rotation":0,"visible":true,"point":true,"properties":[{"name":"kind","type":"string","value":"wall"},{"name":"fw","type":"int","value":16},{"name":"fh","type":"int","value":16},{"name":"solid","type":"bool","value":true}]},{"id":67,"name":"","type":"prop","x":120.0,"y":224,"width":0,"height":0,"rotation":0,"visible":true,"point":true,"properties":[{"name":"kind","type":"string","value":"wall"},{"name":"fw","type":"int","value":16},{"name":"fh","type":"int","value":16},{"name":"solid","type":"bool","value":true}]},{"id":68,"name":"","type":"prop","x":648.0,"y":224,"width":0,"height":0,"rotation":0,"visible":true,"point":true,"properties":[{"name":"kind","type":"string","value":"wall"},{"name":"fw","type":"int","value":16},{"name":"fh","type":"int","value":16},{"name":"solid","type":"bool","value":true}]},{"id":69,"name":"","type":"prop","x":120.0,"y":240,"width":0,"height":0,"rotation":0,"visible":true,"point":true,"properties":[{"name":"kind","type":"string","value":"wall"},{"name":"fw","type":"int","value":16},{"name":"fh","type":"int","value":16},{"name":"solid","type":"bool","value":true}]},{"id":70,"name":"","type":"prop","x":648.0,"y":240,"width":0,"height":0,"rotation":0,"visible":true,"point":true,"properties":[{"name":"kind","type":"string","value":"wall"},{"name":"fw","type":"int","value":16},{"name":"fh","type":"int","value":16},{"name":"solid","type":"bool","value":true}]},{"id":71,"name":"","type":"prop","x":120.0,"y":256,"width":0,"height":0,"rotation":0,"visible":true,"point":true,"properties":[{"name":"kind","type":"string","value":"wall"},{"name":"fw","type":"int","value":16},{"name":"fh","type":"int","value":16},{"name":"solid","type":"bool","value":true}]},{"id":72,"name":"","type":"prop","x":648.0,"y":256,"width":0,"height":0,"rotation":0,"visible":true,"point":true,"properties":[{"name":"kind","type":"string","value":"wall"},{"name":"fw","type":"int","value":16},{"name":"fh","type":"int","value":16},{"name":"solid","type":"bool","value":true}]},{"id":73,"name":"","type":"prop","x":120.0,"y":272,"width":0,"height":0,"rotation":0,"visible":true,"point":true,"properties":[{"name":"kind","type":"string","value":"wall"},{"name":"fw","type":"int","value":16},{"name":"fh","type":"int","value":16},{"name":"solid","type":"bool","value":true}]},{"id":74,"name":"","type":"prop","x":648.0,"y":272,"width":0,"height":0,"rotation":0,"visible":true,"point":true,"properties":[{"name":"kind","type":"string","value":"wall"},{"name":"fw","type":"int","value":16},{"name":"fh","type":"int","value":16},{"name":"solid","type":"bool","value":true}]},{"id":75,"name":"","type":"prop","x":120.0,"y":288,"width":0,"height":0,"rotation":0,"visible":true,"point":true,"properties":[{"name":"kind","type":"string","value":"wall"},{"name":"fw","type":"int","value":16},{"name":"fh","type":"int","value":16},{"name":"solid","type":"bool","value":true}]},{"id":76,"name":"","type":"prop","x":648.0,"y":288,"width":0,"height":0,"rotation":0,"visible":true,"point":true,"properties":[{"name":"kind","type":"string","value":"wall"},{"name":"fw","type":"int","value":16},{"name":"fh","type":"int","value":16},{"name":"solid","type":"bool","value":true}]},{"id":77,"name":"","type":"prop","x":120.0,"y":304,"width":0,"height":0,"rotation":0,"visible":true,"point":true,"properties":[{"name":"kind","type":"string","value":"wall"},{"name":"fw","type":"int","value":16},{"name":"fh","type":"int","value":16},{"name":"solid","type":"bool","value":true}]},{"id":78,"name":"","type":"prop","x":648.0,"y":304,"width":0,"height":0,"rotation":0,"visible":true,"point":true,"properties":[{"name":"kind","type":"string","value":"wall"},{"name":"fw","type":"int","value":16},{"name":"fh","type":"int","value":16},{"name":"solid","type":"bool","value":true}]},{"id":79,"name":"","type":"prop","x":120.0,"y":320,"width":0,"height":0,"rotation":0,"visible":true,"point":true,"properties":[{"name":"kind","type":"string","value":"wall"},{"name":"fw","type":"int","value":16},{"name":"fh","type":"int","value":16},{"name":"solid","type":"bool","value":true}]},{"id":80,"name":"","type":"prop","x":648.0,"y":320,"width":0,"height":0,"rotation":0,"visible":true,"point":true,"properties":[{"name":"kind","type":"string","value":"wall"},{"name":"fw","type":"int","value":16},{"name":"fh","type":"int","value":16},{"name":"solid","type":"bool","value":true}]},{"id":81,"name":"","type":"prop","x":120.0,"y":336,"width":0,"height":0,"rotation":0,"visible":true,"point":true,"properties":[{"name":"kind","type":"string","value":"wall"},{"name":"fw","type":"int","value":16},{"name":"fh","type":"int","value":16},{"name":"solid","type":"bool","value":true}]},{"id":82,"name":"","type":"prop","x":648.0,"y":336,"width":0,"height":0,"rotation":0,"visible":true,"point":true,"properties":[{"name":"kind","type":"string","value":"wall"},{"name":"fw","type":"int","value":16},{"name":"fh","type":"int","value":16},{"name":"solid","type":"bool","value":true}]},{"id":83,"name":"","type":"prop","x":120.0,"y":352,"width":0,"height":0,"rotation":0,"visible":true,"point":true,"properties":[{"name":"kind","type":"string","value":"wall"},{"name":"fw","type":"int","value":16},{"name":"fh","type":"int","value":16},{"name":"solid","type":"bool","value":true}]},{"id":84,"name":"","type":"prop","x":648.0,"y":352,"width":0,"height":0,"rotation":0,"visible":true,"point":true,"properties":[{"name":"kind","type":"string","value":"wall"},{"name":"fw","type":"int","value":16},{"name":"fh","type":"int","value":16},{"name":"solid","type":"bool","value":true}]},{"id":85,"name":"","type":"prop","x":120.0,"y":368,"width":0,"height":0,"rotation":0,"visible":true,"point":true,"properties":[{"name":"kind","type":"string","value":"wall"},{"name":"fw","type":"int","value":16},{"name":"fh","type":"int","value":16},{"name":"solid","type":"bool","value":true}]},{"id":86,"name":"","type":"prop","x":648.0,"y":368,"width":0,"height":0,"rotation":0,"visible":true,"point":true,"properties":[{"name":"kind","type":"string","value":"wall"},{"name":"fw","type":"int","value":16},{"name":"fh","type":"int","value":16},{"name":"solid","type":"bool","value":true}]},{"id":87,"name":"","type":"prop","x":120.0,"y":384,"width":0,"height":0,"rotation":0,"visible":true,"point":true,"properties":[{"name":"kind","type":"string","value":"wall"},{"name":"fw","type":"int","value":16},{"name":"fh","type":"int","value":16},{"name":"solid","type":"bool","value":true}]},{"id":88,"name":"","type":"prop","x":648.0,"y":384,"width":0,"height":0,"rotation":0,"visible":true,"point":true,"properties":[{"name":"kind","type":"string","value":"wall"},{"name":"fw","type":"int","value":16},{"name":"fh","type":"int","value":16},{"name":"solid","type":"bool","value":true}]},{"id":89,"name":"","type":"prop","x":256.0,"y":400,"width":0,"height":0,"rotation":0,"visible":true,"point":true,"properties":[{"name":"kind","type":"string","value":"wall"},{"name":"fw","type":"int","value":288},{"name":"fh","type":"int","value":16},{"name":"solid","type":"bool","value":true}]},{"id":90,"name":"","type":"prop","x":544.0,"y":400,"width":0,"height":0,"rotation":0,"visible":true,"point":true,"properties":[{"name":"kind","type":"string","value":"wall"},{"name":"fw","type":"int","value":224},{"name":"fh","type":"int","value":16},{"name":"solid","type":"bool","value":true}]},{"id":91,"name":"","type":"prop","x":160.0,"y":528,"width":0,"height":0,"rotation":0,"visible":true,"point":true,"properties":[{"name":"kind","type":"string","value":"wall"},{"name":"fw","type":"int","value":320},{"name":"fh","type":"int","value":16},{"name":"solid","type":"bool","value":true}]},{"id":92,"name":"","type":"prop","x":768.0,"y":528,"width":0,"height":0,"rotation":0,"visible":true,"point":true,"properties":[{"name":"kind","type":"string","value":"wall"},{"name":"fw","type":"int","value":768},{"name":"fh","type":"int","value":16},{"name":"solid","type":"bool","value":true}]},{"id":93,"name":"","type":"prop","x":1504.0,"y":528,"width":0,"height":0,"rotation":0,"visible":true,"point":true,"properties":[{"name":"kind","type":"string","value":"wall"},{"name":"fw","type":"int","value":576},{"name":"fh","type":"int","value":16},{"name":"solid","type":"bool","value":true}]},{"id":94,"name":"","type":"prop","x":160.0,"y":544,"width":0,"height":0,"rotation":0,"visible":true,"point":true,"properties":[{"name":"kind","type":"string","value":"wall"},{"name":"fw","type":"int","value":320},{"name":"fh","type":"int","value":16},{"name":"solid","type":"bool","value":true}]},{"id":95,"name":"","type":"prop","x":768.0,"y":544,"width":0,"height":0,"rotation":0,"visible":true,"point":true,"properties":[{"name":"kind","type":"string","value":"wall"},{"name":"fw","type":"int","value":768},{"name":"fh","type":"int","value":16},{"name":"solid","type":"bool","value":true}]},{"id":96,"name":"","type":"prop","x":1504.0,"y":544,"width":0,"height":0,"rotation":0,"visible":true,"point":true,"properties":[{"name":"kind","type":"string","value":"wall"},{"name":"fw","type":"int","value":576},{"name":"fh","type":"int","value":16},{"name":"solid","type":"bool","value":true}]},{"id":97,"name":"","type":"prop","x":160.0,"y":560,"width":0,"height":0,"rotation":0,"visible":true,"point":true,"properties":[{"name":"kind","type":"string","value":"wall"},{"name":"fw","type":"int","value":320},{"name":"fh","type":"int","value":16},{"name":"solid","type":"bool","value":true}]},{"id":98,"name":"","type":"prop","x":768.0,"y":560,"width":0,"height":0,"rotation":0,"visible":true,"point":true,"properties":[{"name":"kind","type":"string","value":"wall"},{"name":"fw","type":"int","value":768},{"name":"fh","type":"int","value":16},{"name":"solid","type":"bool","value":true}]},{"id":99,"name":"","type":"prop","x":1504.0,"y":560,"width":0,"height":0,"rotation":0,"visible":true,"point":true,"properties":[{"name":"kind","type":"string","value":"wall"},{"name":"fw","type":"int","value":576},{"name":"fh","type":"int","value":16},{"name":"solid","type":"bool","value":true}]},{"id":100,"name":"","type":"prop","x":160.0,"y":576,"width":0,"height":0,"rotation":0,"visible":true,"point":true,"properties":[{"name":"kind","type":"string","value":"wall"},{"name":"fw","type":"int","value":320},{"name":"fh","type":"int","value":16},{"name":"solid","type":"bool","value":true}]},{"id":101,"name":"","type":"prop","x":768.0,"y":576,"width":0,"height":0,"rotation":0,"visible":true,"point":true,"properties":[{"name":"kind","type":"string","value":"wall"},{"name":"fw","type":"int","value":768},{"name":"fh","type":"int","value":16},{"name":"solid","type":"bool","value":true}]},{"id":102,"name":"","type":"prop","x":1504.0,"y":576,"width":0,"height":0,"rotation":0,"visible":true,"point":true,"properties":[{"name":"kind","type":"string","value":"wall"},{"name":"fw","type":"int","value":576},{"name":"fh","type":"int","value":16},{"name":"solid","type":"bool","value":true}]},{"id":103,"name":"","type":"prop","x":160.0,"y":592,"width":0,"height":0,"rotation":0,"visible":true,"point":true,"properties":[{"name":"kind","type":"string","value":"wall"},{"name":"fw","type":"int","value":320},{"name":"fh","type":"int","value":16},{"name":"solid","type":"bool","value":true}]},{"id":104,"name":"","type":"prop","x":768.0,"y":592,"width":0,"height":0,"rotation":0,"visible":true,"point":true,"properties":[{"name":"kind","type":"string","value":"wall"},{"name":"fw","type":"int","value":768},{"name":"fh","type":"int","value":16},{"name":"solid","type":"bool","value":true}]},{"id":105,"name":"","type":"prop","x":1504.0,"y":592,"width":0,"height":0,"rotation":0,"visible":true,"point":true,"properties":[{"name":"kind","type":"string","value":"wall"},{"name":"fw","type":"int","value":576},{"name":"fh","type":"int","value":16},{"name":"solid","type":"bool","value":true}]},{"id":106,"name":"","type":"prop","x":160.0,"y":608,"width":0,"height":0,"rotation":0,"visible":true,"point":true,"properties":[{"name":"kind","type":"string","value":"wall"},{"name":"fw","type":"int","value":320},{"name":"fh","type":"int","value":16},{"name":"solid","type":"bool","value":true}]},{"id":107,"name":"","type":"prop","x":768.0,"y":608,"width":0,"height":0,"rotation":0,"visible":true,"point":true,"properties":[{"name":"kind","type":"string","value":"wall"},{"name":"fw","type":"int","value":768},{"name":"fh","type":"int","value":16},{"name":"solid","type":"bool","value":true}]},{"id":108,"name":"","type":"prop","x":1504.0,"y":608,"width":0,"height":0,"rotation":0,"visible":true,"point":true,"properties":[{"name":"kind","type":"string","value":"wall"},{"name":"fw","type":"int","value":576},{"name":"fh","type":"int","value":16},{"name":"solid","type":"bool","value":true}]},{"id":109,"name":"","type":"prop","x":160.0,"y":624,"width":0,"height":0,"rotation":0,"visible":true,"point":true,"properties":[{"name":"kind","type":"string","value":"wall"},{"name":"fw","type":"int","value":320},{"name":"fh","type":"int","value":16},{"name":"solid","type":"bool","value":true}]},{"id":110,"name":"","type":"prop","x":768.0,"y":624,"width":0,"height":0,"rotation":0,"visible":true,"point":true,"properties":[{"name":"kind","type":"string","value":"wall"},{"name":"fw","type":"int","value":768},{"name":"fh","type":"int","value":16},{"name":"solid","type":"bool","value":true}]},{"id":111,"name":"","type":"prop","x":1504.0,"y":624,"width":0,"height":0,"rotation":0,"visible":true,"point":true,"properties":[{"name":"kind","type":"string","value":"wall"},{"name":"fw","type":"int","value":576},{"name":"fh","type":"int","value":16},{"name":"solid","type":"bool","value":true}]},{"id":112,"name":"","type":"prop","x":160.0,"y":640,"width":0,"height":0,"rotation":0,"visible":true,"point":true,"properties":[{"name":"kind","type":"string","value":"wall"},{"name":"fw","type":"int","value":320},{"name":"fh","type":"int","value":16},{"name":"solid","type":"bool","value":true}]},{"id":113,"name":"","type":"prop","x":768.0,"y":640,"width":0,"height":0,"rotation":0,"visible":true,"point":true,"properties":[{"name":"kind","type":"string","value":"wall"},{"name":"fw","type":"int","value":768},{"name":"fh","type":"int","value":16},{"name":"solid","type":"bool","value":true}]},{"id":114,"name":"","type":"prop","x":1504.0,"y":640,"width":0,"height":0,"rotation":0,"visible":true,"point":true,"properties":[{"name":"kind","type":"string","value":"wall"},{"name":"fw","type":"int","value":576},{"name":"fh","type":"int","value":16},{"name":"solid","type":"bool","value":true}]},{"id":115,"name":"m18","type":"spot","x":1352.0,"y":459.2,"width":0,"height":0,"rotation":0,"visible":true,"point":true,"properties":[{"name":"node","type":"string","value":"21-m18"},{"name":"label","type":"string","value":"The corner shop"},{"name":"label_zh","type":"string","value":""}]},{"id":116,"name":"park-tables","type":"spot","x":344.0,"y":283.2,"width":0,"height":0,"rotation":0,"visible":true,"point":true,"properties":[{"name":"node","type":"string","value":""},{"name":"label","type":"string","value":"Tapgol Park's go tables"},{"name":"label_zh","type":"string","value":""}]},{"id":117,"name":"m23b","type":"spot","x":920.0,"y":411.2,"width":0,"height":0,"rotation":0,"visible":true,"point":true,"properties":[{"name":"node","type":"string","value":"21-m23b"},{"name":"label","type":"string","value":"The forecourt"},{"name":"label_zh","type":"string","value":""}]},{"id":118,"name":"forecourt","type":"spot","x":1048.0,"y":411.2,"width":0,"height":0,"rotation":0,"visible":true,"point":true,"properties":[{"name":"node","type":"string","value":""},{"name":"label","type":"string","value":"The forecourt"},{"name":"label_zh","type":"string","value":""}]},{"id":119,"name":"pojangmacha-door","type":"spot","x":888.0,"y":875.2,"width":0,"height":0,"rotation":0,"visible":true,"point":true,"properties":[{"name":"node","type":"string","value":""},{"name":"label","type":"string","value":"The pojangmacha"},{"name":"label_zh","type":"string","value":""}]},{"id":120,"name":"npc-1","type":"npc","x":472.0,"y":222.4,"width":0,"height":0,"rotation":0,"visible":true,"point":true,"properties":[{"name":"kind","type":"string","value":"folk.grandpa"},{"name":"sprite","type":"string","value":"ms_oldman"},{"name":"wander","type":"bool","value":false},{"name":"drawn","type":"bool","value":true},{"name":"say","type":"string","value":"[[\"n\", \"An old man by the pagoda. “Sixty years I've come here. The stones don't change. We do.”\", \"\", \"597dad58c558\"]]"}]},{"id":121,"name":"npc-2","type":"npc","x":600.0,"y":478.4,"width":0,"height":0,"rotation":0,"visible":true,"point":true,"properties":[{"name":"kind","type":"string","value":"folk.salaryman"},{"name":"sprite","type":"string","value":"ms_worker"},{"name":"wander","type":"bool","value":false},{"name":"drawn","type":"bool","value":true},{"name":"say","type":"string","value":"[[\"n\", \"A man in a suit, on his phone, walking fast. “No, the shipment, the shipment—”\", \"\", \"55ef1b8b8c06\"]]"}]},{"id":122,"name":"npc-3","type":"npc","x":1048.0,"y":670.4,"width":0,"height":0,"rotation":0,"visible":true,"point":true,"properties":[{"name":"kind","type":"string","value":"folk.officewoman"},{"name":"sprite","type":"string","value":"ms_worker2"},{"name":"wander","type":"bool","value":false},{"name":"drawn","type":"bool","value":true},{"name":"say","type":"string","value":"[[\"n\", \"An office worker with a coffee in each hand. “Lunch is an hour. It's never an hour.”\", \"\", \"e66ccccc9d5b\"]]"}]},{"id":123,"name":"npc-4","type":"npc","x":1576.0,"y":286.4,"width":0,"height":0,"rotation":0,"visible":true,"point":true,"properties":[{"name":"kind","type":"string","value":"folk.salaryman"},{"name":"sprite","type":"string","value":"ms_worker3"},{"name":"wander","type":"bool","value":false},{"name":"drawn","type":"bool","value":true},{"name":"say","type":"string","value":"[[\"n\", \"A courier with a trolley of boxes. “Fourteenth floor? Every one of them's the fourteenth floor.”\", \"\", \"eb524c158c32\"]]"}]},{"id":124,"name":"npc-5","type":"npc","x":1368.0,"y":926.4,"width":0,"height":0,"rotation":0,"visible":true,"point":true,"properties":[{"name":"kind","type":"string","value":"folk.ajumma"},{"name":"sprite","type":"string","value":"ms_ajumma2"},{"name":"wander","type":"bool","value":false},{"name":"drawn","type":"bool","value":true},{"name":"say","type":"string","value":"[[\"n\", \"A stallholder. “Dried squid, dried filefish. Cheaper than the shops, and better.”\", \"\", \"679e426418fa\"]]"}]},{"id":125,"name":"sock-stall","type":"npc","x":1368.0,"y":798.4,"width":0,"height":0,"rotation":0,"visible":true,"point":true,"properties":[{"name":"kind","type":"string","value":"folk.ajumma"},{"name":"sprite","type":"string","value":"ms_ajumma"},{"name":"wander","type":"bool","value":false},{"name":"drawn","type":"bool","value":true},{"name":"say","type":"string","value":"[[\"n\", \"A stall of socks, gloves and towels. “Ten pairs for twenty thousand. Wholesale price, for you.”\", \"\", \"f24ee7c3c2eb\"]]"},{"name":"shop","type":"string","value":"[\"socks\"]"}]},{"id":126,"name":"buyer-bus","type":"npc","x":536.0,"y":670.4,"width":0,"height":0,"rotation":0,"visible":true,"point":true,"properties":[{"name":"kind","type":"string","value":"folk.salaryman"},{"name":"sprite","type":"string","value":"ms_worker3"},{"name":"wander","type":"bool","value":false},{"name":"drawn","type":"bool","value":true},{"name":"say","type":"string","value":"[[\"n\", \"A man waiting for the bus, checking his watch.\", \"\", \"d9d2dfe0b324\"]]"},{"name":"until","type":"string","value":"21-21-m18"},{"name":"when","type":"string","value":"node:21-m17"},{"name":"buyer","type":"string","value":"{\"wants\": [\"socks\"], \"pays\": 30000, \"yes\": [[\"n\", \"“Socks? My wife's been on at me about socks for a week. Fine. Thirty thousand.”\", \"\", \"262f75b1ab0b\"]], \"no\": [[\"n\", \"“No, thanks. Not today.”\", \"\", \"467b0eb6a48e\"]]}"}]},{"id":127,"name":"buyer-lunch","type":"npc","x":1048.0,"y":478.4,"width":0,"height":0,"rotation":0,"visible":true,"point":true,"properties":[{"name":"kind","type":"string","value":"folk.officewoman"},{"name":"sprite","type":"string","value":"ms_officewoman2"},{"name":"wander","type":"bool","value":false},{"name":"drawn","type":"bool","value":true},{"name":"say","type":"string","value":"[[\"n\", \"An office worker on her way back from lunch.\", \"\", \"911bbc55fcb0\"]]"},{"name":"until","type":"string","value":"21-21-m18"},{"name":"when","type":"string","value":"node:21-m17"},{"name":"buyer","type":"string","value":"{\"wants\": [\"socks\"], \"pays\": 25000, \"yes\": [[\"n\", \"“For my father, maybe. He never buys his own. Here.”\", \"\", \"cd4067d3b6d1\"]], \"no\": [[\"n\", \"“I'm sorry, I'm in a hurry.”\", \"\", \"291d09b03eab\"]]}"}]},{"id":128,"name":"buyer-student","type":"npc","x":216.0,"y":670.4,"width":0,"height":0,"rotation":0,"visible":true,"point":true,"properties":[{"name":"kind","type":"string","value":"folk.kid"},{"name":"sprite","type":"string","value":"ms_kid"},{"name":"wander","type":"bool","value":false},{"name":"drawn","type":"bool","value":true},{"name":"say","type":"string","value":"[[\"n\", \"A student in a school blazer, waiting at the station stairs.\", \"\", \"bf50e7d33603\"]]"},{"name":"until","type":"string","value":"21-21-m18"},{"name":"when","type":"string","value":"node:21-m17"},{"name":"buyer","type":"string","value":"{\"wants\": [\"socks\"], \"pays\": 20000, \"yes\": [[\"n\", \"“For PE? Mum keeps saying I need more. Twenty thousand, that's all I've got.”\", \"\", \"5eb74debdf86\"]], \"no\": [[\"n\", \"“I've got no money, sorry.”\", \"\", \"ac3591234143\"]]}"}]},{"id":129,"name":"buyer-oldman","type":"npc","x":1560.0,"y":670.4,"width":0,"height":0,"rotation":0,"visible":true,"point":true,"properties":[{"name":"kind","type":"string","value":"folk.grandpa"},{"name":"sprite","type":"string","value":"ms_oldman2"},{"name":"wander","type":"bool","value":false},{"name":"drawn","type":"bool","value":true},{"name":"say","type":"string","value":"[[\"n\", \"An old man with a newspaper under his arm.\", \"\", \"8db80499b3e1\"]]"},{"name":"until","type":"string","value":"21-21-m18"},{"name":"when","type":"string","value":"node:21-m17"},{"name":"buyer","type":"string","value":"{\"wants\": [\"socks\"], \"pays\": 0, \"no\": [[\"n\", \"“From a young man in a suit, on the pavement? No. Go and sell to someone who needs them.”\", \"\", \"135d1bb7c739\"]], \"yes\": []}"}]},{"id":130,"name":"npc-11","type":"npc","x":856.0,"y":926.4,"width":0,"height":0,"rotation":0,"visible":true,"point":true,"properties":[{"name":"kind","type":"string","value":"folk.ajumma"},{"name":"sprite","type":"string","value":"ms_ajumma2"},{"name":"wander","type":"bool","value":false},{"name":"drawn","type":"bool","value":true},{"name":"say","type":"string","value":"[[\"n\", \"An old woman setting out plastic stools. “Come back after dark, young man. That's when we're open.”\", \"\", \"54caea44d7ef\"]]"}]},{"id":131,"name":"regular-1","type":"npc","x":216.0,"y":350.4,"width":0,"height":0,"rotation":0,"visible":true,"point":true,"properties":[{"name":"kind","type":"string","value":"folk.grandpa"},{"name":"sprite","type":"string","value":"ms_oldman"},{"name":"wander","type":"bool","value":false},{"name":"drawn","type":"bool","value":true},{"name":"say","type":"string","value":"[]"},{"name":"challenge","type":"string","value":"regular-1"},{"name":"until","type":"string","value":"21-21-m2"},{"name":"when","type":"string","value":"node:21-m1"},{"name":"view","type":"string","value":"4"},{"name":"intro","type":"string","value":"[[\"n\", \"An old man at the stone table waves you over without looking up. “You. You've got a player's hands. Sit.”\", \"\", \"36716de420fc\"]]"},{"name":"win","type":"string","value":"[[\"n\", \"“Hm. Where did you learn that? Go on, go to work.”\", \"\", \"91c1077fa7df\"]]"},{"name":"done","type":"string","value":"[[\"n\", \"The old man is playing someone else now.\", \"\", \"410d709ead43\"]]"}]},{"id":132,"name":"regular-2","type":"npc","x":536.0,"y":350.4,"width":0,"height":0,"rotation":0,"visible":true,"point":true,"properties":[{"name":"kind","type":"string","value":"folk.grandpa"},{"name":"sprite","type":"string","value":"ms_oldman"},{"name":"wander","type":"bool","value":false},{"name":"drawn","type":"bool","value":true},{"name":"say","type":"string","value":"[]"},{"name":"challenge","type":"string","value":"regular-2"},{"name":"until","type":"string","value":"21-21-m4"},{"name":"when","type":"string","value":"node:21-m3"},{"name":"view","type":"string","value":"4"},{"name":"intro","type":"string","value":"[[\"n\", \"An old man in a flat cap sets out the stones. “A young man in a tie, at Tapgol? Sit down, it's free.”\", \"\", \"7fc90377e309\"]]"},{"name":"win","type":"string","value":"[[\"n\", \"“…Again tomorrow. Same time.”\", \"\", \"51a6c438172d\"]]"},{"name":"done","type":"string","value":"[[\"n\", \"The old man in the flat cap is asleep on the bench.\", \"\", \"40f833db2403\"]]"}]},{"id":133,"name":"regular-3","type":"npc","x":344.0,"y":350.4,"width":0,"height":0,"rotation":0,"visible":true,"point":true,"properties":[{"name":"kind","type":"string","value":"folk.grandpa"},{"name":"sprite","type":"string","value":"ms_oldman"},{"name":"wander","type":"bool","value":false},{"name":"drawn","type":"bool","value":true},{"name":"say","type":"string","value":"[]"},{"name":"challenge","type":"string","value":"regular-3"},{"name":"until","type":"string","value":"21-21-m4"},{"name":"when","type":"string","value":"node:21-m3"},{"name":"view","type":"string","value":"4"},{"name":"intro","type":"string","value":"[[\"n\", \"The man who keeps the score for everyone. “Nobody's beaten him all week. Want to try?”\", \"\", \"49d35de59077\"]]"},{"name":"win","type":"string","value":"[[\"n\", \"“Huh. Wait till I tell him.”\", \"\", \"2b80325b1e34\"]]"},{"name":"done","type":"string","value":"[[\"n\", \"The scorekeeper is telling everyone about your game.\", \"\", \"faec207e15f0\"]]"}]},{"id":134,"name":"shop-owner","type":"npc","x":1304.0,"y":478.4,"width":0,"height":0,"rotation":0,"visible":true,"point":true,"properties":[{"name":"kind","type":"string","value":"folk.salaryman"},{"name":"sprite","type":"string","value":"ms_worker"},{"name":"wander","type":"bool","value":false},{"name":"drawn","type":"bool","value":true},{"name":"say","type":"string","value":"[]"},{"name":"challenge","type":"string","value":"shop-owner"},{"name":"until","type":"string","value":"21-21-m18"},{"name":"when","type":"string","value":"node:21-m17"},{"name":"view","type":"string","value":"4"},{"name":"rival","type":"string","value":"{\"say\": [[\"n\", \"The corner-shop owner calls out to the same people you were about to ask. “Dried squid! Grilled while you wait!” They go to him.\", \"\", \"c4ebaf048f84\"], [\"n\", \"“Look at you. Holding them out like you're apologising. Selling's not begging, son.”\", \"\", \"acfd2594afa7\"]]}"},{"name":"guard_x","type":"float","value":1376.0},{"name":"guard_y","type":"float","value":480.0},{"name":"intro","type":"string","value":"[[\"n\", \"The corner-shop owner leans in his doorway. “Selling on my pavement, are you? Let's see if you can sell to me.”\", \"\", \"25196660c0f2\"]]"},{"name":"win","type":"string","value":"[[\"n\", \"“…Not bad. Not good enough, but not bad.”\", \"\", \"59be12694b2b\"]]"},{"name":"done","type":"string","value":"[[\"n\", \"The corner-shop owner is selling dried squid, faster than you.\", \"\", \"81d0d1ea5bd8\"]]"}]},{"id":135,"name":"passer-1","type":"npc","x":664.0,"y":670.4,"width":0,"height":0,"rotation":0,"visible":true,"point":true,"properties":[{"name":"kind","type":"string","value":"folk.salaryman"},{"name":"sprite","type":"string","value":"ms_worker"},{"name":"wander","type":"bool","value":false},{"name":"drawn","type":"bool","value":true},{"name":"say","type":"string","value":"[]"},{"name":"challenge","type":"string","value":"passer-1"},{"name":"until","type":"string","value":"21-21-m18"},{"name":"when","type":"string","value":"node:21-m17"},{"name":"view","type":"string","value":"4"},{"name":"intro","type":"string","value":"[[\"n\", \"An office worker on his lunch break stops at your box. “What are you selling? Tell you what: a game first.”\", \"\", \"314c3f79b7b7\"]]"},{"name":"win","type":"string","value":"[[\"n\", \"“Fine. I'll take one. Don't tell my wife.”\", \"\", \"09769927f919\"]]"},{"name":"done","type":"string","value":"[[\"n\", \"The office worker has gone back in.\", \"\", \"bdde7174dcef\"]]"}]},{"id":136,"name":"passer-2","type":"npc","x":1576.0,"y":670.4,"width":0,"height":0,"rotation":0,"visible":true,"point":true,"properties":[{"name":"kind","type":"string","value":"folk.officewoman"},{"name":"sprite","type":"string","value":"ms_worker2"},{"name":"wander","type":"bool","value":false},{"name":"drawn","type":"bool","value":true},{"name":"say","type":"string","value":"[]"},{"name":"challenge","type":"string","value":"passer-2"},{"name":"until","type":"string","value":"21-21-m18"},{"name":"when","type":"string","value":"node:21-m17"},{"name":"view","type":"string","value":"4"},{"name":"intro","type":"string","value":"[[\"n\", \"A woman with a go app open on her phone. “You're the one from the Baduk Association, aren't you? I've seen your face.”\", \"\", \"7e39f05652c7\"]]"},{"name":"win","type":"string","value":"[[\"n\", \"“…I must have been wrong. Good luck.”\", \"\", \"02ce471bc583\"]]"},{"name":"done","type":"string","value":"[[\"n\", \"The woman is back on her phone.\", \"\", \"08238ac78026\"]]"}]},{"id":137,"name":"exit-one-international","type":"exit","x":921.6,"y":365.6,"width":12.8,"height":12.0,"rotation":0,"visible":true,"properties":[{"name":"to","type":"string","value":"one-international"},{"name":"side","type":"string","value":"N"}]},{"id":138,"name":"exit-jongno--client","type":"exit","x":1337.6,"y":237.6,"width":12.8,"height":12.0,"rotation":0,"visible":true,"properties":[{"name":"to","type":"string","value":"jongno--client"},{"name":"side","type":"string","value":"N"}]},{"id":139,"name":"exit-jongno--hq","type":"exit","x":1529.6,"y":237.6,"width":12.8,"height":12.0,"rotation":0,"visible":true,"properties":[{"name":"to","type":"string","value":"jongno--hq"},{"name":"side","type":"string","value":"N"}]},{"id":140,"name":"exit-jongno--corner-shop","type":"exit","x":1337.6,"y":429.6,"width":12.8,"height":12.0,"rotation":0,"visible":true,"properties":[{"name":"to","type":"string","value":"jongno--corner-shop"},{"name":"side","type":"string","value":"N"}]},{"id":141,"name":"exit-the-subway","type":"exit","x":113.6,"y":710.4,"width":12.8,"height":12.0,"rotation":0,"visible":true,"properties":[{"name":"to","type":"string","value":"the-subway"},{"name":"side","type":"string","value":"S"}]},{"id":142,"name":"exit-jongno--pojangmacha","type":"exit","x":902.4,"y":857.6,"width":12.0,"height":12.8,"rotation":0,"visible":true,"properties":[{"name":"to","type":"string","value":"jongno--pojangmacha"},{"name":"side","type":"string","value":"E"}]},{"id":143,"name":"exit-korea-baduk-association","type":"exit","x":0,"y":448,"width":16,"height":64,"rotation":0,"visible":true,"properties":[{"name":"to","type":"string","value":"korea-baduk-association"},{"name":"side","type":"string","value":"W"}]},{"id":144,"name":"exit-baekjin-trading","type":"exit","x":0,"y":640,"width":16,"height":64,"rotation":0,"visible":true,"properties":[{"name":"to","type":"string","value":"baekjin-trading"},{"name":"side","type":"string","value":"W"}]},{"id":145,"name":"exit-suns-neighbourhood","type":"exit","x":1776,"y":640,"width":16,"height":64,"rotation":0,"visible":true,"properties":[{"name":"to","type":"string","value":"suns-neighbourhood"},{"name":"side","type":"string","value":"E"}]},{"id":146,"name":"exit-the-pizza-shop","type":"exit","x":1776,"y":448,"width":16,"height":64,"rotation":0,"visible":true,"properties":[{"name":"to","type":"string","value":"the-pizza-shop"},{"name":"side","type":"string","value":"E"}]},{"id":147,"name":"exit-the-new-office","type":"exit","x":1776,"y":256,"width":16,"height":64,"rotation":0,"visible":true,"properties":[{"name":"to","type":"string","value":"the-new-office"},{"name":"side","type":"string","value":"E"}]},{"id":148,"name":"entry-one-international","type":"entry","x":936.0,"y":382.4,"width":0,"height":0,"rotation":0,"visible":true,"point":true,"properties":[{"name":"from","type":"string","value":"one-international"}]},{"id":149,"name":"entry-jongno--client","type":"entry","x":1352.0,"y":254.4,"width":0,"height":0,"rotation":0,"visible":true,"point":true,"properties":[{"name":"from","type":"string","value":"jongno--client"}]},{"id":150,"name":"entry-jongno--hq","type":"entry","x":1544.0,"y":254.4,"width":0,"height":0,"rotation":0,"visible":true,"point":true,"properties":[{"name":"from","type":"string","value":"jongno--hq"}]},{"id":151,"name":"entry-jongno--corner-shop","type":"entry","x":1352.0,"y":446.4,"width":0,"height":0,"rotation":0,"visible":true,"point":true,"properties":[{"name":"from","type":"string","value":"jongno--corner-shop"}]},{"id":152,"name":"entry-the-subway","type":"entry","x":120.0,"y":702.4,"width":0,"height":0,"rotation":0,"visible":true,"point":true,"properties":[{"name":"from","type":"string","value":"the-subway"}]},{"id":153,"name":"entry-jongno--pojangmacha","type":"entry","x":904.0,"y":878.4,"width":0,"height":0,"rotation":0,"visible":true,"point":true,"properties":[{"name":"from","type":"string","value":"jongno--pojangmacha"}]},{"id":154,"name":"entry-korea-baduk-association","type":"entry","x":88.0,"y":478.4,"width":0,"height":0,"rotation":0,"visible":true,"point":true,"properties":[{"name":"from","type":"string","value":"korea-baduk-association"}]},{"id":155,"name":"entry-baekjin-trading","type":"entry","x":88.0,"y":670.4,"width":0,"height":0,"rotation":0,"visible":true,"point":true,"properties":[{"name":"from","type":"string","value":"baekjin-trading"}]},{"id":156,"name":"entry-suns-neighbourhood","type":"entry","x":1688.0,"y":670.4,"width":0,"height":0,"rotation":0,"visible":true,"point":true,"properties":[{"name":"from","type":"string","value":"suns-neighbourhood"}]},{"id":157,"name":"entry-the-pizza-shop","type":"entry","x":1688.0,"y":478.4,"width":0,"height":0,"rotation":0,"visible":true,"point":true,"properties":[{"name":"from","type":"string","value":"the-pizza-shop"}]},{"id":158,"name":"entry-the-new-office","type":"entry","x":1688.0,"y":286.4,"width":0,"height":0,"rotation":0,"visible":true,"point":true,"properties":[{"name":"from","type":"string","value":"the-new-office"}]},{"id":159,"name":"entry","type":"entry","x":920.0,"y":478.4,"width":0,"height":0,"rotation":0,"visible":true,"point":true}]}]}