{"type":"map","version":"1.10","tiledversion":"1.10.2","orientation":"orthogonal","renderorder":"right-down","width":48,"height":64,"tilewidth":16,"tileheight":16,"infinite":false,"nextlayerid":3,"nextobjectid":125,"properties":[{"name":"kit","type":"string","value":"seoul"},{"name":"source","type":"string","value":"mountain.map.json"},{"name":"states","type":"string","value":"[{\"id\": \"morning\", \"light\": \"morning\"}]"},{"name":"ways","type":"string","value":"{\"nodes\":[[26.0,10.0],[26.0,18.0],[10.0,18.0],[10.0,30.0],[38.0,30.0],[38.0,42.0],[14.0,42.0],[14.0,54.0]],\"edges\":[[0,1],[1,2],[2,3],[3,4],[4,5],[5,6],[6,7]]}"},{"name":"paths","type":"string","value":"000000000000000000000000000000000000000000000000|000000000000000000000000000000000000000000000000|000000000000000000000000000000000000000000000000|000000000000000000000000000000000000000000000000|000000000000000000000000000000000000000000000000|000000000000000000000000000000000000000000000000|000000000000000000000000000000000000000000000000|000000000000000000000000000000000000000000000000|000000000000000000000000000000000000000000000000|000000000000000000000000011000000000000000000000|000000000000000000000000011000000000000000000000|000000000000000000000000011000000000000000000000|000000000000000000000000011000000000000000000000|000000000000000000000000011000000000000000000000|000000000000000000000000011000000000000000000000|000000000000000000000000011000000000000000000000|000000000000000000000000011000000000000000000000|000000000111111111111111111000000000000000000000|000000000111111111111111111000000000000000000000|000000000110000000000000000000000000000000000000|000000000110000000000000000000000000000000000000|000000000110000000000000000000000000000000000000|000000000110000000000000000000000000000000000000|000000000110000000000000000000000000000000000000|000000000110000000000000000000000000000000000000|000000000110000000000000000000000000000000000000|000000000110000000000000000000000000000000000000|000000000110000000000000000000000000000000000000|000000000110000000000000000000000000000000000000|000000000111111111111111111111111111111000000000|000000000111111111111111111111111111111000000000|000000000000000000000000000000000000011000000000|000000000000000000000000000000000000011000000000|000000000000000000000000000000000000011000000000|000000000000000000000000000000000000011000000000|000000000000000000000000000000000000011000000000|000000000000000000000000000000000000011000000000|000000000000000000000000000000000000011000000000|000000000000000000000000000000000000011000000000|000000000000000000000000000000000000011000000000|000000000000000000000000000000000000011000000000|000000000000011111111111111111111111111000000000|000000000000011111111111111111111111111000000000|000000000000011000000000000000000000000000000000|000000000000011000000000000000000000000000000000|000000000000011000000000000000000000000000000000|000000000000011000000000000000000000000000000000|000000000000011000000000000000000000000000000000|000000000000011000000000000000000000000000000000|000000000000011000000000000000000000000000000000|000000000000011000000000000000000000000000000000|000000000000011000000000000000000000000000000000|000000000000011000000000000000000000000000000000|000000000000011000000000000000000000000000000000|000000000000011000000000000000000000000000000000|000000000000000000000000000000000000000000000000|000000000000000000000000000000000000000000000000|000000000000000000000000000000000000000000000000|000000000000000000000000000000000000000000000000|000000000000000000000000000000000000000000000000|000000000000000000000000000000000000000000000000|000000000000000000000000000000000000000000000000|000000000000000000000000000000000000000000000000|000000000000000000000000000000000000000000000000"}],"tilesets":[{"firstgid":1,"name":"drawn_b2_tiles","tilewidth":16,"tileheight":16,"columns":2,"tilecount":22,"margin":0,"spacing":0,"image":"../../../../assets/tk/drawn_b2_tiles.png","imagewidth":32,"imageheight":176},{"firstgid":23,"name":"seoul_tiles","tilewidth":16,"tileheight":16,"columns":4,"tilecount":72,"margin":0,"spacing":0,"image":"../../../../assets/tk/seoul/tiles.png","imagewidth":64,"imageheight":288}],"layers":[{"id":1,"name":"ground","type":"tilelayer","width":48,"height":64,"x":0,"y":0,"opacity":1,"visible":true,"data":[14,13,13,13,13,13,13,13,6,5,5,6,6,5,6,5,6,5,5,5,5,6,5,5,5,5,6,6,6,5,6,5,6,6,6,6,6,6,5,5,13,13,14,13,13,13,13,13,14,13,13,14,13,14,14,14,5,6,6,5,6,6,6,5,5,6,6,5,5,5,5,6,6,5,5,6,5,6,6,5,6,6,5,5,5,5,6,5,13,13,13,14,13,14,13,14,13,14,13,14,13,14,13,14,5,6,6,5,6,5,5,5,6,5,6,6,6,5,5,6,5,5,5,6,5,6,5,5,5,5,6,5,6,6,6,6,14,13,14,14,13,13,13,13,14,13,14,13,13,13,13,14,6,6,6,5,5,5,6,6,6,5,5,5,5,6,6,6,6,6,6,5,6,5,5,6,5,5,6,5,5,5,5,5,13,14,13,13,14,14,13,13,13,14,14,14,13,14,14,13,5,6,6,5,5,6,5,6,6,5,5,6,6,5,5,6,6,5,6,6,5,6,5,5,6,6,5,5,6,5,6,6,13,14,14,13,13,14,13,13,14,13,14,13,13,14,13,13,6,5,6,5,5,5,5,5,6,6,6,5,6,6,5,5,5,5,5,5,6,5,6,5,5,5,6,5,5,5,5,6,14,14,14,13,13,13,14,14,14,13,14,14,14,14,13,14,5,6,5,6,5,5,5,6,6,5,5,5,5,5,5,5,6,6,6,6,6,6,6,6,5,5,5,5,5,6,6,6,14,13,14,14,13,13,14,13,14,14,14,13,13,13,14,13,5,5,5,5,5,5,6,5,6,6,5,5,5,6,6,5,6,5,5,5,5,6,6,5,5,5,6,5,6,5,6,6,13,14,14,14,13,13,13,14,14,13,13,14,13,13,13,14,6,5,5,5,6,5,5,5,5,5,5,6,5,5,5,5,5,6,5,6,5,5,5,5,5,6,6,6,5,5,6,5,14,14,14,14,13,13,13,14,13,14,13,14,14,14,14,14,5,5,6,5,6,5,6,6,5,5,5,5,5,6,6,5,6,25,25,6,6,6,5,6,6,6,5,6,6,5,5,5,14,14,14,13,14,13,14,14,14,14,13,14,13,13,13,13,6,5,6,5,5,5,6,6,5,5,5,6,6,5,6,5,5,24,24,6,6,6,5,5,5,5,6,5,5,5,6,6,14,13,13,13,13,13,13,13,14,14,14,14,14,14,13,14,5,5,6,5,6,5,5,5,5,5,6,5,5,5,6,6,5,23,23,5,6,6,6,6,5,6,5,6,5,6,6,6,13,14,14,14,13,14,14,14,14,14,13,14,14,13,13,13,13,14,14,14,14,14,14,14,14,13,14,13,13,13,13,14,13,25,23,14,14,14,14,14,14,14,13,13,13,14,13,13,14,13,13,14,13,14,13,13,14,14,13,13,14,13,13,13,14,13,14,14,13,14,13,13,13,13,14,13,14,14,13,14,14,24,26,14,14,14,14,14,14,14,13,14,13,14,14,13,13,14,14,13,13,14,14,13,14,14,14,13,13,13,13,13,13,14,13,13,14,13,13,14,14,14,13,13,14,14,14,13,13,23,24,14,13,14,14,14,14,13,14,14,13,14,14,14,14,13,14,13,13,14,13,13,13,13,14,14,14,14,14,13,14,13,13,13,13,13,13,14,13,13,13,13,14,13,14,13,14,24,23,13,14,14,13,14,14,13,14,14,14,13,14,14,13,14,13,14,13,14,14,14,13,14,13,13,13,13,13,13,13,13,14,14,13,14,13,14,14,14,13,13,13,13,13,13,13,24,25,13,14,13,14,13,14,13,14,14,14,13,14,14,14,13,13,14,13,14,14,14,14,14,14,13,13,14,14,14,13,24,24,23,23,26,23,24,24,23,23,23,23,26,25,25,24,25,24,14,14,14,14,14,13,13,13,14,13,14,13,14,13,14,13,14,13,13,14,13,13,14,13,13,13,14,14,14,13,25,24,25,23,23,25,25,24,25,25,23,23,25,23,24,23,23,24,13,14,13,13,13,14,14,14,13,14,14,13,13,13,14,13,13,13,13,13,14,13,14,14,13,13,14,14,13,14,23,25,13,13,14,14,13,14,13,14,14,13,14,13,14,13,13,13,14,13,14,14,13,13,14,13,14,13,13,14,14,14,14,13,13,14,14,13,14,14,13,14,14,13,14,14,14,13,25,25,13,14,14,14,13,13,14,14,14,14,14,13,14,14,14,14,14,14,14,13,13,13,14,13,13,14,13,14,14,13,13,14,14,13,13,14,13,14,13,13,13,14,14,13,13,14,23,24,14,13,14,14,13,14,14,14,14,14,13,14,13,14,14,13,14,13,13,14,14,14,13,13,14,13,13,14,13,13,13,14,13,14,13,14,14,13,13,14,14,14,13,13,13,14,25,25,13,14,13,13,14,13,13,14,13,13,14,13,13,14,13,13,14,13,14,14,14,14,13,13,13,14,13,14,14,13,13,13,14,14,13,14,13,13,14,13,13,13,13,13,13,14,23,23,14,14,14,14,13,13,14,13,14,14,13,14,13,14,14,14,14,13,14,13,14,13,14,13,14,13,13,14,14,14,14,13,14,14,13,13,14,13,14,13,13,13,13,14,14,14,25,24,14,14,13,14,14,14,14,13,14,14,13,14,13,13,13,13,13,13,13,13,14,14,13,13,13,6,5,5,5,6,6,5,5,6,5,6,6,14,14,13,13,13,14,13,13,13,24,23,13,13,13,14,14,13,13,14,13,13,14,13,14,13,13,13,14,14,14,14,13,13,13,14,14,5,5,6,5,6,6,6,5,6,6,6,6,14,13,13,13,13,13,13,13,14,23,26,14,14,13,13,14,13,13,14,14,14,14,13,14,14,13,13,14,14,14,14,13,14,14,14,13,5,5,5,5,6,5,5,6,5,5,5,5,13,14,14,13,13,13,14,13,13,24,23,13,14,13,14,13,13,14,14,14,14,14,14,14,14,14,14,13,14,14,13,13,13,14,13,13,6,5,6,5,5,5,5,6,6,5,5,6,14,14,13,14,14,13,14,13,13,23,25,14,13,13,14,13,14,14,14,13,14,14,14,14,14,14,14,14,14,14,13,14,14,13,13,13,6,5,5,6,6,6,6,6,6,6,6,6,14,13,14,13,13,14,13,13,13,25,25,24,25,25,26,25,23,23,23,25,23,24,24,25,23,23,23,25,24,23,24,25,25,24,25,25,25,25,23,6,5,5,6,5,6,5,6,6,13,13,13,13,14,13,13,13,14,26,23,24,23,25,23,25,25,24,24,24,24,24,23,24,26,24,25,23,25,24,25,23,25,23,24,25,23,23,23,5,6,6,6,5,6,5,5,6,13,13,14,13,14,14,13,13,14,13,13,13,14,14,13,14,13,13,14,13,14,14,13,14,13,13,13,14,14,13,13,14,14,13,13,13,6,23,25,5,6,6,5,5,6,6,6,6,13,13,14,14,13,13,13,14,14,14,14,14,14,13,14,14,14,14,14,13,14,14,14,13,13,13,14,14,13,13,14,13,14,14,13,13,13,25,24,14,14,13,13,14,14,14,14,13,13,14,14,14,13,14,13,13,14,14,14,13,13,13,14,14,13,14,14,14,14,14,14,13,13,14,14,14,14,13,14,14,13,14,13,13,13,25,25,13,13,13,13,13,14,14,14,14,13,13,14,14,13,13,14,13,14,13,13,13,14,14,13,14,14,14,14,13,14,14,14,13,13,13,13,14,14,14,13,13,13,13,13,14,14,23,25,14,14,14,14,13,13,14,14,13,13,13,14,14,14,14,14,13,13,14,13,14,13,13,14,14,14,13,13,13,14,13,14,14,13,13,13,13,13,14,13,14,13,13,14,13,13,25,24,13,13,13,14,13,14,14,14,13,13,14,14,14,14,14,13,14,14,13,14,13,14,14,14,14,13,13,14,14,14,13,14,13,13,14,14,14,14,14,14,14,13,14,14,13,14,25,23,14,13,13,14,13,14,13,14,14,13,13,14,14,14,13,14,14,13,13,14,14,13,13,14,13,14,14,14,13,14,14,14,14,14,13,13,14,13,14,14,13,13,14,13,14,14,23,23,14,13,14,14,13,13,13,13,14,13,14,14,13,13,13,14,14,13,13,13,14,13,13,13,14,13,13,14,13,14,13,13,14,14,13,14,13,13,14,13,14,13,14,13,13,13,24,23,14,13,14,14,14,13,14,14,14,14,14,14,14,14,14,14,14,13,14,14,13,13,14,13,14,13,13,14,13,13,13,14,13,13,14,13,13,13,13,14,14,13,14,13,13,13,24,23,13,13,14,13,13,13,13,13,13,14,13,13,14,14,14,13,14,13,14,13,14,14,13,14,13,14,14,14,14,13,14,14,13,13,13,13,13,13,14,13,14,13,14,14,14,13,25,23,14,13,13,14,14,14,14,14,13,14,13,13,14,14,14,13,13,13,14,13,14,13,24,25,23,23,25,26,24,25,25,25,23,24,25,25,24,23,24,25,25,25,23,25,23,24,25,25,14,13,13,13,13,13,13,13,14,14,13,14,13,14,13,13,14,14,14,14,13,14,23,23,23,23,23,24,24,25,25,23,25,25,23,24,25,23,24,25,25,25,25,23,25,25,26,26,13,14,13,14,14,14,13,13,13,14,13,14,13,14,13,14,14,13,14,14,14,13,24,25,13,14,13,13,14,14,13,13,13,14,14,13,13,14,13,14,13,13,14,14,14,14,14,14,14,13,14,13,14,13,14,14,14,14,14,14,13,13,13,13,13,14,13,13,13,14,25,24,13,13,14,14,13,13,14,13,13,13,14,14,14,13,14,13,13,13,14,14,14,14,14,13,13,13,13,13,13,13,14,13,14,13,14,13,14,13,14,13,14,14,14,13,13,14,23,23,14,14,13,14,13,13,13,14,14,14,14,13,14,14,13,13,14,13,14,14,14,14,14,14,14,13,14,14,13,13,13,13,13,13,14,14,14,13,13,13,14,13,14,13,13,14,24,24,13,13,13,13,14,13,13,13,13,13,13,14,13,13,14,13,13,13,14,14,13,13,14,14,14,14,13,14,14,14,13,13,14,14,13,13,13,13,13,13,14,14,14,14,14,14,25,23,14,13,13,13,14,13,14,14,13,14,14,14,14,14,13,13,13,13,14,14,13,13,14,14,13,13,14,14,13,13,14,13,13,14,14,13,14,13,13,14,13,14,14,14,14,13,24,23,14,14,14,13,14,14,13,13,14,14,14,14,13,13,13,14,13,13,14,14,13,14,13,13,13,14,14,14,14,14,13,13,13,14,14,14,13,13,13,14,14,14,14,14,13,13,24,24,13,13,14,13,14,13,13,13,14,14,14,14,14,14,14,13,13,14,14,14,14,13,14,14,14,13,14,13,13,14,14,13,14,13,13,13,13,14,13,13,13,13,13,13,13,13,23,25,13,14,14,14,14,14,13,13,14,13,13,13,14,13,13,14,14,13,14,13,14,13,14,13,14,13,14,13,14,13,14,14,14,13,14,14,14,13,13,13,13,14,14,13,13,13,23,24,13,14,14,13,14,14,14,13,13,14,13,13,13,14,14,14,13,14,13,14,14,14,14,13,13,13,14,14,13,13,13,13,13,23,24,23,25,23,25,23,23,23,23,25,25,23,25,23,25,25,23,25,23,25,25,25,25,23,25,25,25,23,25,23,25,23,23,23,25,23,25,25,24,23,23,23,25,25,23,24,23,25,24,24,25,24,25,25,23,23,23,25,25,24,23,24,25,23,23,23,23,25,26,25,24,25,25,24,26,23,24,25,25,24,24,24,26,23,25,23,25,23,24,23,25,23,24,23,25,24,24,23,25,24,25,24,23,24,24,24,23,23,25,23,23,25,23,23,24,25,24,25,25,23,24,23,25,25,25,23,23,24,25,26,23,24,25,23,24,25,24,25,23,25,24,23,23,24,25,24,25,23,23,25,23,26,25,25,23,25,24,24,25,24,25,25,24,24,23,25,25,24,25,24,24,23,24,23,23,23,24,23,23,25,23,23,25,24,24,24,25,23,25,24,25,23,23,25,23,24,25,24,25,25,24,25,26,25,23,25,24,24,23,25,23,24,24,24,24,23,23,23,23,24,24,23,23,25,24,23,25,24,24,24,23,23,24,23,25,25,23,24,23,24,24,23,25,25,25,23,24,24,25,23,24,23,24,24,24,24,25,23,24,25,23,23,25,23,25,24,24,24,25,23,23,24,23,24,25,24,25,23,25,25,23,24,23,26,23,23,24,24,25,24,24,23,24,25,25,24,24,24,25,24,24,25,25,23,25,23,23,23,24,25,23,24,23,24,24,24,23,24,25,25,24,25,23,24,25,23,26,25,24,23,25,23,24,24,24,24,25,25,23,24,24,23,25,24,24,23,23,23,24,23,23,23,25,23,23,23,24,23,23,25,24,24,24,24,24,24,24,23,24,25,25,23,24,25,25,24,25,24,25,25,23,24,25,31,31,31,31,32,32,32,31,31,31,31,31,31,31,32,31,31,31,31,32,32,31,31,31,31,31,31,31,31,32,31,32,32,31,32,32,31,32,31,31,31,32,31,32,31,32,31,31,32,31,32,31,31,31,31,32,31,31,31,31,31,31,31,32,32,31,31,31,31,32,32,31,31,32,31,31,31,32,32,31,32,32,32,31,32,31,31,32,31,31,32,31,32,32,31,31,31,31,31,31,32,32,31,31,31,31,31,32,31,32,32,32,31,32,31,31,31,31,32,32,31,31,32,32,32,31,32,31,31,32,32,32,31,32,32,32,32,32,32,32,32,32,31,31,32,32,32,32,32,31,31,31,31,31,32,32,32,31,31,31,32,31,31,32,31,31,31,32,31,32,32,32,32,32,32,31,31,31,32,31,31,32,31,31,31,31,31,31,31,32,31,32]},{"id":2,"name":"objects","type":"objectgroup","draworder":"topdown","x":0,"y":0,"opacity":1,"visible":true,"objects":[{"id":1,"name":"rock.crag#1","type":"prop","x":504.0,"y":48,"width":0,"height":0,"rotation":0,"visible":true,"point":true,"properties":[{"name":"kind","type":"string","value":"rock.crag"},{"name":"fw","type":"int","value":48},{"name":"fh","type":"int","value":32},{"name":"solid","type":"bool","value":true},{"name":"ref","type":"string","value":"crag"}]},{"id":2,"name":"rock.big#1","type":"prop","x":184.0,"y":112,"width":0,"height":0,"rotation":0,"visible":true,"point":true,"properties":[{"name":"kind","type":"string","value":"rock.big"},{"name":"fw","type":"int","value":48},{"name":"fh","type":"int","value":32},{"name":"solid","type":"bool","value":true},{"name":"ref","type":"string","value":"rock-w"}]},{"id":3,"name":"tree.pine#0","type":"prop","x":600.0,"y":160,"width":0,"height":0,"rotation":0,"visible":true,"point":true,"properties":[{"name":"kind","type":"string","value":"tree.pine"},{"name":"fw","type":"int","value":16},{"name":"fh","type":"int","value":16},{"name":"solid","type":"bool","value":true},{"name":"ref","type":"string","value":"pine-s1"}]},{"id":4,"name":"prop.bench#0","type":"prop","x":288.0,"y":32,"width":0,"height":0,"rotation":0,"visible":true,"point":true,"properties":[{"name":"kind","type":"string","value":"prop.bench"},{"name":"fw","type":"int","value":32},{"name":"fh","type":"int","value":16},{"name":"solid","type":"bool","value":true},{"name":"ref","type":"string","value":"bench"}]},{"id":5,"name":"landmark.notice#0","type":"prop","x":288.0,"y":864,"width":0,"height":0,"rotation":0,"visible":true,"point":true,"properties":[{"name":"kind","type":"string","value":"landmark.notice"},{"name":"fw","type":"int","value":32},{"name":"fh","type":"int","value":16},{"name":"solid","type":"bool","value":true},{"name":"ref","type":"string","value":"trail-sign"}]},{"id":6,"name":"prop.car#1","type":"prop","x":448.0,"y":880,"width":0,"height":0,"rotation":0,"visible":true,"point":true,"properties":[{"name":"kind","type":"string","value":"prop.car"},{"name":"fw","type":"int","value":64},{"name":"fh","type":"int","value":32},{"name":"solid","type":"bool","value":true},{"name":"ref","type":"string","value":"oh-car"}]},{"id":7,"name":"prop.car#2","type":"prop","x":640.0,"y":880,"width":0,"height":0,"rotation":0,"visible":true,"point":true,"properties":[{"name":"kind","type":"string","value":"prop.car"},{"name":"fw","type":"int","value":64},{"name":"fh","type":"int","value":32},{"name":"solid","type":"bool","value":true},{"name":"ref","type":"string","value":"car-a"}]},{"id":8,"name":"prop.car#1","type":"prop","x":64.0,"y":1008,"width":0,"height":0,"rotation":0,"visible":true,"point":true,"properties":[{"name":"kind","type":"string","value":"prop.car"},{"name":"fw","type":"int","value":64},{"name":"fh","type":"int","value":32},{"name":"solid","type":"bool","value":true},{"name":"ref","type":"string","value":"jam-0"}]},{"id":9,"name":"prop.car#1","type":"prop","x":256.0,"y":1008,"width":0,"height":0,"rotation":0,"visible":true,"point":true,"properties":[{"name":"kind","type":"string","value":"prop.car"},{"name":"fw","type":"int","value":64},{"name":"fh","type":"int","value":32},{"name":"solid","type":"bool","value":true},{"name":"ref","type":"string","value":"jam-3"}]},{"id":10,"name":"prop.car#2","type":"prop","x":448.0,"y":1008,"width":0,"height":0,"rotation":0,"visible":true,"point":true,"properties":[{"name":"kind","type":"string","value":"prop.car"},{"name":"fw","type":"int","value":64},{"name":"fh","type":"int","value":32},{"name":"solid","type":"bool","value":true},{"name":"ref","type":"string","value":"jam-6"}]},{"id":11,"name":"prop.car#1","type":"prop","x":640.0,"y":1008,"width":0,"height":0,"rotation":0,"visible":true,"point":true,"properties":[{"name":"kind","type":"string","value":"prop.car"},{"name":"fw","type":"int","value":64},{"name":"fh","type":"int","value":32},{"name":"solid","type":"bool","value":true},{"name":"ref","type":"string","value":"jam-9"}]},{"id":12,"name":"tree.pine#0","type":"prop","x":24.0,"y":864,"width":0,"height":0,"rotation":0,"visible":true,"point":true,"properties":[{"name":"kind","type":"string","value":"tree.pine"},{"name":"fw","type":"int","value":16},{"name":"fh","type":"int","value":16},{"name":"solid","type":"bool","value":true},{"name":"ref","type":"string","value":"pine-c1"}]},{"id":13,"name":"tree.pine#1","type":"prop","x":728.0,"y":864,"width":0,"height":0,"rotation":0,"visible":true,"point":true,"properties":[{"name":"kind","type":"string","value":"tree.pine"},{"name":"fw","type":"int","value":16},{"name":"fh","type":"int","value":16},{"name":"solid","type":"bool","value":true},{"name":"ref","type":"string","value":"pine-c2"}]},{"id":14,"name":"","type":"prop","x":64.0,"y":16,"width":0,"height":0,"rotation":0,"visible":true,"point":true,"properties":[{"name":"kind","type":"string","value":"wall"},{"name":"fw","type":"int","value":128},{"name":"fh","type":"int","value":16},{"name":"solid","type":"bool","value":true}]},{"id":15,"name":"","type":"prop","x":704.0,"y":16,"width":0,"height":0,"rotation":0,"visible":true,"point":true,"properties":[{"name":"kind","type":"string","value":"wall"},{"name":"fw","type":"int","value":128},{"name":"fh","type":"int","value":16},{"name":"solid","type":"bool","value":true}]},{"id":16,"name":"","type":"prop","x":64.0,"y":32,"width":0,"height":0,"rotation":0,"visible":true,"point":true,"properties":[{"name":"kind","type":"string","value":"wall"},{"name":"fw","type":"int","value":128},{"name":"fh","type":"int","value":16},{"name":"solid","type":"bool","value":true}]},{"id":17,"name":"","type":"prop","x":704.0,"y":32,"width":0,"height":0,"rotation":0,"visible":true,"point":true,"properties":[{"name":"kind","type":"string","value":"wall"},{"name":"fw","type":"int","value":128},{"name":"fh","type":"int","value":16},{"name":"solid","type":"bool","value":true}]},{"id":18,"name":"","type":"prop","x":64.0,"y":48,"width":0,"height":0,"rotation":0,"visible":true,"point":true,"properties":[{"name":"kind","type":"string","value":"wall"},{"name":"fw","type":"int","value":128},{"name":"fh","type":"int","value":16},{"name":"solid","type":"bool","value":true}]},{"id":19,"name":"","type":"prop","x":704.0,"y":48,"width":0,"height":0,"rotation":0,"visible":true,"point":true,"properties":[{"name":"kind","type":"string","value":"wall"},{"name":"fw","type":"int","value":128},{"name":"fh","type":"int","value":16},{"name":"solid","type":"bool","value":true}]},{"id":20,"name":"","type":"prop","x":64.0,"y":64,"width":0,"height":0,"rotation":0,"visible":true,"point":true,"properties":[{"name":"kind","type":"string","value":"wall"},{"name":"fw","type":"int","value":128},{"name":"fh","type":"int","value":16},{"name":"solid","type":"bool","value":true}]},{"id":21,"name":"","type":"prop","x":704.0,"y":64,"width":0,"height":0,"rotation":0,"visible":true,"point":true,"properties":[{"name":"kind","type":"string","value":"wall"},{"name":"fw","type":"int","value":128},{"name":"fh","type":"int","value":16},{"name":"solid","type":"bool","value":true}]},{"id":22,"name":"","type":"prop","x":64.0,"y":80,"width":0,"height":0,"rotation":0,"visible":true,"point":true,"properties":[{"name":"kind","type":"string","value":"wall"},{"name":"fw","type":"int","value":128},{"name":"fh","type":"int","value":16},{"name":"solid","type":"bool","value":true}]},{"id":23,"name":"","type":"prop","x":704.0,"y":80,"width":0,"height":0,"rotation":0,"visible":true,"point":true,"properties":[{"name":"kind","type":"string","value":"wall"},{"name":"fw","type":"int","value":128},{"name":"fh","type":"int","value":16},{"name":"solid","type":"bool","value":true}]},{"id":24,"name":"","type":"prop","x":64.0,"y":96,"width":0,"height":0,"rotation":0,"visible":true,"point":true,"properties":[{"name":"kind","type":"string","value":"wall"},{"name":"fw","type":"int","value":128},{"name":"fh","type":"int","value":16},{"name":"solid","type":"bool","value":true}]},{"id":25,"name":"","type":"prop","x":704.0,"y":96,"width":0,"height":0,"rotation":0,"visible":true,"point":true,"properties":[{"name":"kind","type":"string","value":"wall"},{"name":"fw","type":"int","value":128},{"name":"fh","type":"int","value":16},{"name":"solid","type":"bool","value":true}]},{"id":26,"name":"","type":"prop","x":64.0,"y":112,"width":0,"height":0,"rotation":0,"visible":true,"point":true,"properties":[{"name":"kind","type":"string","value":"wall"},{"name":"fw","type":"int","value":128},{"name":"fh","type":"int","value":16},{"name":"solid","type":"bool","value":true}]},{"id":27,"name":"","type":"prop","x":704.0,"y":112,"width":0,"height":0,"rotation":0,"visible":true,"point":true,"properties":[{"name":"kind","type":"string","value":"wall"},{"name":"fw","type":"int","value":128},{"name":"fh","type":"int","value":16},{"name":"solid","type":"bool","value":true}]},{"id":28,"name":"","type":"prop","x":64.0,"y":128,"width":0,"height":0,"rotation":0,"visible":true,"point":true,"properties":[{"name":"kind","type":"string","value":"wall"},{"name":"fw","type":"int","value":128},{"name":"fh","type":"int","value":16},{"name":"solid","type":"bool","value":true}]},{"id":29,"name":"","type":"prop","x":704.0,"y":128,"width":0,"height":0,"rotation":0,"visible":true,"point":true,"properties":[{"name":"kind","type":"string","value":"wall"},{"name":"fw","type":"int","value":128},{"name":"fh","type":"int","value":16},{"name":"solid","type":"bool","value":true}]},{"id":30,"name":"","type":"prop","x":64.0,"y":144,"width":0,"height":0,"rotation":0,"visible":true,"point":true,"properties":[{"name":"kind","type":"string","value":"wall"},{"name":"fw","type":"int","value":128},{"name":"fh","type":"int","value":16},{"name":"solid","type":"bool","value":true}]},{"id":31,"name":"","type":"prop","x":704.0,"y":144,"width":0,"height":0,"rotation":0,"visible":true,"point":true,"properties":[{"name":"kind","type":"string","value":"wall"},{"name":"fw","type":"int","value":128},{"name":"fh","type":"int","value":16},{"name":"solid","type":"bool","value":true}]},{"id":32,"name":"","type":"prop","x":64.0,"y":160,"width":0,"height":0,"rotation":0,"visible":true,"point":true,"properties":[{"name":"kind","type":"string","value":"wall"},{"name":"fw","type":"int","value":128},{"name":"fh","type":"int","value":16},{"name":"solid","type":"bool","value":true}]},{"id":33,"name":"","type":"prop","x":704.0,"y":160,"width":0,"height":0,"rotation":0,"visible":true,"point":true,"properties":[{"name":"kind","type":"string","value":"wall"},{"name":"fw","type":"int","value":128},{"name":"fh","type":"int","value":16},{"name":"solid","type":"bool","value":true}]},{"id":34,"name":"","type":"prop","x":64.0,"y":176,"width":0,"height":0,"rotation":0,"visible":true,"point":true,"properties":[{"name":"kind","type":"string","value":"wall"},{"name":"fw","type":"int","value":128},{"name":"fh","type":"int","value":16},{"name":"solid","type":"bool","value":true}]},{"id":35,"name":"","type":"prop","x":704.0,"y":176,"width":0,"height":0,"rotation":0,"visible":true,"point":true,"properties":[{"name":"kind","type":"string","value":"wall"},{"name":"fw","type":"int","value":128},{"name":"fh","type":"int","value":16},{"name":"solid","type":"bool","value":true}]},{"id":36,"name":"","type":"prop","x":64.0,"y":192,"width":0,"height":0,"rotation":0,"visible":true,"point":true,"properties":[{"name":"kind","type":"string","value":"wall"},{"name":"fw","type":"int","value":128},{"name":"fh","type":"int","value":16},{"name":"solid","type":"bool","value":true}]},{"id":37,"name":"","type":"prop","x":704.0,"y":192,"width":0,"height":0,"rotation":0,"visible":true,"point":true,"properties":[{"name":"kind","type":"string","value":"wall"},{"name":"fw","type":"int","value":128},{"name":"fh","type":"int","value":16},{"name":"solid","type":"bool","value":true}]},{"id":38,"name":"","type":"prop","x":200.0,"y":208,"width":0,"height":0,"rotation":0,"visible":true,"point":true,"properties":[{"name":"kind","type":"string","value":"wall"},{"name":"fw","type":"int","value":400},{"name":"fh","type":"int","value":16},{"name":"solid","type":"bool","value":true}]},{"id":39,"name":"","type":"prop","x":600.0,"y":208,"width":0,"height":0,"rotation":0,"visible":true,"point":true,"properties":[{"name":"kind","type":"string","value":"wall"},{"name":"fw","type":"int","value":336},{"name":"fh","type":"int","value":16},{"name":"solid","type":"bool","value":true}]},{"id":40,"name":"","type":"prop","x":200.0,"y":224,"width":0,"height":0,"rotation":0,"visible":true,"point":true,"properties":[{"name":"kind","type":"string","value":"wall"},{"name":"fw","type":"int","value":400},{"name":"fh","type":"int","value":16},{"name":"solid","type":"bool","value":true}]},{"id":41,"name":"","type":"prop","x":600.0,"y":224,"width":0,"height":0,"rotation":0,"visible":true,"point":true,"properties":[{"name":"kind","type":"string","value":"wall"},{"name":"fw","type":"int","value":336},{"name":"fh","type":"int","value":16},{"name":"solid","type":"bool","value":true}]},{"id":42,"name":"","type":"prop","x":200.0,"y":240,"width":0,"height":0,"rotation":0,"visible":true,"point":true,"properties":[{"name":"kind","type":"string","value":"wall"},{"name":"fw","type":"int","value":400},{"name":"fh","type":"int","value":16},{"name":"solid","type":"bool","value":true}]},{"id":43,"name":"","type":"prop","x":600.0,"y":240,"width":0,"height":0,"rotation":0,"visible":true,"point":true,"properties":[{"name":"kind","type":"string","value":"wall"},{"name":"fw","type":"int","value":336},{"name":"fh","type":"int","value":16},{"name":"solid","type":"bool","value":true}]},{"id":44,"name":"","type":"prop","x":200.0,"y":256,"width":0,"height":0,"rotation":0,"visible":true,"point":true,"properties":[{"name":"kind","type":"string","value":"wall"},{"name":"fw","type":"int","value":400},{"name":"fh","type":"int","value":16},{"name":"solid","type":"bool","value":true}]},{"id":45,"name":"","type":"prop","x":600.0,"y":256,"width":0,"height":0,"rotation":0,"visible":true,"point":true,"properties":[{"name":"kind","type":"string","value":"wall"},{"name":"fw","type":"int","value":336},{"name":"fh","type":"int","value":16},{"name":"solid","type":"bool","value":true}]},{"id":46,"name":"","type":"prop","x":200.0,"y":272,"width":0,"height":0,"rotation":0,"visible":true,"point":true,"properties":[{"name":"kind","type":"string","value":"wall"},{"name":"fw","type":"int","value":400},{"name":"fh","type":"int","value":16},{"name":"solid","type":"bool","value":true}]},{"id":47,"name":"","type":"prop","x":600.0,"y":272,"width":0,"height":0,"rotation":0,"visible":true,"point":true,"properties":[{"name":"kind","type":"string","value":"wall"},{"name":"fw","type":"int","value":336},{"name":"fh","type":"int","value":16},{"name":"solid","type":"bool","value":true}]},{"id":48,"name":"","type":"prop","x":72.0,"y":288,"width":0,"height":0,"rotation":0,"visible":true,"point":true,"properties":[{"name":"kind","type":"string","value":"wall"},{"name":"fw","type":"int","value":144},{"name":"fh","type":"int","value":16},{"name":"solid","type":"bool","value":true}]},{"id":49,"name":"","type":"prop","x":600.0,"y":288,"width":0,"height":0,"rotation":0,"visible":true,"point":true,"properties":[{"name":"kind","type":"string","value":"wall"},{"name":"fw","type":"int","value":336},{"name":"fh","type":"int","value":16},{"name":"solid","type":"bool","value":true}]},{"id":50,"name":"","type":"prop","x":72.0,"y":304,"width":0,"height":0,"rotation":0,"visible":true,"point":true,"properties":[{"name":"kind","type":"string","value":"wall"},{"name":"fw","type":"int","value":144},{"name":"fh","type":"int","value":16},{"name":"solid","type":"bool","value":true}]},{"id":51,"name":"","type":"prop","x":600.0,"y":304,"width":0,"height":0,"rotation":0,"visible":true,"point":true,"properties":[{"name":"kind","type":"string","value":"wall"},{"name":"fw","type":"int","value":336},{"name":"fh","type":"int","value":16},{"name":"solid","type":"bool","value":true}]},{"id":52,"name":"","type":"prop","x":72.0,"y":320,"width":0,"height":0,"rotation":0,"visible":true,"point":true,"properties":[{"name":"kind","type":"string","value":"wall"},{"name":"fw","type":"int","value":144},{"name":"fh","type":"int","value":16},{"name":"solid","type":"bool","value":true}]},{"id":53,"name":"","type":"prop","x":472.0,"y":320,"width":0,"height":0,"rotation":0,"visible":true,"point":true,"properties":[{"name":"kind","type":"string","value":"wall"},{"name":"fw","type":"int","value":592},{"name":"fh","type":"int","value":16},{"name":"solid","type":"bool","value":true}]},{"id":54,"name":"","type":"prop","x":72.0,"y":336,"width":0,"height":0,"rotation":0,"visible":true,"point":true,"properties":[{"name":"kind","type":"string","value":"wall"},{"name":"fw","type":"int","value":144},{"name":"fh","type":"int","value":16},{"name":"solid","type":"bool","value":true}]},{"id":55,"name":"","type":"prop","x":472.0,"y":336,"width":0,"height":0,"rotation":0,"visible":true,"point":true,"properties":[{"name":"kind","type":"string","value":"wall"},{"name":"fw","type":"int","value":592},{"name":"fh","type":"int","value":16},{"name":"solid","type":"bool","value":true}]},{"id":56,"name":"","type":"prop","x":72.0,"y":352,"width":0,"height":0,"rotation":0,"visible":true,"point":true,"properties":[{"name":"kind","type":"string","value":"wall"},{"name":"fw","type":"int","value":144},{"name":"fh","type":"int","value":16},{"name":"solid","type":"bool","value":true}]},{"id":57,"name":"","type":"prop","x":472.0,"y":352,"width":0,"height":0,"rotation":0,"visible":true,"point":true,"properties":[{"name":"kind","type":"string","value":"wall"},{"name":"fw","type":"int","value":592},{"name":"fh","type":"int","value":16},{"name":"solid","type":"bool","value":true}]},{"id":58,"name":"","type":"prop","x":72.0,"y":368,"width":0,"height":0,"rotation":0,"visible":true,"point":true,"properties":[{"name":"kind","type":"string","value":"wall"},{"name":"fw","type":"int","value":144},{"name":"fh","type":"int","value":16},{"name":"solid","type":"bool","value":true}]},{"id":59,"name":"","type":"prop","x":472.0,"y":368,"width":0,"height":0,"rotation":0,"visible":true,"point":true,"properties":[{"name":"kind","type":"string","value":"wall"},{"name":"fw","type":"int","value":592},{"name":"fh","type":"int","value":16},{"name":"solid","type":"bool","value":true}]},{"id":60,"name":"","type":"prop","x":72.0,"y":384,"width":0,"height":0,"rotation":0,"visible":true,"point":true,"properties":[{"name":"kind","type":"string","value":"wall"},{"name":"fw","type":"int","value":144},{"name":"fh","type":"int","value":16},{"name":"solid","type":"bool","value":true}]},{"id":61,"name":"","type":"prop","x":472.0,"y":384,"width":0,"height":0,"rotation":0,"visible":true,"point":true,"properties":[{"name":"kind","type":"string","value":"wall"},{"name":"fw","type":"int","value":592},{"name":"fh","type":"int","value":16},{"name":"solid","type":"bool","value":true}]},{"id":62,"name":"","type":"prop","x":72.0,"y":400,"width":0,"height":0,"rotation":0,"visible":true,"point":true,"properties":[{"name":"kind","type":"string","value":"wall"},{"name":"fw","type":"int","value":144},{"name":"fh","type":"int","value":16},{"name":"solid","type":"bool","value":true}]},{"id":63,"name":"","type":"prop","x":376.0,"y":400,"width":0,"height":0,"rotation":0,"visible":true,"point":true,"properties":[{"name":"kind","type":"string","value":"wall"},{"name":"fw","type":"int","value":400},{"name":"fh","type":"int","value":16},{"name":"solid","type":"bool","value":true}]},{"id":64,"name":"","type":"prop","x":72.0,"y":416,"width":0,"height":0,"rotation":0,"visible":true,"point":true,"properties":[{"name":"kind","type":"string","value":"wall"},{"name":"fw","type":"int","value":144},{"name":"fh","type":"int","value":16},{"name":"solid","type":"bool","value":true}]},{"id":65,"name":"","type":"prop","x":376.0,"y":416,"width":0,"height":0,"rotation":0,"visible":true,"point":true,"properties":[{"name":"kind","type":"string","value":"wall"},{"name":"fw","type":"int","value":400},{"name":"fh","type":"int","value":16},{"name":"solid","type":"bool","value":true}]},{"id":66,"name":"","type":"prop","x":72.0,"y":432,"width":0,"height":0,"rotation":0,"visible":true,"point":true,"properties":[{"name":"kind","type":"string","value":"wall"},{"name":"fw","type":"int","value":144},{"name":"fh","type":"int","value":16},{"name":"solid","type":"bool","value":true}]},{"id":67,"name":"","type":"prop","x":376.0,"y":432,"width":0,"height":0,"rotation":0,"visible":true,"point":true,"properties":[{"name":"kind","type":"string","value":"wall"},{"name":"fw","type":"int","value":400},{"name":"fh","type":"int","value":16},{"name":"solid","type":"bool","value":true}]},{"id":68,"name":"","type":"prop","x":72.0,"y":448,"width":0,"height":0,"rotation":0,"visible":true,"point":true,"properties":[{"name":"kind","type":"string","value":"wall"},{"name":"fw","type":"int","value":144},{"name":"fh","type":"int","value":16},{"name":"solid","type":"bool","value":true}]},{"id":69,"name":"","type":"prop","x":376.0,"y":448,"width":0,"height":0,"rotation":0,"visible":true,"point":true,"properties":[{"name":"kind","type":"string","value":"wall"},{"name":"fw","type":"int","value":400},{"name":"fh","type":"int","value":16},{"name":"solid","type":"bool","value":true}]},{"id":70,"name":"","type":"prop","x":72.0,"y":464,"width":0,"height":0,"rotation":0,"visible":true,"point":true,"properties":[{"name":"kind","type":"string","value":"wall"},{"name":"fw","type":"int","value":144},{"name":"fh","type":"int","value":16},{"name":"solid","type":"bool","value":true}]},{"id":71,"name":"","type":"prop","x":376.0,"y":464,"width":0,"height":0,"rotation":0,"visible":true,"point":true,"properties":[{"name":"kind","type":"string","value":"wall"},{"name":"fw","type":"int","value":400},{"name":"fh","type":"int","value":16},{"name":"solid","type":"bool","value":true}]},{"id":72,"name":"","type":"prop","x":72.0,"y":480,"width":0,"height":0,"rotation":0,"visible":true,"point":true,"properties":[{"name":"kind","type":"string","value":"wall"},{"name":"fw","type":"int","value":144},{"name":"fh","type":"int","value":16},{"name":"solid","type":"bool","value":true}]},{"id":73,"name":"","type":"prop","x":72.0,"y":496,"width":0,"height":0,"rotation":0,"visible":true,"point":true,"properties":[{"name":"kind","type":"string","value":"wall"},{"name":"fw","type":"int","value":144},{"name":"fh","type":"int","value":16},{"name":"solid","type":"bool","value":true}]},{"id":74,"name":"","type":"prop","x":288.0,"y":512,"width":0,"height":0,"rotation":0,"visible":true,"point":true,"properties":[{"name":"kind","type":"string","value":"wall"},{"name":"fw","type":"int","value":576},{"name":"fh","type":"int","value":16},{"name":"solid","type":"bool","value":true}]},{"id":75,"name":"","type":"prop","x":296.0,"y":528,"width":0,"height":0,"rotation":0,"visible":true,"point":true,"properties":[{"name":"kind","type":"string","value":"wall"},{"name":"fw","type":"int","value":592},{"name":"fh","type":"int","value":16},{"name":"solid","type":"bool","value":true}]},{"id":76,"name":"","type":"prop","x":696.0,"y":528,"width":0,"height":0,"rotation":0,"visible":true,"point":true,"properties":[{"name":"kind","type":"string","value":"wall"},{"name":"fw","type":"int","value":144},{"name":"fh","type":"int","value":16},{"name":"solid","type":"bool","value":true}]},{"id":77,"name":"","type":"prop","x":296.0,"y":544,"width":0,"height":0,"rotation":0,"visible":true,"point":true,"properties":[{"name":"kind","type":"string","value":"wall"},{"name":"fw","type":"int","value":592},{"name":"fh","type":"int","value":16},{"name":"solid","type":"bool","value":true}]},{"id":78,"name":"","type":"prop","x":696.0,"y":544,"width":0,"height":0,"rotation":0,"visible":true,"point":true,"properties":[{"name":"kind","type":"string","value":"wall"},{"name":"fw","type":"int","value":144},{"name":"fh","type":"int","value":16},{"name":"solid","type":"bool","value":true}]},{"id":79,"name":"","type":"prop","x":296.0,"y":560,"width":0,"height":0,"rotation":0,"visible":true,"point":true,"properties":[{"name":"kind","type":"string","value":"wall"},{"name":"fw","type":"int","value":592},{"name":"fh","type":"int","value":16},{"name":"solid","type":"bool","value":true}]},{"id":80,"name":"","type":"prop","x":696.0,"y":560,"width":0,"height":0,"rotation":0,"visible":true,"point":true,"properties":[{"name":"kind","type":"string","value":"wall"},{"name":"fw","type":"int","value":144},{"name":"fh","type":"int","value":16},{"name":"solid","type":"bool","value":true}]},{"id":81,"name":"","type":"prop","x":296.0,"y":576,"width":0,"height":0,"rotation":0,"visible":true,"point":true,"properties":[{"name":"kind","type":"string","value":"wall"},{"name":"fw","type":"int","value":592},{"name":"fh","type":"int","value":16},{"name":"solid","type":"bool","value":true}]},{"id":82,"name":"","type":"prop","x":696.0,"y":576,"width":0,"height":0,"rotation":0,"visible":true,"point":true,"properties":[{"name":"kind","type":"string","value":"wall"},{"name":"fw","type":"int","value":144},{"name":"fh","type":"int","value":16},{"name":"solid","type":"bool","value":true}]},{"id":83,"name":"","type":"prop","x":296.0,"y":592,"width":0,"height":0,"rotation":0,"visible":true,"point":true,"properties":[{"name":"kind","type":"string","value":"wall"},{"name":"fw","type":"int","value":592},{"name":"fh","type":"int","value":16},{"name":"solid","type":"bool","value":true}]},{"id":84,"name":"","type":"prop","x":696.0,"y":592,"width":0,"height":0,"rotation":0,"visible":true,"point":true,"properties":[{"name":"kind","type":"string","value":"wall"},{"name":"fw","type":"int","value":144},{"name":"fh","type":"int","value":16},{"name":"solid","type":"bool","value":true}]},{"id":85,"name":"","type":"prop","x":296.0,"y":608,"width":0,"height":0,"rotation":0,"visible":true,"point":true,"properties":[{"name":"kind","type":"string","value":"wall"},{"name":"fw","type":"int","value":592},{"name":"fh","type":"int","value":16},{"name":"solid","type":"bool","value":true}]},{"id":86,"name":"","type":"prop","x":696.0,"y":608,"width":0,"height":0,"rotation":0,"visible":true,"point":true,"properties":[{"name":"kind","type":"string","value":"wall"},{"name":"fw","type":"int","value":144},{"name":"fh","type":"int","value":16},{"name":"solid","type":"bool","value":true}]},{"id":87,"name":"","type":"prop","x":296.0,"y":624,"width":0,"height":0,"rotation":0,"visible":true,"point":true,"properties":[{"name":"kind","type":"string","value":"wall"},{"name":"fw","type":"int","value":592},{"name":"fh","type":"int","value":16},{"name":"solid","type":"bool","value":true}]},{"id":88,"name":"","type":"prop","x":696.0,"y":624,"width":0,"height":0,"rotation":0,"visible":true,"point":true,"properties":[{"name":"kind","type":"string","value":"wall"},{"name":"fw","type":"int","value":144},{"name":"fh","type":"int","value":16},{"name":"solid","type":"bool","value":true}]},{"id":89,"name":"","type":"prop","x":296.0,"y":640,"width":0,"height":0,"rotation":0,"visible":true,"point":true,"properties":[{"name":"kind","type":"string","value":"wall"},{"name":"fw","type":"int","value":592},{"name":"fh","type":"int","value":16},{"name":"solid","type":"bool","value":true}]},{"id":90,"name":"","type":"prop","x":696.0,"y":640,"width":0,"height":0,"rotation":0,"visible":true,"point":true,"properties":[{"name":"kind","type":"string","value":"wall"},{"name":"fw","type":"int","value":144},{"name":"fh","type":"int","value":16},{"name":"solid","type":"bool","value":true}]},{"id":91,"name":"","type":"prop","x":296.0,"y":656,"width":0,"height":0,"rotation":0,"visible":true,"point":true,"properties":[{"name":"kind","type":"string","value":"wall"},{"name":"fw","type":"int","value":592},{"name":"fh","type":"int","value":16},{"name":"solid","type":"bool","value":true}]},{"id":92,"name":"","type":"prop","x":696.0,"y":656,"width":0,"height":0,"rotation":0,"visible":true,"point":true,"properties":[{"name":"kind","type":"string","value":"wall"},{"name":"fw","type":"int","value":144},{"name":"fh","type":"int","value":16},{"name":"solid","type":"bool","value":true}]},{"id":93,"name":"","type":"prop","x":104.0,"y":672,"width":0,"height":0,"rotation":0,"visible":true,"point":true,"properties":[{"name":"kind","type":"string","value":"wall"},{"name":"fw","type":"int","value":208},{"name":"fh","type":"int","value":16},{"name":"solid","type":"bool","value":true}]},{"id":94,"name":"","type":"prop","x":696.0,"y":672,"width":0,"height":0,"rotation":0,"visible":true,"point":true,"properties":[{"name":"kind","type":"string","value":"wall"},{"name":"fw","type":"int","value":144},{"name":"fh","type":"int","value":16},{"name":"solid","type":"bool","value":true}]},{"id":95,"name":"","type":"prop","x":104.0,"y":688,"width":0,"height":0,"rotation":0,"visible":true,"point":true,"properties":[{"name":"kind","type":"string","value":"wall"},{"name":"fw","type":"int","value":208},{"name":"fh","type":"int","value":16},{"name":"solid","type":"bool","value":true}]},{"id":96,"name":"","type":"prop","x":696.0,"y":688,"width":0,"height":0,"rotation":0,"visible":true,"point":true,"properties":[{"name":"kind","type":"string","value":"wall"},{"name":"fw","type":"int","value":144},{"name":"fh","type":"int","value":16},{"name":"solid","type":"bool","value":true}]},{"id":97,"name":"","type":"prop","x":104.0,"y":704,"width":0,"height":0,"rotation":0,"visible":true,"point":true,"properties":[{"name":"kind","type":"string","value":"wall"},{"name":"fw","type":"int","value":208},{"name":"fh","type":"int","value":16},{"name":"solid","type":"bool","value":true}]},{"id":98,"name":"","type":"prop","x":504.0,"y":704,"width":0,"height":0,"rotation":0,"visible":true,"point":true,"properties":[{"name":"kind","type":"string","value":"wall"},{"name":"fw","type":"int","value":528},{"name":"fh","type":"int","value":16},{"name":"solid","type":"bool","value":true}]},{"id":99,"name":"","type":"prop","x":104.0,"y":720,"width":0,"height":0,"rotation":0,"visible":true,"point":true,"properties":[{"name":"kind","type":"string","value":"wall"},{"name":"fw","type":"int","value":208},{"name":"fh","type":"int","value":16},{"name":"solid","type":"bool","value":true}]},{"id":100,"name":"","type":"prop","x":504.0,"y":720,"width":0,"height":0,"rotation":0,"visible":true,"point":true,"properties":[{"name":"kind","type":"string","value":"wall"},{"name":"fw","type":"int","value":528},{"name":"fh","type":"int","value":16},{"name":"solid","type":"bool","value":true}]},{"id":101,"name":"","type":"prop","x":104.0,"y":736,"width":0,"height":0,"rotation":0,"visible":true,"point":true,"properties":[{"name":"kind","type":"string","value":"wall"},{"name":"fw","type":"int","value":208},{"name":"fh","type":"int","value":16},{"name":"solid","type":"bool","value":true}]},{"id":102,"name":"","type":"prop","x":504.0,"y":736,"width":0,"height":0,"rotation":0,"visible":true,"point":true,"properties":[{"name":"kind","type":"string","value":"wall"},{"name":"fw","type":"int","value":528},{"name":"fh","type":"int","value":16},{"name":"solid","type":"bool","value":true}]},{"id":103,"name":"","type":"prop","x":104.0,"y":752,"width":0,"height":0,"rotation":0,"visible":true,"point":true,"properties":[{"name":"kind","type":"string","value":"wall"},{"name":"fw","type":"int","value":208},{"name":"fh","type":"int","value":16},{"name":"solid","type":"bool","value":true}]},{"id":104,"name":"","type":"prop","x":504.0,"y":752,"width":0,"height":0,"rotation":0,"visible":true,"point":true,"properties":[{"name":"kind","type":"string","value":"wall"},{"name":"fw","type":"int","value":528},{"name":"fh","type":"int","value":16},{"name":"solid","type":"bool","value":true}]},{"id":105,"name":"","type":"prop","x":104.0,"y":768,"width":0,"height":0,"rotation":0,"visible":true,"point":true,"properties":[{"name":"kind","type":"string","value":"wall"},{"name":"fw","type":"int","value":208},{"name":"fh","type":"int","value":16},{"name":"solid","type":"bool","value":true}]},{"id":106,"name":"","type":"prop","x":504.0,"y":768,"width":0,"height":0,"rotation":0,"visible":true,"point":true,"properties":[{"name":"kind","type":"string","value":"wall"},{"name":"fw","type":"int","value":528},{"name":"fh","type":"int","value":16},{"name":"solid","type":"bool","value":true}]},{"id":107,"name":"","type":"prop","x":104.0,"y":784,"width":0,"height":0,"rotation":0,"visible":true,"point":true,"properties":[{"name":"kind","type":"string","value":"wall"},{"name":"fw","type":"int","value":208},{"name":"fh","type":"int","value":16},{"name":"solid","type":"bool","value":true}]},{"id":108,"name":"","type":"prop","x":504.0,"y":784,"width":0,"height":0,"rotation":0,"visible":true,"point":true,"properties":[{"name":"kind","type":"string","value":"wall"},{"name":"fw","type":"int","value":528},{"name":"fh","type":"int","value":16},{"name":"solid","type":"bool","value":true}]},{"id":109,"name":"","type":"prop","x":104.0,"y":800,"width":0,"height":0,"rotation":0,"visible":true,"point":true,"properties":[{"name":"kind","type":"string","value":"wall"},{"name":"fw","type":"int","value":208},{"name":"fh","type":"int","value":16},{"name":"solid","type":"bool","value":true}]},{"id":110,"name":"","type":"prop","x":504.0,"y":800,"width":0,"height":0,"rotation":0,"visible":true,"point":true,"properties":[{"name":"kind","type":"string","value":"wall"},{"name":"fw","type":"int","value":528},{"name":"fh","type":"int","value":16},{"name":"solid","type":"bool","value":true}]},{"id":111,"name":"","type":"prop","x":104.0,"y":816,"width":0,"height":0,"rotation":0,"visible":true,"point":true,"properties":[{"name":"kind","type":"string","value":"wall"},{"name":"fw","type":"int","value":208},{"name":"fh","type":"int","value":16},{"name":"solid","type":"bool","value":true}]},{"id":112,"name":"","type":"prop","x":504.0,"y":816,"width":0,"height":0,"rotation":0,"visible":true,"point":true,"properties":[{"name":"kind","type":"string","value":"wall"},{"name":"fw","type":"int","value":528},{"name":"fh","type":"int","value":16},{"name":"solid","type":"bool","value":true}]},{"id":113,"name":"","type":"prop","x":104.0,"y":832,"width":0,"height":0,"rotation":0,"visible":true,"point":true,"properties":[{"name":"kind","type":"string","value":"wall"},{"name":"fw","type":"int","value":208},{"name":"fh","type":"int","value":16},{"name":"solid","type":"bool","value":true}]},{"id":114,"name":"","type":"prop","x":504.0,"y":832,"width":0,"height":0,"rotation":0,"visible":true,"point":true,"properties":[{"name":"kind","type":"string","value":"wall"},{"name":"fw","type":"int","value":528},{"name":"fh","type":"int","value":16},{"name":"solid","type":"bool","value":true}]},{"id":115,"name":"","type":"prop","x":384.0,"y":976,"width":0,"height":0,"rotation":0,"visible":true,"point":true,"properties":[{"name":"kind","type":"string","value":"wall"},{"name":"fw","type":"int","value":768},{"name":"fh","type":"int","value":16},{"name":"solid","type":"bool","value":true}]},{"id":116,"name":"","type":"prop","x":384.0,"y":992,"width":0,"height":0,"rotation":0,"visible":true,"point":true,"properties":[{"name":"kind","type":"string","value":"wall"},{"name":"fw","type":"int","value":768},{"name":"fh","type":"int","value":16},{"name":"solid","type":"bool","value":true}]},{"id":117,"name":"","type":"prop","x":384.0,"y":1008,"width":0,"height":0,"rotation":0,"visible":true,"point":true,"properties":[{"name":"kind","type":"string","value":"wall"},{"name":"fw","type":"int","value":768},{"name":"fh","type":"int","value":16},{"name":"solid","type":"bool","value":true}]},{"id":118,"name":"","type":"prop","x":384.0,"y":1024,"width":0,"height":0,"rotation":0,"visible":true,"point":true,"properties":[{"name":"kind","type":"string","value":"wall"},{"name":"fw","type":"int","value":768},{"name":"fh","type":"int","value":16},{"name":"solid","type":"bool","value":true}]},{"id":119,"name":"summit","type":"spot","x":280.0,"y":155.2,"width":0,"height":0,"rotation":0,"visible":true,"point":true,"properties":[{"name":"node","type":"string","value":""},{"name":"label","type":"string","value":"The summit"},{"name":"label_zh","type":"string","value":""}]},{"id":120,"name":"m7","type":"spot","x":472.0,"y":923.2,"width":0,"height":0,"rotation":0,"visible":true,"point":true,"properties":[{"name":"node","type":"string","value":"21-m7"},{"name":"label","type":"string","value":"Oh's car"},{"name":"label_zh","type":"string","value":""}]},{"id":121,"name":"npc-1","type":"npc","x":344.0,"y":94.4,"width":0,"height":0,"rotation":0,"visible":true,"point":true,"properties":[{"name":"kind","type":"string","value":"folk.grandpa"},{"name":"sprite","type":"string","value":"ms_oldman"},{"name":"wander","type":"bool","value":false},{"name":"drawn","type":"bool","value":true},{"name":"say","type":"string","value":"[[\"n\", \"An old man in full hiking kit, poles and all, steps aside. “Running down? On a weekday? Young people.”\", \"\", \"ec3a6d76297d\"]]"}]},{"id":122,"name":"npc-2","type":"npc","x":728.0,"y":478.4,"width":0,"height":0,"rotation":0,"visible":true,"point":true,"properties":[{"name":"kind","type":"string","value":"folk.ajumma"},{"name":"sprite","type":"string","value":"ms_ajumma"},{"name":"wander","type":"bool","value":false},{"name":"drawn","type":"bool","value":true},{"name":"say","type":"string","value":"[[\"n\", \"A woman with a thermos and a visor. “Careful going down. The steps are wet.”\", \"\", \"26030ebc4f8b\"]]"}]},{"id":123,"name":"npc-3","type":"npc","x":664.0,"y":926.4,"width":0,"height":0,"rotation":0,"visible":true,"point":true,"properties":[{"name":"kind","type":"string","value":"folk.salaryman"},{"name":"sprite","type":"string","value":"ms_commuter"},{"name":"wander","type":"bool","value":false},{"name":"drawn","type":"bool","value":true},{"name":"say","type":"string","value":"[[\"n\", \"A man in a suit jacket and trainers, phone to his ear, by his car. “…No, I'm at my desk. Yes. My desk.”\", \"\", \"dbadb79c3c27\"]]"}]},{"id":124,"name":"entry","type":"entry","x":344.0,"y":94.4,"width":0,"height":0,"rotation":0,"visible":true,"point":true}]}]}