{"type":"map","version":"1.10","tiledversion":"1.10.2","orientation":"orthogonal","renderorder":"right-down","width":64,"height":48,"tilewidth":16,"tileheight":16,"infinite":false,"nextlayerid":4,"nextobjectid":65,"properties":[{"name":"kit","type":"string","value":"seoul"},{"name":"source","type":"string","value":"susaek-dong.map.json"},{"name":"states","type":"string","value":"[{\"id\": \"day\", \"light\": \"day\"}]"},{"name":"ways","type":"string","value":"{\"nodes\":[[2.0,38.0],[18.0,38.0],[42.0,38.0],[62.0,38.0],[18.0,10.0],[42.0,10.0]],\"edges\":[[0,1],[1,2],[1,4],[2,3],[2,5],[4,5]]}"},{"name":"paths","type":"string","value":"0000000000000000000000000000000000000000000000000000000000000000|0000000000000000000000000000000000000000000000000000000000000000|0000000000000000000000000000000000000000000000000000000000000000|0000000000000000000000000000000000000000000000000000000000000000|0000000000000000000000000000000000000000000000000000000000000000|0000000000000000000000000000000000000000000000000000000000000000|0000000000000000000000000000000000000000000000000000000000000000|0000000000000000000000000000000000000000000000000000000000000000|0000000000000000000000000000000000000000000000000000000000000000|0000000000000000011111111111111111111111111000000000000000000000|0000000000000000011111111111111111111111111000000000000000000000|0000000000000000011000000000000000000000011000000000000000000000|0000000000000000011000000000000000000000011000000000000000000000|0000000000000000011000000000000000000000011000000000000000000000|0000000000000000011000000000000000000000011000000000000000000000|0000000000000000011000000000000000000000011000000000000000000000|0000000000000000011000000000000000000000011000000000000000000000|0000000000000000011000000000000000000000011000000000000000000000|0000000000000000011000000000000000000000011000000000000000000000|0000000000000000011000000000000000000000011000000000000000000000|0000000000000000011000000000000000000000011000000000000000000000|0000000000000000011000000000000000000000011000000000000000000000|0000000000000000011000000000000000000000011000000000000000000000|0000000000000000011000000000000000000000011000000000000000000000|0000000000000000011000000000000000000000011000000000000000000000|0000000000000000011000000000000000000000011000000000000000000000|0000000000000000011000000000000000000000011000000000000000000000|0000000000000000011000000000000000000000011000000000000000000000|0000000000000000011000000000000000000000011000000000000000000000|0000000000000000011000000000000000000000011000000000000000000000|0000000000000000011000000000000000000000011000000000000000000000|0000000000000000011000000000000000000000011000000000000000000000|0000000000000000011000000000000000000000011000000000000000000000|0000000000000000011000000000000000000000011000000000000000000000|0000000000000000011000000000000000000000011000000000000000000000|0000000000000000011000000000000000000000011000000000000000000000|1111111111111111111111111111111111111111111111111111111111111111|1111111111111111111111111111111111111111111111111111111111111111|1111111111111111111111111111111111111111111111111111111111111111|1111111111111111111111111111111111111111111111111111111111111111|0000000000000000000000000000000000000000000000000000000000000000|0000000000000000000000000000000000000000000000000000000000000000|0000000000000000000000000000000000000000000000000000000000000000|0000000000000000000000000000000000000000000000000000000000000000|0000000000000000000000000000000000000000000000000000000000000000|0000000000000000000000000000000000000000000000000000000000000000|0000000000000000000000000000000000000000000000000000000000000000|0000000000000000000000000000000000000000000000000000000000000000"}],"tilesets":[{"firstgid":1,"name":"drawn_b2_tiles","tilewidth":16,"tileheight":16,"columns":2,"tilecount":22,"margin":0,"spacing":0,"image":"../../../../assets/tk/drawn_b2_tiles.png","imagewidth":32,"imageheight":176},{"firstgid":23,"name":"seoul_tiles","tilewidth":16,"tileheight":16,"columns":4,"tilecount":68,"margin":0,"spacing":0,"image":"../../../../assets/tk/seoul/tiles.png","imagewidth":64,"imageheight":272},{"firstgid":91,"name":"tiles","tilewidth":16,"tileheight":16,"columns":5,"tilecount":5,"margin":0,"spacing":0,"image":"../../../../assets/tk/jade/tiles.png","imagewidth":80,"imageheight":16},{"firstgid":96,"name":"nature","tilewidth":16,"tileheight":16,"columns":16,"tilecount":256,"margin":0,"spacing":0,"image":"../../../../assets/tk/jade/nature.png","imagewidth":256,"imageheight":256}],"layers":[{"id":1,"name":"ground","type":"tilelayer","width":64,"height":48,"x":0,"y":0,"opacity":1,"visible":true,"data":[13,13,14,13,14,14,13,13,14,13,14,14,13,14,14,13,14,13,14,14,14,14,13,13,14,14,14,14,13,14,13,14,13,13,13,14,14,14,14,14,14,14,13,13,14,14,14,13,14,14,13,14,14,13,13,14,14,14,14,14,14,14,14,14,13,13,14,13,14,14,13,13,13,14,14,14,14,14,13,14,14,14,14,13,14,14,13,13,13,14,13,13,13,13,13,14,13,13,13,14,14,13,14,13,13,13,13,13,14,14,13,14,13,13,13,13,13,14,13,13,14,14,14,14,14,14,14,14,14,14,14,14,13,14,14,13,14,14,13,13,14,13,13,13,14,14,13,13,14,13,13,14,13,14,14,14,13,14,13,13,13,13,13,13,13,13,14,13,13,14,13,13,13,14,14,13,13,14,14,14,14,14,14,14,14,14,14,13,14,14,14,14,14,13,14,14,13,13,14,13,13,13,13,13,14,13,14,13,14,13,14,14,14,14,13,13,13,14,13,13,13,13,13,13,13,13,14,14,13,13,14,14,13,13,14,13,13,14,13,13,14,14,14,13,13,14,13,13,14,14,14,14,13,13,13,14,13,14,14,13,14,13,13,13,14,13,13,14,13,13,14,14,14,13,13,14,13,13,13,14,14,14,14,14,13,14,14,13,13,14,14,14,13,14,13,13,13,14,14,14,13,14,14,13,14,13,14,13,14,14,13,13,13,13,13,13,14,13,13,14,14,13,14,14,14,13,14,13,13,13,13,14,13,13,13,13,14,14,13,14,14,14,13,14,14,13,13,14,13,13,13,14,14,13,13,13,13,13,14,13,14,14,13,14,14,13,14,13,14,13,13,14,13,13,14,13,13,14,13,14,14,13,14,13,13,14,14,14,14,13,13,13,14,13,13,13,13,13,13,13,13,13,13,14,13,13,13,13,14,13,14,13,13,13,13,13,13,14,13,13,13,14,14,13,14,13,13,14,13,14,14,14,14,14,14,14,13,14,13,13,13,14,14,14,13,13,14,13,13,13,13,13,14,13,14,14,13,14,14,14,14,13,14,13,14,13,14,14,13,13,13,14,13,14,13,14,14,14,14,13,13,13,13,13,13,13,14,13,13,13,13,14,13,14,13,13,14,13,14,14,14,13,14,14,13,14,14,13,13,13,14,14,23,25,25,24,25,25,25,23,25,24,23,23,24,25,25,23,23,23,24,26,25,23,25,25,25,24,23,26,24,23,25,24,24,24,25,25,24,24,23,23,24,24,24,23,24,24,23,25,23,23,24,24,23,23,23,25,23,25,25,26,23,23,25,25,23,23,25,25,24,24,24,24,23,23,25,23,25,26,25,23,25,28,27,27,27,28,28,28,28,27,27,27,27,28,28,28,28,28,28,28,27,28,28,27,28,27,28,23,25,24,25,24,23,23,23,24,25,25,24,24,23,24,24,24,24,25,25,25,25,25,24,25,24,24,25,26,24,24,23,24,25,24,24,25,26,27,28,28,27,28,28,27,28,28,28,27,28,28,27,28,28,28,27,28,28,27,27,27,27,27,28,23,25,24,25,25,25,25,23,25,24,23,24,24,24,24,24,25,23,23,25,23,24,23,24,24,25,25,25,26,24,23,23,24,24,23,23,23,25,28,27,25,25,24,23,25,25,23,25,26,24,23,23,24,25,25,24,23,23,23,24,25,26,28,27,24,26,25,23,24,25,25,25,23,24,24,24,23,23,25,25,24,25,24,23,24,23,25,23,25,23,25,23,25,23,25,24,24,25,24,24,24,23,28,28,24,23,23,24,26,25,23,24,26,23,24,24,24,23,24,24,25,24,23,23,23,24,28,28,25,24,23,24,24,24,25,24,25,91,91,91,91,91,91,91,91,91,91,91,91,25,25,25,25,23,25,23,25,24,24,24,23,26,23,23,25,24,27,27,24,24,26,24,25,23,25,24,23,24,25,25,25,23,24,23,24,24,26,25,24,25,27,27,24,24,23,23,23,24,26,23,24,91,91,91,91,91,91,91,91,91,91,91,91,25,24,23,24,25,23,23,24,24,25,24,25,24,25,25,24,25,27,27,25,23,24,23,24,24,24,23,24,23,23,25,23,25,25,24,24,24,25,24,23,23,27,28,23,25,24,23,24,23,23,25,23,91,91,91,91,91,91,91,91,91,91,91,91,24,25,25,23,25,25,24,23,23,23,24,23,23,24,24,23,24,27,27,25,23,24,25,23,24,24,24,26,23,25,23,25,23,25,24,25,24,23,25,23,24,28,27,24,24,23,23,23,24,24,25,25,91,91,91,91,91,91,91,91,91,91,91,91,25,23,23,24,24,24,24,25,24,25,23,24,24,25,24,24,25,27,27,23,25,25,23,25,24,24,23,24,25,25,24,23,23,26,23,25,25,23,25,26,25,27,28,25,25,24,23,24,23,24,23,24,91,91,91,91,91,91,91,91,91,91,91,91,25,24,25,24,23,25,24,25,23,24,24,25,24,24,24,25,25,27,28,26,25,24,24,23,24,23,23,24,24,23,25,23,23,24,25,26,23,23,25,25,25,27,27,25,23,24,24,23,25,23,25,23,91,91,91,91,91,91,91,91,91,91,91,91,24,23,24,25,25,23,23,23,23,23,24,25,25,23,25,24,23,27,28,24,24,23,24,25,23,24,23,26,24,25,23,23,24,24,23,23,25,23,24,24,25,28,28,25,24,24,24,23,23,24,23,25,91,91,91,91,91,91,91,91,91,91,91,91,23,24,25,25,25,23,23,24,26,23,25,25,23,25,23,24,24,28,27,23,24,23,25,24,25,24,24,25,24,25,25,23,24,25,23,24,23,23,24,24,23,27,27,23,24,25,23,25,25,24,24,23,91,91,91,91,91,91,91,91,91,91,91,91,25,23,24,23,25,23,25,25,25,23,25,24,23,24,23,25,24,27,28,25,23,24,25,23,24,23,23,24,24,23,23,24,25,23,23,23,23,24,24,24,25,27,27,23,23,24,24,24,23,25,24,24,91,91,91,91,91,91,91,91,91,91,91,91,25,25,25,23,23,24,24,23,24,23,23,25,24,26,23,25,26,28,27,23,23,23,24,25,24,24,24,25,25,25,24,25,24,23,24,24,24,24,25,23,23,27,27,24,24,25,25,23,24,25,23,24,91,91,91,91,91,91,91,91,91,91,91,91,24,23,25,24,24,24,23,25,23,23,26,25,24,23,25,24,23,27,27,24,24,24,24,24,25,25,24,24,23,25,24,24,23,24,24,23,25,24,24,23,25,27,28,23,24,26,23,25,23,23,23,25,91,91,91,91,91,91,91,91,91,91,91,91,25,24,26,25,24,24,25,25,24,25,26,23,23,25,23,25,23,28,28,24,23,25,23,24,25,25,23,25,23,25,23,25,25,25,25,25,23,25,24,24,25,28,28,25,24,24,25,25,23,26,24,24,91,91,91,91,91,91,91,91,91,91,91,91,23,25,23,24,25,24,25,23,23,23,24,23,25,25,24,23,25,28,28,24,23,25,23,23,25,25,24,23,23,23,26,25,24,23,24,23,24,24,25,24,23,28,28,24,25,24,23,23,25,26,25,23,91,91,91,91,91,91,91,91,91,91,91,91,24,23,25,23,24,23,23,25,25,25,24,24,25,24,23,24,23,28,28,25,23,25,25,25,25,25,25,25,25,23,23,25,23,25,23,25,25,26,25,24,23,27,27,23,23,24,23,23,24,23,23,26,91,91,91,91,91,91,91,91,91,91,91,91,24,25,26,23,23,24,24,25,25,24,25,25,25,23,24,23,25,28,28,25,25,25,25,24,23,23,23,25,23,25,24,25,23,24,23,25,24,23,24,25,23,27,27,25,25,23,24,25,24,24,25,25,91,91,91,91,91,91,91,91,91,91,91,91,23,25,23,23,25,23,25,25,23,23,24,25,25,24,24,23,23,27,27,25,24,25,24,25,23,25,24,25,24,24,25,24,24,23,23,25,24,23,23,24,25,27,28,24,24,24,24,23,25,23,25,24,91,91,91,91,91,91,91,91,91,91,91,91,24,25,23,24,23,23,23,24,23,23,24,23,25,24,25,25,24,27,28,25,25,24,25,24,25,23,23,23,25,25,25,24,25,26,25,23,23,23,25,24,23,28,27,23,24,25,23,23,25,25,25,26,91,91,91,91,91,91,91,91,91,91,91,91,26,24,23,23,24,24,24,24,24,25,26,23,25,25,24,23,24,28,27,24,25,25,23,24,23,23,24,24,23,25,24,25,24,24,23,23,25,25,25,25,25,27,28,23,23,23,23,24,23,24,25,25,91,91,91,91,91,91,91,91,91,91,91,91,24,24,23,24,25,23,25,23,24,25,23,25,25,24,25,23,24,28,28,24,24,24,25,24,23,23,23,25,25,23,25,25,24,24,25,23,25,23,25,23,24,27,28,23,25,25,25,25,25,24,25,25,91,91,91,91,91,91,91,91,91,91,91,91,25,25,25,23,23,24,25,24,24,23,23,25,23,24,25,23,24,27,28,25,24,25,25,24,23,23,24,25,24,24,25,25,24,23,24,24,24,24,23,25,26,28,27,24,25,24,25,25,24,24,23,23,91,91,91,91,91,91,91,91,91,91,91,91,24,24,24,24,23,25,23,23,23,25,23,24,25,25,25,24,23,28,28,24,24,25,23,23,25,25,24,24,24,25,25,25,23,23,23,24,25,24,25,25,23,28,28,23,25,24,24,23,25,24,25,25,24,25,23,23,25,25,23,23,25,25,24,23,25,25,25,23,24,24,25,23,25,24,24,23,25,25,24,24,23,28,27,23,23,23,25,25,23,26,23,23,24,23,23,24,23,23,23,23,24,23,23,25,24,28,28,24,24,24,25,23,25,25,23,24,25,23,24,23,24,25,24,24,24,25,23,25,25,23,24,24,24,23,23,25,24,25,24,25,24,24,25,24,25,28,27,23,23,25,24,23,23,24,25,25,23,23,25,23,24,23,24,25,25,25,25,23,24,27,28,25,23,23,24,23,24,24,23,25,25,25,25,24,25,24,23,23,23,23,25,24,24,25,25,23,26,25,25,25,23,25,23,23,25,23,23,25,24,28,27,23,23,24,25,24,24,26,23,24,23,24,24,25,25,26,23,23,25,26,24,23,23,28,27,25,23,24,23,25,25,23,23,24,24,24,24,25,23,25,25,23,24,25,24,25,27,27,28,27,28,27,27,28,27,27,27,28,27,27,27,28,27,27,28,27,28,28,27,27,28,27,28,28,28,28,28,27,28,27,28,28,27,27,28,28,27,28,28,27,28,28,27,28,28,28,28,28,28,27,28,27,27,27,27,27,28,28,27,28,28,28,28,28,28,28,28,28,28,27,28,27,28,27,27,27,27,27,28,28,28,27,28,27,28,28,27,27,27,28,27,28,28,27,28,27,27,28,28,28,27,28,27,27,27,27,27,28,28,27,27,27,27,28,27,28,28,27,28,27,28,28,27,27,28,27,28,27,27,27,28,27,27,28,27,27,28,28,28,28,28,28,28,27,27,28,27,27,28,28,28,27,28,28,28,28,27,28,28,27,28,27,28,27,28,27,27,28,28,27,27,27,28,27,28,28,27,28,28,27,27,28,27,28,27,28,27,28,28,28,27,28,27,28,27,28,28,28,27,27,28,27,27,27,27,28,28,28,27,28,28,27,28,27,27,27,27,27,27,28,27,28,28,27,27,28,28,27,28,28,27,28,27,28,28,27,27,27,28,27,27,28,28,28,27,28,28,27,28,27,28,28,23,25,25,24,25,25,24,24,23,25,24,25,24,25,24,24,24,23,25,25,23,24,23,24,25,24,25,25,25,25,25,24,24,24,24,25,25,24,23,25,23,25,25,23,23,25,23,25,24,26,25,24,24,24,26,25,25,25,23,23,25,24,24,24,23,24,23,23,23,23,24,24,24,24,25,23,23,24,23,23,23,24,24,25,25,23,23,25,25,25,24,25,25,25,24,25,24,25,24,24,23,25,23,25,25,23,23,24,24,25,23,25,23,23,25,25,25,23,23,25,23,25,24,26,23,25,25,23,25,25,25,24,23,23,24,23,24,25,24,25,23,24,23,23,24,25,23,25,25,23,25,23,24,23,25,25,24,26,24,24,25,23,24,25,24,23,23,25,25,25,23,24,24,25,23,24,24,24,25,23,24,24,24,25,23,26,23,23,25,24,23,24,24,25,24,24,23,23,23,25,25,24,23,24,23,23,25,25,24,25,23,23,23,24,24,24,24,25,24,24,24,24,24,24,24,23,23,25,24,23,24,25,25,24,23,23,23,23,25,24,23,23,23,24,23,25,23,23,24,26,25,24,23,23,25,24,23,23,25,25,25,24,25,23,23,24,24,25,25,25,24,25,23,24,24,23,24,25,23,23,24,23,24,25,24,23,24,24,24,24,25,25,25,23,24,23,24,23,23,23,26,23,24,24,23,24,25,25,25,24,24,24,25,24,23,24,24,23,25,23,25,25,25,24,23,23,24,24,25,25,24,24,25,23,24,25,23,25,24,23,23,26,25,25,23,24,25,25,23,23,25,25,24,25,23,24,24,25,25,25,25,25,24,24,25,23,23,24,25,23,23,24,23,23,23,23,26,24,25,26,25,25,24,24,24,24,25,25,23,25,23,25,24,23,23,23,25,25,24,24,24,23,23,25,24,25,23,24,23,25,24,25,25,24,25,25,23,25,23,24,24,25,24,24,26,23,23,24,24,24,25,25,25,23,24,25,26,23,25,24,23,23,23,25,24,23,24,23,25,25,23,24,24,24,25,25,23,23,24,23,23,23,23,24,24,23,25,24,25,25,24,23,25,24,24,23,23,25,24,25,25,23,24,24,23,25,24,24,23,25,23,23,25,25,24,25,24,26,25,25,24,25,25,23,23,24,25,25,23,25,24,25]},{"id":2,"name":"detail","type":"tilelayer","width":64,"height":48,"x":0,"y":0,"opacity":1,"visible":true,"data":[0,0,0,0,0,0,0,0,0,0,0,0,0,0,0,0,0,0,0,0,0,0,0,0,0,0,0,0,0,0,0,0,0,0,0,0,0,0,0,0,0,0,0,0,0,0,0,0,0,0,0,0,0,0,0,0,0,0,0,0,0,0,0,0,0,0,0,0,0,0,0,0,0,0,0,0,0,0,0,0,0,0,0,0,0,0,0,0,0,0,0,0,0,0,0,0,0,0,0,0,0,0,0,0,0,0,0,0,0,0,0,0,0,0,0,0,0,0,0,0,0,0,0,0,0,0,0,0,0,0,0,0,0,0,0,0,0,0,0,0,0,0,0,0,0,0,0,0,0,0,0,0,0,0,0,0,0,0,0,0,0,0,0,0,0,0,0,0,0,0,0,0,0,0,0,0,0,0,0,0,0,0,0,0,0,0,0,0,0,0,0,0,0,0,0,0,0,0,0,0,0,0,0,0,0,0,0,0,0,0,0,0,0,0,0,0,0,0,0,0,0,0,0,0,0,0,0,0,0,0,0,0,0,0,0,0,0,0,0,0,0,0,0,0,0,0,0,0,0,0,0,0,0,0,0,0,0,0,0,0,0,0,0,0,0,0,0,0,0,0,0,0,0,0,0,0,0,0,0,0,0,0,0,0,0,0,0,0,0,0,0,0,0,0,0,0,0,0,0,0,0,0,0,0,0,0,0,0,0,0,0,0,0,0,0,0,0,0,0,0,0,0,0,0,0,0,0,0,0,0,0,0,0,0,0,0,0,0,0,0,0,0,0,0,0,0,0,0,0,0,0,0,0,0,0,0,0,0,0,0,0,0,0,0,0,0,0,0,0,0,0,0,0,0,0,0,0,0,0,0,0,0,0,0,0,0,0,0,0,0,0,0,0,0,0,0,0,0,0,0,0,0,0,0,0,0,0,0,0,0,0,0,0,0,0,0,0,0,0,0,0,0,0,0,0,0,0,0,0,0,0,0,0,0,0,0,0,0,0,0,0,0,0,0,0,0,0,0,0,0,0,0,0,0,0,0,0,0,0,0,0,0,0,0,0,0,0,0,0,0,0,0,0,0,0,0,0,0,0,0,0,0,0,0,0,0,0,0,0,0,0,0,0,0,0,0,0,0,0,0,0,0,0,0,0,0,0,0,0,0,0,0,0,0,0,0,0,0,0,0,0,0,0,0,0,0,0,0,0,0,0,0,0,0,0,0,0,0,0,0,0,0,0,0,0,0,0,0,0,0,0,0,0,0,0,0,0,0,0,0,0,0,0,0,0,0,0,0,0,0,0,0,0,0,0,0,0,0,0,0,0,0,0,0,0,0,0,0,0,0,0,0,0,0,0,0,0,0,0,0,0,0,0,0,0,0,0,0,0,0,0,0,0,0,0,0,0,0,0,0,0,0,0,0,0,0,0,0,0,0,0,0,0,0,0,0,0,0,0,0,0,0,0,0,0,0,0,0,0,0,0,0,0,0,0,0,0,0,0,0,0,0,0,0,0,0,0,0,0,0,0,0,0,0,0,0,0,0,0,0,0,0,0,0,0,0,0,0,0,0,0,0,0,0,0,0,0,0,0,0,0,0,0,0,0,0,0,0,0,0,0,0,0,0,0,0,0,0,0,0,0,0,0,0,0,0,0,0,0,0,0,0,0,0,0,0,0,0,0,0,0,0,0,0,0,0,0,0,0,0,0,0,0,0,0,0,0,0,0,0,0,0,0,0,0,0,0,0,0,0,0,0,0,0,0,0,0,0,0,0,0,0,0,0,0,0,0,0,0,0,0,0,0,0,0,0,0,0,0,0,0,0,0,0,0,0,0,0,0,0,0,0,0,0,0,0,0,0,0,0,0,0,0,294,0,311,0,0,0,0,0,0,0,0,0,0,0,0,0,0,0,0,0,0,0,0,0,0,0,0,0,0,0,0,0,0,0,0,0,0,0,0,0,0,0,0,0,0,0,0,0,0,0,0,0,0,0,0,0,0,0,0,0,0,310,0,0,0,0,0,0,294,295,0,0,0,0,0,0,0,0,0,0,0,0,0,0,0,0,0,0,0,0,0,0,0,0,0,0,0,0,0,0,0,0,0,0,0,0,0,0,0,0,0,0,0,0,0,0,0,0,0,0,0,0,0,0,0,0,0,0,0,0,0,0,0,0,0,0,0,0,0,0,0,0,0,0,0,0,0,0,0,0,0,0,0,0,0,0,0,0,0,0,0,0,0,0,0,0,0,0,0,0,0,0,0,0,0,0,0,0,0,0,0,0,0,0,0,0,0,0,0,0,0,0,295,0,0,0,0,0,0,0,0,0,0,0,0,0,0,0,0,0,0,0,0,0,0,0,0,0,0,0,0,0,0,0,0,0,0,0,0,0,0,0,0,0,0,0,0,0,0,0,0,0,0,0,0,0,0,0,0,0,0,0,0,0,0,0,0,295,0,0,0,311,0,0,0,0,0,0,0,0,0,0,0,0,0,0,0,0,0,0,0,0,0,0,0,0,0,0,0,0,0,0,0,0,0,0,0,0,0,0,0,0,0,0,0,0,0,0,0,0,0,0,0,0,0,0,0,0,0,0,0,0,311,0,0,295,259,0,0,0,0,0,0,0,0,0,0,0,0,0,0,0,0,0,0,0,0,0,0,0,0,0,0,0,0,0,0,0,0,0,0,0,0,0,0,0,0,0,0,0,0,0,0,0,0,0,0,0,0,0,0,0,0,0,0,0,0,0,0,0,0,0,0,0,0,0,0,0,0,0,0,0,0,0,0,0,0,0,0,0,0,0,0,0,0,0,0,0,0,0,0,0,0,0,0,0,0,0,0,0,0,0,0,0,0,0,0,0,0,0,0,0,0,0,0,0,0,0,0,0,0,295,0,0,0,0,0,0,0,0,0,0,0,0,0,0,0,0,0,0,0,0,0,0,0,0,0,0,0,0,0,0,0,0,0,0,0,0,0,0,0,0,0,0,0,0,0,0,0,0,0,0,0,0,0,0,0,0,0,0,0,0,294,0,0,0,0,0,0,0,0,0,0,0,0,0,0,0,0,0,0,0,0,0,0,0,0,0,0,0,0,0,0,0,0,0,0,0,0,0,0,0,0,0,0,0,0,0,0,0,0,0,0,0,0,0,0,0,0,0,0,0,0,0,0,0,0,310,0,0,0,0,0,0,294,0,0,0,0,0,0,0,0,0,0,0,0,0,0,0,0,0,0,0,0,0,0,0,0,0,0,0,0,0,0,0,0,0,0,0,0,0,0,0,0,0,0,0,0,0,0,0,0,0,0,0,0,295,0,0,0,0,0,0,0,294,0,295,0,0,0,0,0,0,0,0,0,0,0,0,0,0,0,0,0,0,0,0,0,0,0,0,0,0,0,0,0,0,0,0,0,0,0,0,0,0,0,0,0,0,0,0,0,0,0,0,0,0,0,0,0,0,0,311,0,0,0,0,0,0,0,0,310,0,0,0,0,0,0,0,0,0,0,0,0,0,0,0,0,0,0,0,0,0,0,0,0,0,0,0,0,0,0,0,0,0,0,0,0,0,0,0,0,0,0,0,0,0,0,0,0,0,0,0,0,0,0,0,295,0,0,311,0,0,0,0,0,0,0,0,0,0,0,0,0,0,0,0,0,0,0,0,0,0,0,0,0,0,0,0,0,0,0,0,0,0,0,0,0,0,0,0,0,0,0,0,0,0,0,0,0,0,0,0,0,0,0,0,0,0,0,0,0,0,0,295,0,0,0,0,0,0,0,0,0,0,0,0,0,0,0,0,0,0,0,0,0,0,0,0,0,0,0,0,0,0,0,0,0,0,0,0,0,0,0,0,0,0,0,0,0,0,0,0,0,0,0,0,0,0,0,0,0,0,0,310,0,0,0,0,0,0,0,0,0,0,0,0,0,0,0,0,0,0,0,0,0,0,0,0,0,0,0,0,0,0,0,0,0,0,0,0,0,0,0,0,0,0,0,0,0,0,0,0,0,0,0,0,0,0,0,0,0,0,0,0,0,259,0,0,0,0,0,0,258,310,0,0,258,0,0,0,0,0,0,0,0,0,0,0,0,0,0,0,0,0,0,0,0,0,0,0,0,0,0,0,0,0,0,0,0,0,0,0,0,0,0,0,0,0,0,0,0,0,0,0,0,0,0,0,0,0,0,0,0,0,0,0,0,0,0,0,0,0,0,0,0,0,0,0,0,0,0,0,0,0,0,0,0,0,0,0,0,0,0,0,0,0,0,0,0,0,0,0,0,0,0,0,0,0,0,0,0,0,0,0,0,0,0,0,0,0,0,0,0,0,0,294,0,0,0,0,0,0,311,0,0,0,0,0,0,0,0,0,0,0,0,0,0,0,0,0,0,0,0,0,0,0,0,0,0,0,0,0,0,0,0,0,0,0,0,0,0,0,0,0,0,0,0,0,0,0,0,0,0,0,0,0,0,0,0,0,0,0,0,0,0,0,0,0,0,0,0,0,0,0,0,0,0,0,0,0,0,0,0,0,0,0,0,0,0,0,0,0,0,0,0,0,0,0,0,0,0,0,0,0,0,0,0,0,0,0,0,0,0,0,0,0,0,0,0,0,0,0,0,310,0,0,0,294,0,0,0,0,294,0,0,0,0,0,0,0,0,0,0,0,0,0,0,0,0,0,0,0,0,0,0,0,0,0,0,0,0,0,0,0,0,0,0,0,0,0,0,0,0,0,0,0,0,0,0,0,0,0,0,0,0,0,0,0,0,0,0,0,0,0,0,0,0,0,0,0,0,0,0,0,0,0,0,0,0,0,0,0,0,0,0,0,0,0,0,0,0,0,0,0,0,0,0,0,0,0,0,0,0,0,0,0,0,0,0,0,0,0,0,0,0,0,0,0,0,0,0,0,0,0,0,0,0,0,0,0,0,0,0,0,0,0,0,0,0,0,0,0,0,0,0,0,0,0,0,0,0,0,0,0,0,0,0,0,0,0,0,0,0,0,0,0,0,0,0,0,0,0,0,0,0,0,0,0,0,0,0,0,0,0,0,0,0,0,0,0,0,0,0,0,0,0,0,0,0,0,0,0,0,0,0,0,0,0,0,0,0,0,0,0,0,0,0,0,0,0,0,0,0,0,0,0,0,0,0,0,0,0,0,0,0,0,0,0,0,0,0,0,0,0,0,0,0,0,0,0,0,0,0,0,0,0,0,0,0,0,0,0,0,0,0,0,0,0,0,0,0,0,0,0,0,0,0,0,0,0,0,0,0,0,0,0,0,0,0,0,0,0,0,0,0,0,0,0,0,0,0,0,0,0,0,0,0,0,0,0,0,0,0,0,0,0,0,0,0,0,0,0,0,0,0,0,0,0,0,0,0,0,0,0,0,0,0,0,0,0,0,0,0,0,0,0,0,0,0,0,0,0,0,0,0,0,0,0,0,0,0,0,0,0,0,0,0,0,0,0,0,0,0,0,0,0,0,0,0,0,0,0,0,0,0,0,0,0,0,0,0,0,0,0,0,0,0,0,0,0,0,0,0,0,0,0,0,0,0,0,0,0,0,0,0,0,0,0,0,0,0,0,0,0,0,0,0,0,0,0,0,0,0,0,0,0,0,0,0,0,0,0,0,0,0,0,0,0,0,0,0,0,0,0,0,0,0,0,0,0,0,0,0,0,0,0,0,0,0,0,0,0,0,0,0,0,0,0,0,0,0,0,0,0,0,0,0,0,0,0,0,0,0,0,0,0,0,0,0,0,0,0,0,0,0,0,0,0,0,0,0,0,0,0,0,0,0,0,0,0,0,0,0,0,0,0,0,0,0,0,0,0,0,0,0,0,0,0,0,0,0,0,0,0,0,0,0,0,0,0,0,0,0,0,0,0,0,0,0,0,0,0,0,0,0,0,0,0,0,0,0,0,0,0,0,0,0,0,0,0,0,0,0,0,0,0,0,0,0,0,0,0,0,0,0,0,0,0,0,0,0,0,0,0,0,0,0,0,0,0,0,0,0,0,0,0,0,0,0,0,0,0,0,0,0,0,0,0,0,0,0,0,0,0,0,0,0,0,0,0,0,0,0,0,0,0,0,0,0,0,0,0,0,0,0,0,0,0,0,0,0,0,0,0,0,0,0,0,0,0,0,0,0,0,0,0,0,0,0,0,0,0,0,0,0,0,0,0,0,0,0,0,0,0,0,0,0,0,0,0,0,0,0,0,0,0,0,0,0,0,0,0,0,0,0,0,0,0,0,0,0,0,0,0,0,0,0,0,0,0,0,0,0,0,0,0,0,0,0,0,0,0,0,0,0,0,0,0,0,0,0,0,0,0,0,0,0,0,0,0,0,0,0,0,0,0,0,0,0,0,0,0,0,0,0,0,0,0,0,0,0,0,0,0,0,0,0,0,0,0,0,0,0,0,0,0,0,0,0,0,0,0,0,0,0,0,0,0,0,0,0,0,0,0,0,0,0,0,0,0,0,0,0,0,0,0,0,0,0,0,0,0,0,0,0,0,0,0,0,0,0,0,0,0,0,0,0,0,0,0,0,0,0,0,0,0,0,0,0,0,0,0,0,0,0,0,0,0,0,0,0,0,0,0,0,0,0,0,0,0,0,0,0,0,0,0,0,0,0,0,0,0,0,0,0,0,0,0,0,0,0,0,0,0,0,0,0,0,0,0,0,0,0,0,0,0,0,0,0,0,0,0,0,0,0,0,0,0,0,0,0,0,0,0,0,0,0,0,0,0,0,0,0,0,0,0,0,0,0,0,0,0,0,0,0,0,0,0,0,0,0,0,0,0,0,0,0,0,0,0,0,0,0,0,0,0,0,0,0,0,0,0,0,0,0,0,0,0,0,0,0,0,0,0,0,0,0,0,0,0,0,0,0,0,0,0,0,0,0,0,0,0,0,0,0,0,0,0,0,0,0,0,0,0,0,0,0]},{"id":3,"name":"objects","type":"objectgroup","draworder":"topdown","x":0,"y":0,"opacity":1,"visible":true,"objects":[{"id":1,"name":"building.villa#0","type":"prop","x":376.0,"y":272,"width":0,"height":0,"rotation":0,"visible":true,"point":true,"properties":[{"name":"kind","type":"string","value":"building.villa"},{"name":"fw","type":"int","value":80},{"name":"fh","type":"int","value":48},{"name":"solid","type":"bool","value":true},{"name":"ref","type":"string","value":"home"},{"name":"cl","type":"float","value":36.0},{"name":"cr","type":"float","value":36.0}]},{"id":2,"name":"building.villa#0","type":"prop","x":760.0,"y":272,"width":0,"height":0,"rotation":0,"visible":true,"point":true,"properties":[{"name":"kind","type":"string","value":"building.villa"},{"name":"fw","type":"int","value":80},{"name":"fh","type":"int","value":48},{"name":"solid","type":"bool","value":true},{"name":"ref","type":"string","value":"relatives"},{"name":"cl","type":"float","value":36.0},{"name":"cr","type":"float","value":36.0}]},{"id":3,"name":"building.villa#0","type":"prop","x":200.0,"y":272,"width":0,"height":0,"rotation":0,"visible":true,"point":true,"properties":[{"name":"kind","type":"string","value":"building.villa"},{"name":"fw","type":"int","value":80},{"name":"fh","type":"int","value":48},{"name":"solid","type":"bool","value":true},{"name":"ref","type":"string","value":"villa-1"},{"name":"cl","type":"float","value":36.0},{"name":"cr","type":"float","value":36.0}]},{"id":4,"name":"building.villa#0","type":"prop","x":584.0,"y":272,"width":0,"height":0,"rotation":0,"visible":true,"point":true,"properties":[{"name":"kind","type":"string","value":"building.villa"},{"name":"fw","type":"int","value":80},{"name":"fh","type":"int","value":48},{"name":"solid","type":"bool","value":true},{"name":"ref","type":"string","value":"villa-2"},{"name":"cl","type":"float","value":36.0},{"name":"cr","type":"float","value":36.0}]},{"id":5,"name":"building.villa#0","type":"prop","x":200.0,"y":464,"width":0,"height":0,"rotation":0,"visible":true,"point":true,"properties":[{"name":"kind","type":"string","value":"building.villa"},{"name":"fw","type":"int","value":80},{"name":"fh","type":"int","value":48},{"name":"solid","type":"bool","value":true},{"name":"ref","type":"string","value":"villa-3"},{"name":"cl","type":"float","value":36.0},{"name":"cr","type":"float","value":36.0}]},{"id":6,"name":"building.villa#0","type":"prop","x":376.0,"y":464,"width":0,"height":0,"rotation":0,"visible":true,"point":true,"properties":[{"name":"kind","type":"string","value":"building.villa"},{"name":"fw","type":"int","value":80},{"name":"fh","type":"int","value":48},{"name":"solid","type":"bool","value":true},{"name":"ref","type":"string","value":"villa-4"},{"name":"cl","type":"float","value":36.0},{"name":"cr","type":"float","value":36.0}]},{"id":7,"name":"building.villa#0","type":"prop","x":584.0,"y":464,"width":0,"height":0,"rotation":0,"visible":true,"point":true,"properties":[{"name":"kind","type":"string","value":"building.villa"},{"name":"fw","type":"int","value":80},{"name":"fh","type":"int","value":48},{"name":"solid","type":"bool","value":true},{"name":"ref","type":"string","value":"villa-5"},{"name":"cl","type":"float","value":36.0},{"name":"cr","type":"float","value":36.0}]},{"id":8,"name":"building.villa#0","type":"prop","x":760.0,"y":464,"width":0,"height":0,"rotation":0,"visible":true,"point":true,"properties":[{"name":"kind","type":"string","value":"building.villa"},{"name":"fw","type":"int","value":80},{"name":"fh","type":"int","value":48},{"name":"solid","type":"bool","value":true},{"name":"ref","type":"string","value":"villa-6"},{"name":"cl","type":"float","value":36.0},{"name":"cr","type":"float","value":36.0}]},{"id":9,"name":"building.storefront#0","type":"prop","x":192.0,"y":688,"width":0,"height":0,"rotation":0,"visible":true,"point":true,"properties":[{"name":"kind","type":"string","value":"building.storefront"},{"name":"fw","type":"int","value":64},{"name":"fh","type":"int","value":32},{"name":"solid","type":"bool","value":true},{"name":"ref","type":"string","value":"store"},{"name":"cl","type":"float","value":28.0},{"name":"cr","type":"float","value":28.0}]},{"id":10,"name":"building.storefront#0","type":"prop","x":448.0,"y":688,"width":0,"height":0,"rotation":0,"visible":true,"point":true,"properties":[{"name":"kind","type":"string","value":"building.storefront"},{"name":"fw","type":"int","value":64},{"name":"fh","type":"int","value":32},{"name":"solid","type":"bool","value":true},{"name":"ref","type":"string","value":"shop-2"},{"name":"cl","type":"float","value":28.0},{"name":"cr","type":"float","value":28.0}]},{"id":11,"name":"building.subway_entrance#0","type":"prop","x":824.0,"y":688,"width":0,"height":0,"rotation":0,"visible":true,"point":true,"properties":[{"name":"kind","type":"string","value":"building.subway_entrance"},{"name":"fw","type":"int","value":48},{"name":"fh","type":"int","value":32},{"name":"solid","type":"bool","value":true},{"name":"ref","type":"string","value":"station"},{"name":"cl","type":"float","value":20.0},{"name":"cr","type":"float","value":20.0}]},{"id":12,"name":"tree.ginkgo#1","type":"prop","x":24.0,"y":576,"width":0,"height":0,"rotation":0,"visible":true,"point":true,"properties":[{"name":"kind","type":"string","value":"tree.ginkgo"},{"name":"fw","type":"int","value":16},{"name":"fh","type":"int","value":16},{"name":"solid","type":"bool","value":true}]},{"id":13,"name":"tree.ginkgo#1","type":"prop","x":40.0,"y":656,"width":0,"height":0,"rotation":0,"visible":true,"point":true,"properties":[{"name":"kind","type":"string","value":"tree.ginkgo"},{"name":"fw","type":"int","value":16},{"name":"fh","type":"int","value":16},{"name":"solid","type":"bool","value":true}]},{"id":14,"name":"tree.ginkgo#1","type":"prop","x":120.0,"y":576,"width":0,"height":0,"rotation":0,"visible":true,"point":true,"properties":[{"name":"kind","type":"string","value":"tree.ginkgo"},{"name":"fw","type":"int","value":16},{"name":"fh","type":"int","value":16},{"name":"solid","type":"bool","value":true}]},{"id":15,"name":"tree.ginkgo#1","type":"prop","x":136.0,"y":656,"width":0,"height":0,"rotation":0,"visible":true,"point":true,"properties":[{"name":"kind","type":"string","value":"tree.ginkgo"},{"name":"fw","type":"int","value":16},{"name":"fh","type":"int","value":16},{"name":"solid","type":"bool","value":true}]},{"id":16,"name":"tree.ginkgo#0","type":"prop","x":216.0,"y":576,"width":0,"height":0,"rotation":0,"visible":true,"point":true,"properties":[{"name":"kind","type":"string","value":"tree.ginkgo"},{"name":"fw","type":"int","value":16},{"name":"fh","type":"int","value":16},{"name":"solid","type":"bool","value":true}]},{"id":17,"name":"tree.ginkgo#1","type":"prop","x":232.0,"y":656,"width":0,"height":0,"rotation":0,"visible":true,"point":true,"properties":[{"name":"kind","type":"string","value":"tree.ginkgo"},{"name":"fw","type":"int","value":16},{"name":"fh","type":"int","value":16},{"name":"solid","type":"bool","value":true}]},{"id":18,"name":"tree.ginkgo#0","type":"prop","x":312.0,"y":576,"width":0,"height":0,"rotation":0,"visible":true,"point":true,"properties":[{"name":"kind","type":"string","value":"tree.ginkgo"},{"name":"fw","type":"int","value":16},{"name":"fh","type":"int","value":16},{"name":"solid","type":"bool","value":true}]},{"id":19,"name":"tree.ginkgo#0","type":"prop","x":328.0,"y":656,"width":0,"height":0,"rotation":0,"visible":true,"point":true,"properties":[{"name":"kind","type":"string","value":"tree.ginkgo"},{"name":"fw","type":"int","value":16},{"name":"fh","type":"int","value":16},{"name":"solid","type":"bool","value":true}]},{"id":20,"name":"tree.ginkgo#0","type":"prop","x":408.0,"y":576,"width":0,"height":0,"rotation":0,"visible":true,"point":true,"properties":[{"name":"kind","type":"string","value":"tree.ginkgo"},{"name":"fw","type":"int","value":16},{"name":"fh","type":"int","value":16},{"name":"solid","type":"bool","value":true}]},{"id":21,"name":"tree.ginkgo#0","type":"prop","x":424.0,"y":656,"width":0,"height":0,"rotation":0,"visible":true,"point":true,"properties":[{"name":"kind","type":"string","value":"tree.ginkgo"},{"name":"fw","type":"int","value":16},{"name":"fh","type":"int","value":16},{"name":"solid","type":"bool","value":true}]},{"id":22,"name":"tree.ginkgo#1","type":"prop","x":504.0,"y":576,"width":0,"height":0,"rotation":0,"visible":true,"point":true,"properties":[{"name":"kind","type":"string","value":"tree.ginkgo"},{"name":"fw","type":"int","value":16},{"name":"fh","type":"int","value":16},{"name":"solid","type":"bool","value":true}]},{"id":23,"name":"tree.ginkgo#1","type":"prop","x":520.0,"y":656,"width":0,"height":0,"rotation":0,"visible":true,"point":true,"properties":[{"name":"kind","type":"string","value":"tree.ginkgo"},{"name":"fw","type":"int","value":16},{"name":"fh","type":"int","value":16},{"name":"solid","type":"bool","value":true}]},{"id":24,"name":"tree.ginkgo#1","type":"prop","x":600.0,"y":576,"width":0,"height":0,"rotation":0,"visible":true,"point":true,"properties":[{"name":"kind","type":"string","value":"tree.ginkgo"},{"name":"fw","type":"int","value":16},{"name":"fh","type":"int","value":16},{"name":"solid","type":"bool","value":true}]},{"id":25,"name":"tree.ginkgo#1","type":"prop","x":616.0,"y":656,"width":0,"height":0,"rotation":0,"visible":true,"point":true,"properties":[{"name":"kind","type":"string","value":"tree.ginkgo"},{"name":"fw","type":"int","value":16},{"name":"fh","type":"int","value":16},{"name":"solid","type":"bool","value":true}]},{"id":26,"name":"tree.ginkgo#0","type":"prop","x":696.0,"y":576,"width":0,"height":0,"rotation":0,"visible":true,"point":true,"properties":[{"name":"kind","type":"string","value":"tree.ginkgo"},{"name":"fw","type":"int","value":16},{"name":"fh","type":"int","value":16},{"name":"solid","type":"bool","value":true}]},{"id":27,"name":"tree.ginkgo#1","type":"prop","x":712.0,"y":656,"width":0,"height":0,"rotation":0,"visible":true,"point":true,"properties":[{"name":"kind","type":"string","value":"tree.ginkgo"},{"name":"fw","type":"int","value":16},{"name":"fh","type":"int","value":16},{"name":"solid","type":"bool","value":true}]},{"id":28,"name":"tree.ginkgo#0","type":"prop","x":792.0,"y":576,"width":0,"height":0,"rotation":0,"visible":true,"point":true,"properties":[{"name":"kind","type":"string","value":"tree.ginkgo"},{"name":"fw","type":"int","value":16},{"name":"fh","type":"int","value":16},{"name":"solid","type":"bool","value":true}]},{"id":29,"name":"tree.ginkgo#0","type":"prop","x":888.0,"y":576,"width":0,"height":0,"rotation":0,"visible":true,"point":true,"properties":[{"name":"kind","type":"string","value":"tree.ginkgo"},{"name":"fw","type":"int","value":16},{"name":"fh","type":"int","value":16},{"name":"solid","type":"bool","value":true}]},{"id":30,"name":"tree.ginkgo#0","type":"prop","x":904.0,"y":656,"width":0,"height":0,"rotation":0,"visible":true,"point":true,"properties":[{"name":"kind","type":"string","value":"tree.ginkgo"},{"name":"fw","type":"int","value":16},{"name":"fh","type":"int","value":16},{"name":"solid","type":"bool","value":true}]},{"id":31,"name":"tree.ginkgo#1","type":"prop","x":984.0,"y":576,"width":0,"height":0,"rotation":0,"visible":true,"point":true,"properties":[{"name":"kind","type":"string","value":"tree.ginkgo"},{"name":"fw","type":"int","value":16},{"name":"fh","type":"int","value":16},{"name":"solid","type":"bool","value":true}]},{"id":32,"name":"tree.ginkgo#1","type":"prop","x":1000.0,"y":656,"width":0,"height":0,"rotation":0,"visible":true,"point":true,"properties":[{"name":"kind","type":"string","value":"tree.ginkgo"},{"name":"fw","type":"int","value":16},{"name":"fh","type":"int","value":16},{"name":"solid","type":"bool","value":true}]},{"id":33,"name":"lamp.post#0","type":"prop","x":264.0,"y":400,"width":0,"height":0,"rotation":0,"visible":true,"point":true,"properties":[{"name":"kind","type":"string","value":"lamp.post"},{"name":"fw","type":"int","value":16},{"name":"fh","type":"int","value":16},{"name":"solid","type":"bool","value":true}]},{"id":34,"name":"lamp.post#0","type":"prop","x":264.0,"y":528,"width":0,"height":0,"rotation":0,"visible":true,"point":true,"properties":[{"name":"kind","type":"string","value":"lamp.post"},{"name":"fw","type":"int","value":16},{"name":"fh","type":"int","value":16},{"name":"solid","type":"bool","value":true}]},{"id":35,"name":"lamp.post#0","type":"prop","x":312.0,"y":224,"width":0,"height":0,"rotation":0,"visible":true,"point":true,"properties":[{"name":"kind","type":"string","value":"lamp.post"},{"name":"fw","type":"int","value":16},{"name":"fh","type":"int","value":16},{"name":"solid","type":"bool","value":true}]},{"id":36,"name":"lamp.post#0","type":"prop","x":312.0,"y":352,"width":0,"height":0,"rotation":0,"visible":true,"point":true,"properties":[{"name":"kind","type":"string","value":"lamp.post"},{"name":"fw","type":"int","value":16},{"name":"fh","type":"int","value":16},{"name":"solid","type":"bool","value":true}]},{"id":37,"name":"lamp.post#0","type":"prop","x":312.0,"y":480,"width":0,"height":0,"rotation":0,"visible":true,"point":true,"properties":[{"name":"kind","type":"string","value":"lamp.post"},{"name":"fw","type":"int","value":16},{"name":"fh","type":"int","value":16},{"name":"solid","type":"bool","value":true}]},{"id":38,"name":"plant.bush#0","type":"prop","x":856.0,"y":384,"width":0,"height":0,"rotation":0,"visible":true,"point":true,"properties":[{"name":"kind","type":"string","value":"plant.bush"},{"name":"fw","type":"int","value":16},{"name":"fh","type":"int","value":16},{"name":"solid","type":"bool","value":false}]},{"id":39,"name":"plant.bush#0","type":"prop","x":936.0,"y":448,"width":0,"height":0,"rotation":0,"visible":true,"point":true,"properties":[{"name":"kind","type":"string","value":"plant.bush"},{"name":"fw","type":"int","value":16},{"name":"fh","type":"int","value":16},{"name":"solid","type":"bool","value":false}]},{"id":40,"name":"plant.bush#0","type":"prop","x":968.0,"y":400,"width":0,"height":0,"rotation":0,"visible":true,"point":true,"properties":[{"name":"kind","type":"string","value":"plant.bush"},{"name":"fw","type":"int","value":16},{"name":"fh","type":"int","value":16},{"name":"solid","type":"bool","value":false}]},{"id":41,"name":"plant.bush#0","type":"prop","x":936.0,"y":256,"width":0,"height":0,"rotation":0,"visible":true,"point":true,"properties":[{"name":"kind","type":"string","value":"plant.bush"},{"name":"fw","type":"int","value":16},{"name":"fh","type":"int","value":16},{"name":"solid","type":"bool","value":false}]},{"id":42,"name":"plant.bush#0","type":"prop","x":888.0,"y":224,"width":0,"height":0,"rotation":0,"visible":true,"point":true,"properties":[{"name":"kind","type":"string","value":"plant.bush"},{"name":"fw","type":"int","value":16},{"name":"fh","type":"int","value":16},{"name":"solid","type":"bool","value":false}]},{"id":43,"name":"tree.small#0","type":"prop","x":1016.0,"y":272,"width":0,"height":0,"rotation":0,"visible":true,"point":true,"properties":[{"name":"kind","type":"string","value":"tree.small"},{"name":"fw","type":"int","value":16},{"name":"fh","type":"int","value":16},{"name":"solid","type":"bool","value":true}]},{"id":44,"name":"tree.small#1","type":"prop","x":952.0,"y":432,"width":0,"height":0,"rotation":0,"visible":true,"point":true,"properties":[{"name":"kind","type":"string","value":"tree.small"},{"name":"fw","type":"int","value":16},{"name":"fh","type":"int","value":16},{"name":"solid","type":"bool","value":true}]},{"id":45,"name":"tree.small#0","type":"prop","x":856.0,"y":272,"width":0,"height":0,"rotation":0,"visible":true,"point":true,"properties":[{"name":"kind","type":"string","value":"tree.small"},{"name":"fw","type":"int","value":16},{"name":"fh","type":"int","value":16},{"name":"solid","type":"bool","value":true}]},{"id":46,"name":"prop.vending#0","type":"prop","x":168.0,"y":656,"width":0,"height":0,"rotation":0,"visible":true,"point":true,"properties":[{"name":"kind","type":"string","value":"prop.vending"},{"name":"fw","type":"int","value":16},{"name":"fh","type":"int","value":16},{"name":"solid","type":"bool","value":true}]},{"id":47,"name":"","type":"prop","x":512.0,"y":16,"width":0,"height":0,"rotation":0,"visible":true,"point":true,"properties":[{"name":"kind","type":"string","value":"wall"},{"name":"fw","type":"int","value":1024},{"name":"fh","type":"int","value":16},{"name":"solid","type":"bool","value":true}]},{"id":48,"name":"","type":"prop","x":512.0,"y":32,"width":0,"height":0,"rotation":0,"visible":true,"point":true,"properties":[{"name":"kind","type":"string","value":"wall"},{"name":"fw","type":"int","value":1024},{"name":"fh","type":"int","value":16},{"name":"solid","type":"bool","value":true}]},{"id":49,"name":"","type":"prop","x":512.0,"y":48,"width":0,"height":0,"rotation":0,"visible":true,"point":true,"properties":[{"name":"kind","type":"string","value":"wall"},{"name":"fw","type":"int","value":1024},{"name":"fh","type":"int","value":16},{"name":"solid","type":"bool","value":true}]},{"id":50,"name":"","type":"prop","x":512.0,"y":64,"width":0,"height":0,"rotation":0,"visible":true,"point":true,"properties":[{"name":"kind","type":"string","value":"wall"},{"name":"fw","type":"int","value":1024},{"name":"fh","type":"int","value":16},{"name":"solid","type":"bool","value":true}]},{"id":51,"name":"","type":"prop","x":512.0,"y":80,"width":0,"height":0,"rotation":0,"visible":true,"point":true,"properties":[{"name":"kind","type":"string","value":"wall"},{"name":"fw","type":"int","value":1024},{"name":"fh","type":"int","value":16},{"name":"solid","type":"bool","value":true}]},{"id":52,"name":"","type":"prop","x":512.0,"y":96,"width":0,"height":0,"rotation":0,"visible":true,"point":true,"properties":[{"name":"kind","type":"string","value":"wall"},{"name":"fw","type":"int","value":1024},{"name":"fh","type":"int","value":16},{"name":"solid","type":"bool","value":true}]},{"id":53,"name":"","type":"prop","x":512.0,"y":112,"width":0,"height":0,"rotation":0,"visible":true,"point":true,"properties":[{"name":"kind","type":"string","value":"wall"},{"name":"fw","type":"int","value":1024},{"name":"fh","type":"int","value":16},{"name":"solid","type":"bool","value":true}]},{"id":54,"name":"","type":"prop","x":512.0,"y":128,"width":0,"height":0,"rotation":0,"visible":true,"point":true,"properties":[{"name":"kind","type":"string","value":"wall"},{"name":"fw","type":"int","value":1024},{"name":"fh","type":"int","value":16},{"name":"solid","type":"bool","value":true}]},{"id":55,"name":"home","type":"spot","x":312.0,"y":251.2,"width":0,"height":0,"rotation":0,"visible":true,"point":true,"properties":[{"name":"node","type":"string","value":""},{"name":"label","type":"string","value":"Jang's home"},{"name":"label_zh","type":"string","value":""}]},{"id":56,"name":"npc-1","type":"npc","x":472.0,"y":606.4,"width":0,"height":0,"rotation":0,"visible":true,"point":true,"properties":[{"name":"kind","type":"string","value":"folk.ajumma"},{"name":"sprite","type":"string","value":"ms_ajumma"},{"name":"wander","type":"bool","value":false},{"name":"drawn","type":"bool","value":true},{"name":"say","type":"string","value":"[[\"n\", \"An ajumma with a shopping trolley. “The Jang boy? Up before dawn every day of his life, that one.”\", \"\", \"94f2c7025132\"]]"}]},{"id":57,"name":"npc-2","type":"npc","x":664.0,"y":350.4,"width":0,"height":0,"rotation":0,"visible":true,"point":true,"properties":[{"name":"kind","type":"string","value":"folk.grandpa"},{"name":"sprite","type":"string","value":"ms_oldman"},{"name":"wander","type":"bool","value":false},{"name":"drawn","type":"bool","value":true},{"name":"say","type":"string","value":"[[\"n\", \"An old man on a plastic stool by the lane. “Seven years at those stones. Now what?”\", \"\", \"ccda15409a61\"]]"}]},{"id":58,"name":"exit-susaek-dong--home","type":"exit","x":326.4,"y":241.6,"width":12.0,"height":12.8,"rotation":0,"visible":true,"properties":[{"name":"to","type":"string","value":"susaek-dong--home"},{"name":"side","type":"string","value":"E"}]},{"id":59,"name":"exit-susaek-dong--relatives","type":"exit","x":710.4,"y":241.6,"width":12.0,"height":12.8,"rotation":0,"visible":true,"properties":[{"name":"to","type":"string","value":"susaek-dong--relatives"},{"name":"side","type":"string","value":"E"}]},{"id":60,"name":"exit-the-subway","type":"exit","x":817.6,"y":646.4,"width":12.8,"height":12.0,"rotation":0,"visible":true,"properties":[{"name":"to","type":"string","value":"the-subway"},{"name":"side","type":"string","value":"S"}]},{"id":61,"name":"entry-susaek-dong--home","type":"entry","x":312.0,"y":254.4,"width":0,"height":0,"rotation":0,"visible":true,"point":true,"properties":[{"name":"from","type":"string","value":"susaek-dong--home"}]},{"id":62,"name":"entry-susaek-dong--relatives","type":"entry","x":696.0,"y":254.4,"width":0,"height":0,"rotation":0,"visible":true,"point":true,"properties":[{"name":"from","type":"string","value":"susaek-dong--relatives"}]},{"id":63,"name":"entry-the-subway","type":"entry","x":824.0,"y":638.4,"width":0,"height":0,"rotation":0,"visible":true,"point":true,"properties":[{"name":"from","type":"string","value":"the-subway"}]},{"id":64,"name":"entry","type":"entry","x":280.0,"y":350.4,"width":0,"height":0,"rotation":0,"visible":true,"point":true}]}]}