{"type":"map","version":"1.10","tiledversion":"1.10.2","orientation":"orthogonal","renderorder":"right-down","width":64,"height":48,"tilewidth":16,"tileheight":16,"infinite":false,"nextlayerid":6,"nextobjectid":93,"properties":[{"name":"kit","type":"string","value":"jade"},{"name":"source","type":"string","value":"jingzhou.map.json"},{"name":"states","type":"string","value":"[{\"id\": \"day\", \"light\": \"day\"}]"},{"name":"ways","type":"string","value":"{\"nodes\":[[10.0,26.0],[34.0,26.0],[54.0,26.0],[34.0,46.0]],\"edges\":[[0,1],[1,2],[1,3]]}"},{"name":"paths","type":"string","value":"0000000000000000000000000000000000000000000000000000000000000000|0000000000000000000000000000000000000000000000000000000000000000|0000000000000000000000000000000000000000000000000000000000000000|0000000000000000000000000000000000000000000000000000000000000000|0000000000000000000000000000000000000000000000000000000000000000|0000000000000000000000000000000000000000000000000000000000000000|0000000000000000000000000000000000000000000000000000000000000000|0000000000000000000000000000000000000000000000000000000000000000|0000000000000000000000000000000000000000000000000000000000000000|0000000000000000000000000000000000000000000000000000000000000000|0000000000000000000000000000000000000000000000000000000000000000|0000000000000000000000000000000000000000000000000000000000000000|0000000000000000000000000000000000000000000000000000000000000000|0000000000000000000000000000000000000000000000000000000000000000|0000000000000000000000000000000000000000000000000000000000000000|0000000000000000000000000000000000000000000000000000000000000000|0000000000000000000000000000000000000000000000000000000000000000|0000000000000000000000000000000000000000000000000000000000000000|0000000000000000000000000000000000000000000000000000000000000000|0000000000000000000000000000000000000000000000000000000000000000|0000000000000000000011111111111111111111111100000000000000000000|0000000000000000000011111111111111111111111100000000000000000000|0000000000000000000011111111111111111111111100000000000000000000|0000000000000000000011111111111111111111111100000000000000000000|0000000011111111111111111111111111111111111111111111111100000000|0000000011111111111111111111111111111111111111111111111100000000|0000000011111111111111111111111111111111111111111111111100000000|0000000011111111111111111111111111111111111111111111111100000000|0000000000000000000000000000000011110000111111111111000000000000|0000000000000000000000000000000011110000111111111111000000000000|0000000000000000000000000000000011110000111111111111000000000000|0000000000000000000000000000000011110000111111111111000000000000|0000000000000000000000000000000011110000111111111111000000000000|0000000000000000000000000000000011110000111111111111000000000000|0000000000000000000000000000000011110000111111111111000000000000|0000000000000000000000000000000011110000111111111111000000000000|0000000000000000000000000000000011110000000000000000000000000000|0000000000000000000000000000000011110000000000000000000000000000|0000000000000000000000000000000011110000000000000000000000000000|0000000000000000000000000000000011110000000000000000000000000000|0000000000000000000000000000000011110000000000000000000000000000|0000000000000000000000000000000011110000000000000000000000000000|0000000000000000000000000000000011110000000000000000000000000000|0000000000000000000000000000000011110000000000000000000000000000|0000000000000000000000000000000011110000000000000000000000000000|0000000000000000000000000000000011110000000000000000000000000000|0000000000000000000000000000000011110000000000000000000000000000|0000000000000000000000000000000011110000000000000000000000000000"}],"tilesets":[{"firstgid":1,"name":"tiles","tilewidth":16,"tileheight":16,"columns":5,"tilecount":5,"margin":0,"spacing":0,"image":"../../../../assets/tk/jade/tiles.png","imagewidth":80,"imageheight":16},{"firstgid":6,"name":"drawn_b2_tiles","tilewidth":16,"tileheight":16,"columns":2,"tilecount":18,"margin":0,"spacing":0,"image":"../../../../assets/tk/drawn_b2_tiles.png","imagewidth":32,"imageheight":144},{"firstgid":24,"name":"n_floor_in","tilewidth":16,"tileheight":16,"columns":22,"tilecount":374,"margin":0,"spacing":0,"image":"../../../../assets/tk/ninja/floor_in.png","imagewidth":352,"imageheight":272},{"firstgid":398,"name":"edges","tilewidth":16,"tileheight":16,"columns":30,"tilecount":300,"margin":0,"spacing":0,"image":"../../../../assets/tk/jade/edges.png","imagewidth":480,"imageheight":160},{"firstgid":698,"name":"nature","tilewidth":16,"tileheight":16,"columns":16,"tilecount":256,"margin":0,"spacing":0,"image":"../../../../assets/tk/jade/nature.png","imagewidth":256,"imageheight":256}],"layers":[{"id":1,"name":"ground","type":"tilelayer","width":64,"height":48,"x":0,"y":0,"opacity":1,"visible":true,"data":[1,1,1,1,1,1,1,1,1,1,1,1,1,1,1,1,1,1,1,1,1,1,1,1,1,1,1,1,1,1,1,1,1,1,1,1,1,1,1,1,1,1,1,1,1,1,1,1,1,1,1,1,1,1,1,1,1,1,1,1,1,1,1,1,1,1,1,1,1,1,1,1,1,1,1,1,1,1,1,1,1,1,1,1,1,1,1,1,1,1,1,1,1,1,1,1,1,1,1,1,1,1,1,1,1,1,1,1,1,1,1,1,1,1,1,1,1,1,1,1,1,1,1,1,1,1,1,1,1,1,1,1,1,1,1,1,1,1,1,1,1,1,1,1,1,1,1,1,1,1,1,1,1,1,1,1,1,1,1,1,1,1,1,1,1,1,1,1,1,1,1,1,1,1,1,1,1,1,1,1,1,1,1,1,1,1,1,1,1,1,1,1,1,1,1,1,1,1,1,1,1,1,1,1,1,1,1,1,1,1,1,1,1,1,1,1,1,1,1,1,1,1,1,1,1,1,1,1,1,1,1,1,1,1,1,1,1,1,1,1,1,1,1,1,1,1,1,1,1,1,1,1,1,1,1,1,1,1,1,1,1,1,1,1,1,1,1,1,1,1,1,1,1,1,1,1,1,1,1,1,1,1,1,1,1,1,1,1,1,1,1,1,1,1,1,1,1,1,1,1,1,1,1,1,1,1,1,1,1,1,1,1,1,1,1,1,1,1,1,1,1,1,1,1,1,1,1,1,1,1,1,1,1,1,1,1,1,1,1,1,1,1,1,1,1,1,1,1,1,1,1,1,1,1,1,1,1,1,1,1,1,1,1,1,1,1,1,1,1,1,1,1,1,1,1,1,1,1,1,1,1,1,1,1,1,1,1,1,1,1,13,12,12,12,12,12,12,12,13,13,13,12,13,12,13,12,13,13,12,13,12,12,12,13,13,13,13,12,13,12,13,13,12,12,13,12,13,12,13,13,13,12,12,12,13,13,13,13,13,12,13,13,1,1,1,1,1,1,1,1,1,1,1,1,12,12,12,13,13,13,13,13,12,12,13,13,12,13,12,13,12,13,13,12,12,12,12,13,13,12,13,13,12,12,13,12,12,13,13,13,12,12,13,12,12,13,13,12,12,12,13,13,12,12,13,12,1,1,1,1,1,1,1,1,1,1,1,1,13,12,1,1,1,1,1,1,1,1,1,1,1,1,1,1,1,1,1,1,1,1,1,1,1,1,1,1,1,1,1,1,1,1,1,1,1,1,1,1,1,1,1,1,1,1,1,1,1,1,13,13,1,1,1,1,1,1,1,1,1,1,1,1,12,13,1,1,1,1,1,1,1,1,1,1,1,1,1,1,1,1,1,1,1,1,1,1,1,1,1,1,1,1,1,1,1,1,1,1,1,1,1,1,1,1,1,1,1,1,1,1,1,1,12,12,1,1,1,1,1,1,1,1,1,1,1,1,12,12,1,1,1,1,1,1,1,1,1,1,1,1,1,1,1,1,1,1,1,1,1,1,1,1,1,1,1,1,1,1,1,1,1,1,1,1,1,1,1,1,1,1,1,1,1,1,1,1,13,12,1,1,1,1,1,1,1,1,1,1,1,1,12,12,1,1,1,1,1,1,1,1,1,1,1,1,1,1,1,1,1,1,1,1,1,1,1,1,1,1,1,1,1,1,1,1,1,1,1,1,1,1,1,1,1,1,1,1,1,1,1,1,13,13,1,1,1,1,1,1,1,1,1,1,1,1,12,13,1,1,1,1,1,1,1,1,1,1,1,1,1,1,1,1,1,1,1,1,1,1,1,1,1,1,1,1,1,1,1,1,1,1,1,1,1,1,1,1,1,1,1,1,1,1,1,1,13,12,1,1,1,1,1,1,1,1,1,1,1,1,12,13,1,1,1,1,1,1,1,1,1,1,1,1,1,1,1,1,1,1,1,1,1,1,1,1,1,1,1,1,1,1,1,1,1,1,1,1,1,1,1,1,1,1,1,1,1,1,1,1,12,13,1,1,1,1,1,1,1,1,1,1,1,1,12,12,1,1,1,1,1,1,1,1,1,1,1,1,1,1,1,1,1,1,1,1,1,1,1,1,1,1,1,1,1,1,1,1,1,1,1,1,1,1,1,1,1,1,1,1,1,1,1,1,12,13,1,1,1,1,1,1,1,1,1,1,1,1,12,13,1,1,1,1,1,1,1,1,1,1,1,1,1,1,1,1,1,1,1,1,1,1,1,1,1,1,1,1,1,1,1,1,1,1,1,1,1,1,1,1,1,1,1,1,1,1,1,1,13,12,1,1,1,1,1,1,1,1,1,1,1,1,13,12,1,1,1,1,1,1,1,1,1,1,1,1,1,1,1,1,1,1,1,1,1,1,1,1,1,1,1,1,1,1,1,1,1,1,1,1,1,1,1,1,1,1,1,1,1,1,1,1,12,12,1,1,1,1,1,1,1,1,1,1,1,1,13,12,1,1,1,1,1,1,1,1,1,1,1,1,1,1,1,1,1,1,1,1,1,1,1,1,1,1,1,1,1,1,1,1,1,1,1,1,1,1,1,1,1,1,1,1,1,1,1,1,13,12,1,1,1,1,1,1,1,1,1,1,1,1,13,12,1,1,1,1,1,1,1,1,1,1,1,1,1,1,1,1,1,1,1,1,1,1,1,1,1,1,1,1,1,1,1,1,1,1,1,1,1,1,1,1,1,1,1,1,1,1,1,1,12,13,1,1,1,1,1,1,1,1,1,1,1,1,13,12,1,1,1,1,1,1,1,1,1,1,1,1,1,1,1,1,1,1,1,1,1,1,1,1,1,1,1,1,1,1,1,1,1,1,1,1,1,1,1,1,1,1,1,1,1,1,1,1,12,13,1,1,1,1,1,1,1,1,1,1,1,1,12,13,1,1,1,1,1,1,1,1,1,1,1,1,313,313,313,313,313,313,313,313,313,313,313,313,313,313,313,313,313,313,313,313,313,313,313,313,1,1,1,1,1,1,1,1,1,1,1,1,12,13,1,1,1,1,1,1,1,1,1,1,1,1,12,12,1,1,1,1,1,1,1,1,1,1,1,1,313,313,313,313,313,313,313,313,313,313,313,313,313,313,313,313,313,313,313,313,313,313,313,313,1,1,1,1,1,1,1,1,1,1,1,1,12,13,1,1,1,1,1,1,1,1,1,1,1,1,13,12,1,1,1,1,1,1,1,1,1,1,1,1,313,313,313,313,313,313,313,313,313,313,313,313,313,313,313,313,313,313,313,313,313,313,313,313,1,1,1,1,1,1,1,1,1,1,1,1,13,12,1,1,1,1,1,1,1,1,1,1,1,1,12,13,1,1,1,1,1,1,1,1,1,1,1,1,313,313,313,313,313,313,313,313,313,313,313,313,313,313,313,313,313,313,313,313,313,313,313,313,1,1,1,1,1,1,1,1,1,1,1,1,12,12,1,1,1,1,1,1,1,1,1,1,1,1,13,13,1,1,1,1,1,1,1,1,1,1,1,1,1,1,1,1,1,1,1,1,1,1,1,1,1,1,1,1,1,1,1,1,1,1,1,1,1,1,1,1,1,1,1,1,1,1,1,1,12,13,1,1,1,1,1,1,1,1,1,1,1,1,13,13,1,1,1,1,1,1,1,1,1,1,1,1,1,1,1,1,1,1,1,1,1,1,1,1,1,1,1,1,1,1,1,1,1,1,1,1,1,1,1,1,1,1,1,1,1,1,1,1,12,12,1,1,1,1,1,1,1,1,1,1,1,1,13,13,1,1,1,1,1,1,1,1,1,1,1,1,1,1,1,1,1,1,1,1,1,1,1,1,1,1,1,1,1,1,1,1,1,1,1,1,1,1,1,1,1,1,1,1,1,1,1,1,12,13,1,1,1,1,1,1,1,1,1,1,1,1,12,13,1,1,1,1,1,1,1,1,1,1,1,1,1,1,1,1,1,1,1,1,1,1,1,1,1,1,1,1,1,1,1,1,1,1,1,1,1,1,1,1,1,1,1,1,1,1,1,1,12,12,1,1,1,1,1,1,1,1,1,1,1,1,13,13,1,1,1,1,1,1,1,1,1,1,1,1,1,1,1,1,1,1,1,1,1,1,1,1,1,1,1,1,1,1,1,1,22,22,23,23,22,23,23,23,23,22,23,23,1,1,1,1,13,12,1,1,1,1,1,1,1,1,1,1,1,1,13,13,1,1,1,1,1,1,1,1,1,1,1,1,1,1,1,1,1,1,1,1,1,1,1,1,1,1,1,1,1,1,1,1,22,23,22,23,23,22,23,22,22,23,22,22,1,1,1,1,12,13,1,1,1,1,1,1,1,1,1,1,1,1,13,12,1,1,1,1,1,1,1,1,1,1,1,1,1,1,1,1,1,1,1,1,1,1,1,1,1,1,1,1,1,1,1,1,23,22,23,22,22,22,23,23,23,22,22,23,1,1,1,1,12,12,1,1,1,1,1,1,1,1,1,1,1,1,12,12,1,1,1,1,1,1,1,1,1,1,1,1,1,1,1,1,1,1,1,1,1,1,1,1,1,1,1,1,1,1,1,1,22,22,22,22,23,23,23,23,23,22,23,23,1,1,1,1,13,13,1,1,1,1,1,1,1,1,1,1,1,1,12,12,1,1,1,1,1,1,1,1,1,1,1,1,1,1,1,1,1,1,1,1,1,1,1,1,1,1,1,1,1,1,1,1,23,22,23,22,23,22,22,23,23,22,23,22,1,1,1,1,13,13,1,1,1,1,1,1,1,1,1,1,1,1,13,13,1,1,1,1,1,1,1,1,1,1,1,1,1,1,1,1,1,1,1,1,1,1,1,1,1,1,1,1,1,1,1,1,23,22,22,23,22,22,22,23,23,22,22,22,1,1,1,1,12,13,1,1,1,1,1,1,1,1,1,1,1,1,13,12,1,1,1,1,1,1,1,1,1,1,1,1,1,1,1,1,1,1,1,1,1,1,1,1,1,1,1,1,1,1,1,1,23,23,22,23,22,22,23,22,22,22,23,22,1,1,1,1,12,13,1,1,1,1,1,1,1,1,1,1,1,1,13,13,1,1,1,1,1,1,1,1,1,1,1,1,1,1,1,1,1,1,1,1,1,1,1,1,1,1,1,1,1,1,1,1,23,23,23,23,22,23,22,22,22,22,23,22,1,1,1,1,13,13,1,1,1,1,1,1,1,1,1,1,1,1,12,12,1,1,1,1,1,1,1,1,1,1,1,1,1,1,1,1,1,1,1,1,1,1,1,1,1,1,1,1,1,1,1,1,1,1,1,1,1,1,1,1,1,1,1,1,1,1,1,1,13,12,1,1,1,1,1,1,1,1,1,1,1,1,13,12,1,1,1,1,1,1,1,1,1,1,1,1,1,1,1,1,1,1,1,1,1,1,1,1,1,1,1,1,1,1,1,1,1,1,1,1,1,1,1,1,1,1,1,1,1,1,1,1,12,13,1,1,1,1,1,1,1,1,1,1,1,1,12,12,1,1,1,1,1,1,1,1,1,1,1,1,1,1,1,1,1,1,1,1,1,1,1,1,1,1,1,1,1,1,1,1,1,1,1,1,1,1,1,1,1,1,1,1,1,1,1,1,12,12,1,1,1,1,1,1,1,1,1,1,1,1,12,13,1,1,1,1,1,1,1,1,1,1,1,1,1,1,1,1,1,1,1,1,1,1,1,1,1,1,1,1,1,1,1,1,1,1,1,1,1,1,1,1,1,1,1,1,1,1,1,1,12,12,1,1,1,1,1,1,1,1,1,1,1,1,12,13,12,13,13,13,13,13,12,12,13,13,12,13,12,13,13,12,12,12,13,12,12,12,12,13,1,1,1,1,13,13,12,13,12,12,12,13,12,13,12,13,12,13,13,13,13,13,12,12,13,12,1,1,1,1,1,1,1,1,1,1,1,1,13,12,12,12,13,13,13,12,13,12,12,13,12,13,13,13,13,13,13,13,12,13,13,12,13,12,1,1,1,1,13,13,13,12,12,13,13,13,12,12,12,12,13,12,13,13,13,12,12,13,12,12,1,1,1,1,1,1,1,1,1,1,1,1,1,1,1,1,1,1,1,1,1,1,1,1,1,1,1,1,1,1,1,1,1,1,1,1,1,1,1,1,1,1,1,1,1,1,1,1,1,1,1,1,1,1,1,1,1,1,1,1,1,1,1,1,1,1,1,1,1,1,1,1,1,1,1,1,1,1,1,1,1,1,1,1,1,1,1,1,1,1,1,1,1,1,1,1,1,1,1,1,1,1,1,1,1,1,1,1,1,1,1,1,1,1,1,1,1,1,1,1,1,1,1,1,1,1,1,1,1,1,1,1,1,1,1,1,1,1,1,1,1,1,1,1,1,1,1,1,1,1,1,1,1,1,1,1,1,1,1,1,1,1,1,1,1,1,1,1,1,1,1,1,1,1,1,1,1,1,1,1,1,1,1,1,1,1,1,1,1,1,1,1,1,1,1,1,1,1,1,1,1,1,1,1,1,1,1,1,1,1,1,1,1,1,1,1,1,1,1,1,1,1,1,1,1,1,1,1,1,1,1,1,1,1,1,1,1,1,1,1,1,1,1,1,1,1,1,1,1,1,1,1,1,1,1,1,1,1,1,1,1,1,1,1,1,1,1,1,1,1,1,1,1,1,1,1,1,1,1,1,1,1,1,1,1,1,1,1,1,1,1,1,1,1,1,1,1,1,1,1,1,1,1,1,1,1,1,1,1,1,1,1,1,1,1,1,1,1,1,1,1,1,1,1,1,1,1,1,1,1,1,1,1,1,1,1,1,1,1,1,1,1,1,1,1,1,1,1,1,1,1,1,1,1,1,1,1,1,1,1,1,1,1,1,1,1,1,1,1,1,1,1,1,1,1,1,1,1,1,1,1,1,1,1,1,1,1,1,1,1]},{"id":2,"name":"dirt","type":"tilelayer","width":64,"height":48,"x":0,"y":0,"opacity":1,"visible":true,"data":[0,0,0,0,0,0,0,0,0,0,0,0,0,0,0,0,0,0,0,0,0,0,0,0,0,0,0,0,0,0,0,0,0,0,0,0,0,0,0,0,0,0,0,0,0,0,0,0,0,0,0,0,0,0,0,0,0,0,0,0,0,0,0,0,0,0,0,0,0,0,0,0,0,0,0,0,0,0,0,0,0,0,0,0,0,0,0,0,0,0,0,0,0,0,0,0,0,0,0,0,0,0,0,0,0,0,0,0,0,0,0,0,0,0,0,0,0,0,0,0,0,0,0,0,0,0,0,0,0,0,0,0,0,0,0,0,0,0,0,0,0,0,0,0,0,0,0,0,0,0,0,0,0,0,0,0,0,0,0,0,0,0,0,0,0,0,0,0,0,0,0,0,0,0,0,0,0,0,0,0,0,0,0,0,0,0,0,0,0,0,0,0,0,0,0,0,0,0,0,0,0,0,0,0,0,0,0,0,0,0,0,0,0,0,0,0,0,0,0,0,0,0,0,0,0,0,0,0,0,0,0,0,0,0,0,0,0,0,0,0,0,0,0,0,0,0,0,0,0,0,0,0,0,0,0,0,0,0,0,0,0,0,0,0,0,0,0,0,0,0,0,0,0,0,0,0,0,0,0,0,0,0,0,0,0,0,0,0,0,0,0,0,0,0,0,0,0,0,0,0,0,0,0,0,0,0,0,0,0,0,0,0,0,0,0,0,0,0,0,0,0,0,0,0,0,0,0,0,0,0,0,0,0,0,0,0,0,0,0,0,0,0,0,0,0,0,0,0,0,0,0,0,0,0,0,0,0,0,0,0,0,0,0,0,0,0,0,0,0,0,0,0,0,0,0,0,0,0,0,0,0,0,0,0,0,0,0,0,0,0,0,0,0,0,0,0,0,0,0,0,0,0,0,0,0,0,0,0,0,0,0,0,0,0,0,0,0,0,0,0,0,0,0,0,0,0,0,0,0,0,0,0,0,0,0,0,0,0,0,0,0,0,0,0,0,0,0,0,0,0,0,0,0,0,0,0,0,0,0,0,0,0,0,0,0,0,0,0,0,0,0,0,0,0,0,0,0,0,0,0,0,0,0,0,0,0,0,0,0,0,0,0,0,0,0,0,0,0,0,0,0,0,0,0,0,0,0,0,0,0,0,0,0,0,0,0,0,0,0,0,466,587,587,587,586,587,587,586,586,586,587,586,586,587,587,587,586,587,587,586,586,586,587,586,586,587,586,587,587,587,586,587,586,587,586,586,587,586,586,586,587,586,587,586,586,586,587,495,0,0,0,0,0,0,0,0,0,0,0,0,0,0,0,0,557,670,670,670,670,670,670,670,670,670,670,670,670,670,670,670,670,670,670,670,670,670,670,670,670,670,670,670,670,670,670,670,670,670,670,670,670,670,670,670,670,670,670,670,670,670,670,609,0,0,0,0,0,0,0,0,0,0,0,0,0,0,0,0,557,670,670,670,670,670,670,670,670,670,670,670,670,670,670,670,670,670,670,670,670,670,670,670,670,670,670,670,670,670,670,670,670,670,670,670,670,670,670,670,670,670,670,670,670,670,670,609,0,0,0,0,0,0,0,0,0,0,0,0,0,0,0,0,556,670,670,670,670,670,670,670,670,670,670,670,670,670,670,670,670,670,670,670,670,670,670,670,670,670,670,670,670,670,670,670,670,670,670,670,670,670,670,670,670,670,670,670,670,670,670,608,0,0,0,0,0,0,0,0,0,0,0,0,0,0,0,0,556,670,670,670,670,670,670,670,670,670,670,670,670,670,670,670,670,670,670,670,670,670,670,670,670,670,670,670,670,670,670,670,670,670,670,670,670,670,670,670,670,670,670,670,670,670,670,608,0,0,0,0,0,0,0,0,0,0,0,0,0,0,0,0,556,670,670,670,670,670,670,670,670,670,670,670,670,670,670,670,670,670,670,670,670,670,670,670,670,670,670,670,670,670,670,670,670,670,670,670,670,670,670,670,670,670,670,670,670,670,670,609,0,0,0,0,0,0,0,0,0,0,0,0,0,0,0,0,557,670,670,670,670,670,670,670,670,670,670,670,670,670,670,670,670,670,670,670,670,670,670,670,670,670,670,670,670,670,670,670,670,670,670,670,670,670,670,670,670,670,670,670,670,670,670,609,0,0,0,0,0,0,0,0,0,0,0,0,0,0,0,0,557,670,670,670,670,670,670,670,670,670,670,670,670,670,670,670,670,670,670,670,670,670,670,670,670,670,670,670,670,670,670,670,670,670,670,670,670,670,670,670,670,670,670,670,670,670,670,608,0,0,0,0,0,0,0,0,0,0,0,0,0,0,0,0,557,670,670,670,670,670,670,670,670,670,670,670,670,670,670,670,670,670,670,670,670,670,670,670,670,670,670,670,670,670,670,670,670,670,670,670,670,670,670,670,670,670,670,670,670,670,670,608,0,0,0,0,0,0,0,0,0,0,0,0,0,0,0,0,557,670,670,670,670,670,670,670,670,670,670,670,670,670,670,670,670,670,670,670,670,670,670,670,670,670,670,670,670,670,670,670,670,670,670,670,670,670,670,670,670,670,670,670,670,670,670,608,0,0,0,0,0,0,0,0,0,0,0,0,0,0,0,0,557,670,670,670,670,670,670,670,670,670,670,670,670,670,670,670,670,670,670,670,670,670,670,670,670,670,670,670,670,670,670,670,670,670,670,670,670,670,670,670,670,670,670,670,670,670,670,608,0,0,0,0,0,0,0,0,0,0,0,0,0,0,0,0,556,670,670,670,670,670,670,670,670,670,670,645,554,555,555,554,555,554,554,554,554,554,554,555,555,554,555,554,555,554,554,555,555,555,554,555,642,670,670,670,670,670,670,670,670,670,670,609,0,0,0,0,0,0,0,0,0,0,0,0,0,0,0,0,556,670,670,670,670,670,670,670,670,670,670,608,0,0,0,0,0,0,0,0,0,0,0,0,0,0,0,0,0,0,0,0,0,0,0,0,557,670,670,670,670,670,670,670,670,670,670,608,0,0,0,0,0,0,0,0,0,0,0,0,0,0,0,0,556,670,670,670,670,670,670,670,670,670,670,609,0,0,0,0,0,0,0,0,0,0,0,0,0,0,0,0,0,0,0,0,0,0,0,0,556,670,670,670,670,670,670,670,670,670,670,609,0,0,0,0,0,0,0,0,0,0,0,0,0,0,0,0,556,670,670,670,670,670,670,670,670,670,670,608,0,0,0,0,0,0,0,0,0,0,0,0,0,0,0,0,0,0,0,0,0,0,0,0,556,670,670,670,670,670,670,670,670,670,670,608,0,0,0,0,0,0,0,0,0,0,0,0,0,0,0,0,556,670,670,670,670,670,670,670,670,670,670,608,0,0,0,0,0,0,0,0,0,0,0,0,0,0,0,0,0,0,0,0,0,0,0,0,557,670,670,670,670,670,670,670,670,670,670,609,0,0,0,0,0,0,0,0,0,0,0,0,0,0,0,0,556,670,670,670,670,670,670,670,670,670,670,669,587,586,586,587,587,586,586,587,587,587,587,587,587,587,586,587,586,587,587,587,587,587,586,586,647,670,670,670,670,670,670,670,670,670,670,609,0,0,0,0,0,0,0,0,0,0,0,0,0,0,0,0,557,670,670,670,670,670,670,670,670,670,670,670,670,670,670,670,670,670,670,670,670,670,670,670,670,670,670,670,670,670,670,670,670,670,670,670,670,670,670,670,670,670,670,670,670,670,670,609,0,0,0,0,0,0,0,0,0,0,0,0,0,0,0,0,557,670,670,670,670,670,670,670,670,670,670,670,670,670,670,670,670,670,670,670,670,670,670,670,670,670,670,670,670,670,670,670,670,670,670,670,670,670,670,670,670,670,670,670,670,670,670,609,0,0,0,0,0,0,0,0,0,0,0,0,0,0,0,0,557,670,670,670,670,670,670,670,670,670,670,670,670,670,670,670,670,670,670,670,670,670,670,670,670,670,670,670,670,670,670,645,555,554,555,555,554,554,554,555,555,554,554,555,642,670,670,609,0,0,0,0,0,0,0,0,0,0,0,0,0,0,0,0,556,670,670,670,670,670,670,670,670,670,670,670,670,670,670,670,670,670,670,670,670,670,670,670,670,670,670,670,670,670,670,609,0,0,0,0,0,0,0,0,0,0,0,0,556,670,670,609,0,0,0,0,0,0,0,0,0,0,0,0,0,0,0,0,556,670,670,670,670,670,670,670,670,670,670,670,670,670,670,670,670,670,670,670,670,670,670,670,670,670,670,670,670,670,670,608,0,0,0,0,0,0,0,0,0,0,0,0,556,670,670,609,0,0,0,0,0,0,0,0,0,0,0,0,0,0,0,0,557,670,670,670,670,670,670,670,670,670,670,670,670,670,670,670,670,670,670,670,670,670,670,670,670,670,670,670,670,670,670,608,0,0,0,0,0,0,0,0,0,0,0,0,556,670,670,608,0,0,0,0,0,0,0,0,0,0,0,0,0,0,0,0,557,670,670,670,670,670,670,670,670,670,670,670,670,670,670,670,670,670,670,670,670,670,670,670,670,670,670,670,670,670,670,608,0,0,0,0,0,0,0,0,0,0,0,0,557,670,670,608,0,0,0,0,0,0,0,0,0,0,0,0,0,0,0,0,556,670,670,670,670,670,670,670,670,670,670,670,670,670,670,670,670,670,670,670,670,670,670,670,670,670,670,670,670,670,670,609,0,0,0,0,0,0,0,0,0,0,0,0,557,670,670,609,0,0,0,0,0,0,0,0,0,0,0,0,0,0,0,0,557,670,670,670,670,670,670,670,670,670,670,670,670,670,670,670,670,670,670,670,670,670,670,670,670,670,670,670,670,670,670,609,0,0,0,0,0,0,0,0,0,0,0,0,556,670,670,609,0,0,0,0,0,0,0,0,0,0,0,0,0,0,0,0,557,670,670,670,670,670,670,670,670,670,670,670,670,670,670,670,670,670,670,670,670,670,670,670,670,670,670,670,670,670,670,609,0,0,0,0,0,0,0,0,0,0,0,0,557,670,670,609,0,0,0,0,0,0,0,0,0,0,0,0,0,0,0,0,557,670,670,670,670,670,670,670,670,670,670,670,670,670,670,670,670,670,670,670,670,670,670,670,670,670,670,670,670,670,670,608,0,0,0,0,0,0,0,0,0,0,0,0,557,670,670,609,0,0,0,0,0,0,0,0,0,0,0,0,0,0,0,0,557,670,670,670,670,670,670,670,670,670,670,670,670,670,670,670,670,670,670,670,670,670,670,670,670,670,670,670,670,670,670,669,586,587,586,586,586,586,586,587,587,587,587,587,646,670,670,609,0,0,0,0,0,0,0,0,0,0,0,0,0,0,0,0,557,670,670,670,670,670,670,670,670,670,670,670,670,670,670,670,670,670,670,670,670,670,670,670,670,670,670,670,670,670,670,670,670,670,670,670,670,670,670,670,670,670,670,670,670,670,670,608,0,0,0,0,0,0,0,0,0,0,0,0,0,0,0,0,557,670,670,670,670,670,670,670,670,670,670,670,670,670,670,670,670,670,670,670,670,670,670,670,670,670,670,670,670,670,670,670,670,670,670,670,670,670,670,670,670,670,670,670,670,670,670,609,0,0,0,0,0,0,0,0,0,0,0,0,0,0,0,0,461,555,555,555,554,555,555,555,554,554,554,554,555,554,554,555,555,554,555,555,555,555,554,554,643,670,670,645,554,555,555,555,554,555,554,554,555,554,555,555,554,555,554,555,555,555,555,491,0,0,0,0,0,0,0,0,0,0,0,0,0,0,0,0,0,0,0,0,0,0,0,0,0,0,0,0,0,0,0,0,0,0,0,0,0,0,0,0,556,670,670,608,0,0,0,0,0,0,0,0,0,0,0,0,0,0,0,0,0,0,0,0,0,0,0,0,0,0,0,0,0,0,0,0,0,0,0,0,0,0,0,0,0,0,0,0,0,0,0,0,0,0,0,0,0,0,0,0,0,0,0,0,557,670,670,608,0,0,0,0,0,0,0,0,0,0,0,0,0,0,0,0,0,0,0,0,0,0,0,0,0,0,0,0,0,0,0,0,0,0,0,0,0,0,0,0,0,0,0,0,0,0,0,0,0,0,0,0,0,0,0,0,0,0,0,0,556,670,670,608,0,0,0,0,0,0,0,0,0,0,0,0,0,0,0,0,0,0,0,0,0,0,0,0,0,0,0,0,0,0,0,0,0,0,0,0,0,0,0,0,0,0,0,0,0,0,0,0,0,0,0,0,0,0,0,0,0,0,0,0,557,670,670,608,0,0,0,0,0,0,0,0,0,0,0,0,0,0,0,0,0,0,0,0,0,0,0,0,0,0,0,0,0,0,0,0,0,0,0,0,0,0,0,0,0,0,0,0,0,0,0,0,0,0,0,0,0,0,0,0,0,0,0,0,557,670,670,608,0,0,0,0,0,0,0,0,0,0,0,0,0,0,0,0,0,0,0,0,0,0,0,0,0,0,0,0,0,0,0,0,0,0,0,0,0,0,0,0,0,0,0,0,0,0,0,0,0,0,0,0,0,0,0,0,0,0,0,0,557,670,670,609,0,0,0,0,0,0,0,0,0,0,0,0,0,0,0,0,0,0,0,0,0,0,0,0,0,0,0,0,0,0,0,0,0,0,0,0,0,0,0,0,0,0,0,0,0,0,0,0,0,0,0,0,0,0,0,0,0,0,0,0,556,670,670,609,0,0,0,0,0,0,0,0,0,0,0,0,0,0,0,0,0,0,0,0,0,0,0,0,0,0,0,0,0,0,0,0,0,0,0,0,0,0,0,0,0,0,0,0,0,0,0,0,0,0,0,0,0,0,0,0,0,0,0,0,557,670,670,608,0,0,0,0,0,0,0,0,0,0,0,0,0,0,0,0,0,0,0,0,0,0,0,0,0,0,0,0]},{"id":3,"name":"water","type":"tilelayer","width":64,"height":48,"x":0,"y":0,"opacity":1,"visible":true,"data":[0,0,0,0,0,0,0,0,0,0,0,0,0,0,0,0,0,0,0,0,0,0,0,0,0,0,0,0,0,0,0,0,0,0,0,0,0,0,0,0,0,0,0,0,0,0,0,0,0,0,0,0,0,0,0,0,0,0,0,0,0,0,0,0,0,0,0,0,0,0,0,0,0,0,0,0,0,0,0,0,0,0,0,0,0,0,0,0,0,0,0,0,0,0,0,0,0,0,0,0,0,0,0,0,0,0,0,0,0,0,0,0,0,0,0,0,0,0,0,0,0,0,0,0,0,0,0,0,0,0,0,0,0,0,0,0,0,0,0,0,0,0,0,0,0,0,0,0,0,0,0,0,0,0,0,0,0,0,0,0,0,0,0,0,0,0,0,0,0,0,0,0,0,0,0,0,0,0,0,0,0,0,0,0,0,0,0,0,0,0,0,0,0,0,0,0,0,0,0,0,0,0,0,0,0,0,0,0,0,0,0,0,0,0,0,0,0,0,0,0,0,0,0,0,0,0,0,0,0,0,0,0,0,0,0,0,0,0,0,0,0,0,0,0,0,0,0,0,0,0,0,0,0,0,0,0,0,0,0,0,0,0,0,0,0,0,0,0,0,0,0,0,0,0,0,0,0,0,0,0,0,0,0,0,0,0,0,0,0,0,0,0,0,0,0,0,0,0,0,0,0,0,0,0,0,0,0,0,0,0,0,0,0,0,0,0,0,0,0,0,0,0,0,0,0,0,0,0,0,0,0,0,0,0,0,0,0,0,0,0,0,0,0,0,0,0,0,0,0,0,0,0,0,0,0,0,0,0,0,0,0,0,0,0,0,0,0,0,0,0,0,0,0,0,0,0,0,0,0,0,0,0,0,0,0,0,0,0,0,0,0,0,0,0,0,0,0,0,0,0,0,0,0,0,0,0,0,0,0,0,0,0,0,0,0,0,0,0,0,0,0,0,0,0,0,0,0,0,0,0,0,0,0,0,0,0,0,0,0,0,0,0,0,0,0,0,0,0,0,0,0,0,0,0,0,0,0,0,0,0,0,0,0,0,0,0,0,0,0,0,0,0,0,0,0,0,0,0,0,0,0,0,0,0,0,0,0,0,0,0,0,0,0,0,0,0,0,0,0,0,0,0,0,0,0,0,0,0,0,0,0,0,0,0,0,0,0,0,0,0,0,0,0,0,0,0,0,0,0,0,0,0,0,0,0,0,0,0,0,0,0,0,0,0,0,0,0,0,0,0,0,0,0,0,0,0,0,0,0,0,0,0,0,0,0,0,0,0,0,0,0,0,0,0,0,0,0,0,0,0,0,0,0,0,0,0,0,0,0,0,0,0,0,0,0,0,0,0,0,0,0,0,0,0,0,0,0,0,0,0,0,0,0,0,0,0,0,0,0,0,0,0,0,0,0,0,0,0,0,0,0,0,0,0,0,0,0,0,0,0,0,0,0,0,0,0,0,0,0,0,0,0,0,0,0,0,0,0,0,0,0,0,0,0,0,0,0,0,0,0,0,0,0,0,0,0,0,0,0,0,0,0,0,0,0,0,0,0,0,0,0,0,0,0,0,0,0,0,0,0,0,0,0,0,0,0,0,0,0,0,0,0,0,0,0,0,0,0,0,0,0,0,0,0,0,0,0,0,0,0,0,0,0,0,0,0,0,0,0,0,0,0,0,0,0,0,0,0,0,0,0,0,0,0,0,0,0,0,0,0,0,0,0,0,0,0,0,0,0,0,0,0,0,0,0,0,0,0,0,0,0,0,0,0,0,0,0,0,0,0,0,0,0,0,0,0,0,0,0,0,0,0,0,0,0,0,0,0,0,0,0,0,0,0,0,0,0,0,0,0,0,0,0,0,0,0,0,0,0,0,0,0,0,0,0,0,0,0,0,0,0,0,0,0,0,0,0,0,0,0,0,0,0,0,0,0,0,0,0,0,0,0,0,0,0,0,0,0,0,0,0,0,0,0,0,0,0,0,0,0,0,0,0,0,0,0,0,0,0,0,0,0,0,0,0,0,0,0,0,0,0,0,0,0,0,0,0,0,0,0,0,0,0,0,0,0,0,0,0,0,0,0,0,0,0,0,0,0,0,0,0,0,0,0,0,0,0,0,0,0,0,0,0,0,0,0,0,0,0,0,0,0,0,0,0,0,0,0,0,0,0,0,0,0,0,0,0,0,0,0,0,0,0,0,0,0,0,0,0,0,0,0,0,0,0,0,0,0,0,0,0,0,0,0,0,0,0,0,0,0,0,0,0,0,0,0,0,0,0,0,0,0,0,0,0,0,0,0,0,0,0,0,0,0,0,0,0,0,0,0,0,0,0,0,0,0,0,0,0,0,0,0,0,0,0,0,0,0,0,0,0,0,0,0,0,0,0,0,0,0,0,0,0,0,0,0,0,0,0,0,0,0,0,0,0,0,0,0,0,0,0,0,0,0,0,0,0,0,0,0,0,0,0,0,0,0,0,0,0,0,0,0,0,0,0,0,0,0,0,0,0,0,0,0,0,0,0,0,0,0,0,0,0,0,0,0,0,0,0,0,0,0,0,0,0,0,0,0,0,0,0,0,0,0,0,0,0,0,0,0,0,0,0,0,0,0,0,0,0,0,0,0,0,0,0,0,0,0,0,0,0,0,0,0,0,0,0,0,0,0,0,0,0,0,0,0,0,0,0,0,0,0,0,0,0,0,0,0,0,0,0,0,0,0,0,0,0,0,0,0,0,0,0,0,0,0,0,0,0,0,0,0,0,0,0,0,0,0,0,0,0,0,0,0,0,0,0,0,0,0,0,0,0,0,0,0,0,0,0,0,0,0,0,0,0,0,0,0,0,0,0,0,0,0,0,0,0,0,0,0,0,0,0,0,0,0,0,0,0,0,0,0,0,0,0,0,0,0,0,0,0,0,0,0,0,0,0,0,0,0,0,0,0,0,0,0,0,0,0,0,0,0,0,0,0,0,0,0,0,0,0,0,0,0,0,0,0,0,0,0,0,0,0,0,0,0,0,0,0,0,0,0,0,0,0,0,0,0,0,0,0,0,0,0,0,0,0,0,0,0,0,0,0,0,0,0,0,0,0,0,0,0,0,0,0,0,0,0,0,0,0,0,0,0,0,0,0,0,0,0,0,0,0,0,0,0,0,0,0,0,0,0,0,0,0,0,0,0,0,0,0,0,0,0,0,0,0,0,0,0,0,0,0,0,0,0,0,0,0,0,0,0,0,0,0,0,0,0,0,0,0,0,0,0,0,0,0,0,0,0,0,0,0,0,0,0,0,0,0,0,0,0,0,0,0,0,0,0,0,0,0,0,0,0,0,0,0,0,0,0,0,0,0,0,0,0,0,0,0,0,0,0,0,0,0,0,0,0,0,0,0,0,0,0,0,0,0,0,0,0,0,0,0,0,0,0,0,0,0,0,0,0,0,0,0,0,0,0,0,0,0,0,0,0,0,0,0,0,0,0,0,0,0,0,0,0,0,0,0,0,0,0,0,0,0,0,0,0,0,0,0,0,0,0,0,0,0,0,0,0,0,0,0,0,0,0,0,0,0,0,0,0,0,0,0,0,0,0,0,0,0,0,0,0,0,0,0,0,0,0,0,0,0,0,0,0,0,0,0,0,0,0,0,0,0,0,0,0,0,0,0,0,0,0,0,0,0,0,0,0,0,0,0,0,0,0,0,0,0,0,0,0,0,0,0,0,0,0,0,0,0,0,0,0,0,0,0,0,0,0,0,0,0,0,0,0,0,0,0,0,0,0,0,0,0,0,0,0,0,0,0,0,0,0,0,0,0,0,0,0,0,0,0,0,0,0,0,0,0,0,0,0,0,0,0,0,0,0,0,0,0,0,0,0,0,0,0,0,0,0,0,0,0,0,0,0,0,0,0,0,0,0,0,0,0,0,0,0,0,0,0,0,0,0,0,0,0,0,0,0,0,0,0,0,0,0,0,0,0,0,0,0,0,0,0,0,0,0,0,0,0,0,0,0,0,0,0,0,0,0,0,0,0,0,0,0,0,0,0,0,0,0,0,0,0,0,0,0,0,0,0,0,0,0,0,0,0,0,0,0,0,0,0,0,0,0,0,0,0,0,0,0,0,0,0,0,0,0,0,0,0,0,0,0,0,0,0,0,0,0,0,0,0,0,0,0,0,0,0,0,0,0,0,0,0,0,0,0,0,0,0,0,0,0,0,0,0,0,0,0,0,0,0,0,0,0,0,0,0,0,0,0,0,0,0,0,0,0,0,0,0,0,0,0,0,0,0,0,0,0,0,0,0,0,0,0,0,0,0,0,0,0,0,0,0,0,0,0,0,0,0,0,0,0,0,0,0,0,0,0,0,0,0,0,0,0,0,0,0,0,0,0,0,0,0,0,0,0,0,0,0,0,0,0,0,0,0,0,0,0,0,0,0,0,0,0,0,0,0,0,0,0,0,0,0,0,0,0,0,0,0,0,0,0,0,0,0,0,0,0,0,0,0,0,0,0,0,0,0,0,0,0,0,0,0,0,0,0,0,0,0,0,0,0,0,0,0,0,0,0,0,0,0,0,0,0,0,0,0,0,0,0,0,0,0,0,0,0,0,0,0,0,0,0,0,0,0,0,0,0,0,0,0,0,0,0,0,0,0,0,0,0,0,0,0,0,0,0,0,0,0,0,0,0,0,0,0,0,0,0,0,0,0,0,0,0,0,0,0,0,0,0,0,0,0,0,0,0,0,0,0,0,0,0,0,0,0,0,0,0,0,0,0,0,0,0,0,0,0,0,0,0,0,0,0,0,0,0,0,0,0,0,0,0,0,0,0,0,0,0,0,0,0,0,0,0,0,0,0,0,0,0,0,0,0,0,0,0,0,0,0,0,0,0,0,0,0,0,0,0,0,0,0,0,0,0,0,0,0,0,0,0,0,0,0,0,0,0,0,0,0,0,0,0,0,0,0,0,0,0,0,0,0,0,0,0,0,0,0,0,0,0,0,0,0,0,0,0,0,0,0,0,0,0,0,0,0,0,0,0,0,0,0,0,0,0,0,0,0,0,0,0,0,0,0,0,0,0,0,0,0,0,0,0,0,0,0,0,0,0,0,0,0,0,0,0,0,0,0,0,0,0,0,0,0,0,0,0,0,0,0,0,0,0,0,0,0,0,0,0,0,0,0,0,0,0,0,0,0,0,0,0,0,0,0,0,0,0,0,0,0,0,0,0,0,0,0,0,0,0,0,0,0,0,0,0,0,0,0,0,0,0,0,0,0,0,0,0,0,0,0,0,0,0,0,0,0,0,0,0,0,0,0,0,0,0,0,0,0,0,0,0,0,0,0,0,0,0,0,0,0,0,0,0,0,0,0,0,0,0,0,0,0,0,0,0,0,0,0,0,0,0,0,0,0,0,0,0,0,0,0,0,0,0,0,0,0,0,0,0,0,0,0,0,0,0,0,0,0,0,0,0,0,0,0,0,0,0,0,0,0,0,0,0,0,0,0,0,0,0,0,0,0,0,0,0,0,0,0,0,0,0,0,0,0,0,0,0,0,0,0,0,0,0,0,0,0,0,0,0,0,0,0,0,0,0,0,0,0,0,0,0,0,0,0,0,0,0,0,0,0,0,0,0,0,0,0,0,0,0,0,0,0,0,0,0,0,0,0,0,0,0,0,0,0,0,0,0,0,0,0,0,0,0,0,0,0,0,0,0,0,0,0,0,0,0,0,0,0,0,0,0,0,0,0,0,0,0,0,0,0,0,0,0,0,0,0,0,0,0,0,0,0,0,0,0,0,0,0,0,0,0,0,0,0,0,0,0,0,0,0,0,0,0,0,0,0,0,0,0,0,0,0,0,0,0,0,0,0,0,0,0,0,0,0,0,0,0,0,0,0,0,0,0,0,0,0,0,0,0,0,0,0,0,0,0,0,0,0,0,0,0,0,0,0,0,0,0,0,0,0,0,0,0,0,0,0,0,0,0,0,0,0,0,0,0,0,0,0,0,0,0,0,0,0,0,0,0,0,0,0,0,0,0,0,0,0,0,0,0,0,0,0,0,0,0,0,0,0,0,0,0,0,0,0,0,0,0,0,0,0,0,0,0,0,0,0,0,0,0,0,0,0,0,0,0,0,0,0,0,0,0,0,0,0,0,0,0,0,0,0,0,0,0,0,0,0,0,0,0,0,0,0,0,0,0,0,0,0,0,0,0,0,0,0,0,0,0,0,0,0,0,0,0,0,0,0,0,0,0,0,0,0,0,0,0,0,0,0,0,0,0,0,0,0,0,0,0,0,0,0,0,0,0,0,0,0,0,0,0,0,0,0,0,0,0,0,0,0,0,0,0,0,0,0,0,607,607,607,607,607,607,607,606,606,606,607,606,607,606,606,607,607,606,607,607,607,607,606,607,607,607,606,606,607,607,607,514,0,0,0,0,486,606,606,607,606,607,606,606,607,606,607,606,607,606,607,607,607,606,606,606,607,607,607,607,606,607,607,607,690,690,690,690,690,690,690,690,690,690,690,690,690,690,690,690,690,690,690,690,690,690,690,690,690,690,690,690,690,690,690,628,0,0,0,0,577,690,690,690,690,690,690,690,690,690,690,690,690,690,690,690,690,690,690,690,690,690,690,690,690,690,690,690,690,690,690,690,690,690,690,690,690,690,690,690,690,690,690,690,690,690,690,690,690,690,690,690,690,690,690,690,690,690,690,629,0,0,0,0,576,690,690,690,690,690,690,690,690,690,690,690,690,690,690,690,690,690,690,690,690,690,690,690,690,690,690,690,690,690,690,690,690,690,690,690,690,690,690,690,690,690,690,690,690,690,690,690,690,690,690,690,690,690,690,690,690,690,690,629,0,0,0,0,576,690,690,690,690,690,690,690,690,690,690,690,690,690,690,690,690,690,690,690,690,690,690,690,690,690,690,690]},{"id":4,"name":"detail","type":"tilelayer","width":64,"height":48,"x":0,"y":0,"opacity":1,"visible":true,"data":[0,0,0,0,0,0,0,859,0,0,0,0,0,0,0,0,0,0,0,0,0,0,0,0,0,0,0,859,896,0,0,0,0,0,0,0,0,0,0,0,0,0,0,0,0,0,0,0,0,0,0,0,0,0,0,912,0,0,913,0,0,0,0,0,0,0,897,0,896,0,0,0,0,0,0,0,0,0,0,0,860,0,0,0,0,0,912,0,0,0,0,0,912,0,0,0,0,0,0,0,0,0,0,0,0,0,0,0,0,0,0,0,0,0,0,0,0,0,0,0,0,0,0,0,0,0,0,0,0,0,0,0,0,0,0,0,0,0,0,0,0,0,896,0,0,0,0,0,0,0,0,0,0,0,0,0,0,0,0,0,0,913,0,0,0,0,0,0,0,0,0,0,0,0,0,0,0,0,0,0,0,897,896,0,0,0,0,0,0,897,0,0,0,0,0,0,0,0,0,0,0,913,0,0,0,0,0,0,0,912,0,912,859,0,0,896,0,0,0,0,0,0,0,0,0,0,0,0,860,0,0,0,0,0,0,0,0,0,0,0,0,0,0,0,0,0,0,0,0,0,0,0,0,0,0,0,0,0,0,912,0,0,0,0,0,0,912,0,0,0,0,0,0,0,0,897,0,0,897,0,897,0,0,913,0,0,0,912,0,0,0,0,0,0,0,0,859,0,0,913,0,0,0,0,0,0,0,913,0,897,0,0,0,896,0,0,0,0,0,913,0,0,0,0,0,0,860,0,0,913,0,0,0,0,896,0,0,0,0,0,0,0,0,0,0,0,860,0,0,0,0,0,0,0,0,0,0,0,0,0,0,0,0,912,0,0,0,0,913,0,860,896,0,0,0,0,0,0,0,897,0,0,0,0,0,0,0,0,0,0,0,0,0,0,0,0,0,0,0,0,0,0,0,0,0,0,0,0,0,0,0,0,0,0,0,0,0,0,0,0,0,0,0,0,0,0,0,0,0,0,0,0,0,0,0,0,0,0,0,0,0,0,0,0,0,0,0,0,0,0,0,0,0,0,0,0,0,0,0,0,0,0,0,0,0,0,0,0,0,0,0,0,0,0,0,0,0,0,0,0,0,0,0,0,0,0,0,0,0,0,0,0,0,0,0,0,0,0,0,0,0,0,0,0,0,0,0,0,0,0,0,0,0,0,0,0,0,0,0,0,0,0,0,0,0,0,0,0,0,0,0,0,0,0,0,0,0,0,0,0,0,0,0,0,0,0,0,0,0,0,0,0,0,0,0,0,0,0,0,0,0,0,0,0,0,0,0,0,0,0,0,0,0,0,0,0,0,0,0,0,896,0,0,0,0,0,0,0,0,0,0,0,0,0,0,0,0,0,0,0,0,0,0,0,0,0,0,0,0,0,0,0,0,0,0,0,0,0,0,0,0,0,0,0,0,0,0,0,0,0,0,0,0,0,0,0,0,0,859,0,0,0,897,0,0,0,0,0,0,0,0,0,0,0,0,0,0,0,0,0,0,0,0,0,0,0,0,0,0,0,0,0,0,0,0,0,0,0,0,0,0,0,0,0,0,0,0,0,0,0,0,0,0,0,0,0,0,0,0,0,0,912,0,0,0,0,0,0,0,0,0,0,0,0,0,0,0,0,0,0,0,0,0,0,0,0,0,0,0,0,0,0,0,0,0,0,0,0,0,0,0,0,0,0,0,0,0,0,0,0,0,0,0,0,0,0,0,0,0,0,0,0,0,0,0,0,0,0,0,0,0,0,0,0,0,0,0,0,0,0,0,0,0,0,0,0,0,0,0,0,0,0,0,0,0,0,0,0,0,0,0,0,0,0,0,0,0,0,0,0,0,0,0,0,0,0,0,0,0,0,0,0,0,0,0,0,0,896,0,0,0,0,912,0,0,0,0,0,0,0,0,0,0,0,0,0,0,0,0,0,0,0,0,0,0,0,0,0,0,0,0,0,0,0,0,0,0,0,0,0,0,0,0,0,0,0,0,0,0,0,0,0,0,0,0,0,0,0,0,0,0,0,0,0,0,0,0,0,0,0,0,897,0,0,0,0,0,0,0,0,0,0,0,0,0,0,0,0,0,0,0,0,0,0,0,0,0,0,0,0,0,0,0,0,0,0,0,0,0,0,0,0,0,0,0,0,0,0,0,0,0,0,0,0,0,0,0,0,0,0,0,0,0,0,0,0,0,0,0,0,0,0,0,0,0,0,0,0,0,0,0,0,0,0,0,0,0,0,0,0,0,0,0,0,0,0,0,0,0,0,0,0,0,0,0,0,0,0,0,0,0,0,0,0,0,0,0,0,0,0,0,0,0,896,0,912,0,0,0,0,0,0,0,0,0,0,0,0,0,0,0,0,0,0,0,0,0,0,0,0,0,0,0,0,0,0,0,0,0,0,0,0,0,0,0,0,0,0,0,0,0,0,0,0,0,0,0,0,0,0,0,0,0,0,0,0,913,0,0,0,0,0,0,0,0,0,0,0,0,0,0,0,0,0,0,0,0,0,0,0,0,0,0,0,0,0,0,0,0,0,0,0,0,0,0,0,0,0,0,0,0,0,0,0,0,0,0,0,0,0,0,0,0,0,0,0,0,0,912,860,0,0,0,0,0,0,0,0,0,0,0,0,0,0,0,0,0,0,0,0,0,0,0,0,0,0,0,0,0,0,0,0,0,0,0,0,0,0,0,0,0,0,0,0,0,0,0,0,0,0,0,0,0,0,0,0,0,0,0,0,0,912,897,0,0,0,0,0,0,0,0,0,0,0,0,0,0,0,0,0,0,0,0,0,0,0,0,0,0,0,0,0,0,0,0,0,0,0,0,0,0,0,0,0,0,0,0,0,0,0,0,0,0,0,0,0,0,0,0,0,0,0,0,0,897,0,0,896,0,0,0,0,0,0,897,0,0,0,0,0,0,0,0,0,0,0,0,0,0,0,0,0,0,0,0,0,0,0,0,0,0,0,0,0,0,0,0,0,0,0,0,0,0,0,0,0,0,0,0,0,0,0,0,0,0,0,0,0,0,0,0,0,0,0,0,0,897,0,0,0,0,0,0,0,0,0,0,0,0,0,0,0,0,0,0,0,0,0,0,0,0,0,0,0,0,0,0,0,0,0,0,0,0,0,0,0,0,0,0,0,0,0,0,0,0,0,0,0,0,0,0,0,0,0,0,896,0,0,0,0,0,912,0,913,0,0,0,0,0,0,0,0,0,0,0,0,0,0,0,0,0,0,0,0,0,0,0,0,0,0,0,0,0,0,0,0,0,0,0,0,0,0,0,0,0,0,0,0,0,0,0,0,0,0,0,0,0,0,0,0,0,0,0,0,0,859,0,0,0,0,0,0,0,0,0,0,0,0,0,0,0,0,0,0,0,0,0,0,0,0,0,0,0,0,0,0,0,0,0,0,0,0,0,0,0,0,0,0,0,0,0,0,0,0,0,0,0,0,0,0,0,0,0,912,0,0,0,0,0,0,0,0,0,0,0,0,0,0,0,0,0,0,0,0,0,0,0,0,0,0,0,0,0,0,0,0,0,0,0,0,0,0,0,0,0,0,0,0,0,0,0,0,0,0,0,0,0,0,0,0,0,0,0,0,0,0,0,0,0,0,0,897,0,0,0,0,0,0,0,0,0,0,0,0,0,0,0,0,0,0,0,0,0,0,0,0,0,0,0,0,0,0,0,0,0,0,0,0,0,0,0,0,0,0,0,0,0,0,0,0,0,0,0,0,0,0,0,0,912,0,0,0,0,0,0,0,0,0,912,0,0,0,0,0,0,0,0,0,0,0,0,0,0,0,0,0,0,0,0,0,0,0,0,0,0,0,0,0,0,0,0,0,0,0,0,0,0,0,0,0,0,0,0,0,0,0,0,0,0,0,0,0,0,0,0,0,0,0,0,913,0,0,0,0,0,0,0,0,0,0,0,0,0,0,0,0,0,0,0,0,0,0,0,0,0,0,0,0,0,0,0,0,0,0,0,0,0,0,0,0,0,0,0,0,0,0,0,0,0,0,0,0,0,0,0,0,0,896,0,0,0,0,896,859,0,0,0,896,0,0,0,0,0,0,0,0,0,0,0,0,0,0,0,0,0,0,0,0,0,0,0,0,0,0,0,0,0,0,0,0,0,0,0,0,0,0,0,0,0,0,0,0,0,0,0,0,0,0,0,0,0,0,0,0,0,0,0,0,0,0,0,0,0,0,0,0,0,0,0,0,0,0,0,0,0,0,0,0,0,0,0,0,0,0,0,0,0,0,0,0,0,0,0,0,0,0,0,0,0,0,0,0,0,0,0,0,0,0,0,0,0,0,0,0,0,0,0,0,0,0,0,913,0,0,0,0,0,0,0,0,0,0,0,0,0,0,0,0,0,0,0,0,0,0,0,0,0,0,0,0,0,0,0,0,0,0,0,0,0,0,0,0,0,0,0,0,0,0,0,0,0,0,0,0,0,0,0,0,912,0,0,0,0,0,0,0,0,859,0,0,0,0,0,0,0,0,0,0,0,0,0,0,0,0,0,0,0,0,0,0,0,0,0,0,0,0,0,0,0,0,0,0,0,0,0,0,0,0,0,0,0,0,0,0,0,0,0,0,0,0,0,0,0,0,0,0,0,0,913,0,0,0,0,0,0,0,0,0,0,0,0,0,0,0,0,0,0,0,0,0,0,0,0,0,0,0,0,0,0,0,0,0,0,0,0,0,0,0,0,0,0,0,0,0,0,0,0,0,0,0,0,0,0,0,0,0,912,0,0,913,0,0,0,0,0,0,0,0,0,0,0,0,0,0,0,0,0,0,0,0,0,0,0,0,0,0,0,0,0,0,0,0,0,0,0,0,0,0,0,0,0,0,0,0,0,0,0,0,0,0,0,0,0,0,0,0,0,0,0,0,0,0,0,0,0,0,0,913,0,0,0,0,0,0,0,0,0,0,0,0,0,0,0,0,0,0,0,0,0,0,0,0,0,0,0,0,0,0,0,0,0,0,0,0,0,0,0,0,0,0,0,0,0,0,0,0,0,0,0,0,0,0,0,0,0,0,0,0,0,0,896,0,0,0,859,0,0,0,0,0,0,0,0,0,0,0,0,0,0,0,0,0,0,0,0,0,0,0,0,0,0,0,0,0,0,0,0,0,0,0,0,0,0,0,0,0,0,0,0,0,0,0,0,0,0,0,0,0,0,0,0,913,0,0,0,0,0,0,0,0,0,0,0,0,0,0,0,0,0,0,0,0,0,0,0,0,0,0,0,0,0,0,0,0,0,0,0,0,0,0,0,0,0,0,0,0,0,0,0,0,0,0,0,0,0,0,0,0,0,0,0,0,0,0,896,0,0,0,0,0,0,0,0,0,0,0,0,0,0,0,0,0,0,0,0,0,0,0,0,0,0,0,0,0,0,0,0,0,0,0,0,0,0,0,0,0,0,0,0,0,0,0,0,0,0,0,0,0,0,0,0,0,0,0,0,0,0,0,0,0,0,0,0,0,0,0,0,0,0,0,0,0,0,0,0,0,0,0,0,0,0,0,0,0,0,0,0,0,0,0,0,0,0,0,0,0,0,0,0,0,0,0,0,0,0,0,0,0,0,0,0,0,0,0,0,0,0,0,0,0,0,0,0,913,0,0,0,0,0,0,859,0,0,0,0,0,0,0,0,0,0,0,0,0,0,0,0,0,0,0,0,0,0,0,0,0,0,0,0,0,0,0,0,0,0,0,0,0,0,0,0,0,0,0,0,0,0,0,0,0,0,0,0,0,0,0,0,859,0,0,0,0,0,0,0,897,0,0,0,0,0,0,0,0,0,0,0,0,0,0,0,0,0,0,0,0,0,0,0,0,0,0,0,0,0,0,0,0,0,0,0,0,0,0,0,0,0,0,0,0,0,0,0,0,0,0,0,0,0,860,0,0,0,0,0,0,0,0,913,0,0,0,0,0,0,0,0,0,0,0,0,0,0,0,0,0,0,0,0,0,0,0,0,0,0,0,0,0,0,0,0,0,0,0,0,0,0,0,0,0,0,0,0,0,0,0,0,0,0,0,0,0,896,0,0,0,0,913,896,0,0,0,0,0,0,896,0,0,0,0,897,0,0,0,0,0,0,0,0,0,0,0,0,0,0,0,0,0,0,0,0,0,0,0,0,0,0,897,0,0,0,0,0,0,912,0,0,0,0,0,859,0,0,0,0,0,0,0,0,0,0,0,0,0,0,0,0,0,0,0,0,0,0,0,0,0,0,0,896,0,0,0,0,0,0,0,0,0,0,0,0,0,897,0,0,0,0,0,897,0,0,0,0,0,0,0,0,0,0,0,896,0,0,0,0,0,0,0,0,0,0,0,0,0,0,0,0,0,0,0,0,0,0,0,0,0,0,0,0,0,0,0,0,0,0,0,0,0,0,0,0,0,0,0,0,0,0,0,0,0,0,0,0,0,0,0,0,0,0,0,0,0,0,0,0,0,0,0,0,0,0,0,0,0,0,0,0,0,0,0,0,0,0,0,0,0,0,0,0,0,0,0,0,0,0,0,0,0,0,0,0,0,0,0,0,0,0,0,0,0,0,0,0,0,0,0,0,0,0,0,0,0,0,0,0,0,0,0,0,0,0,0,0,0,0,0,0,0,0,0,0,0,0,0,0,0,0,0,0,0,0,0,0,0,0,0,0,0,0,0,0,0,0,0,0,0,0,0,0,0,0,0,0,0,0,0,0,0,0,0,0,0,0,0,0,0,0,0,0,0,0,0,0,0,0,0,0,0,0,0,0,0,0,0,0,0,0,0,0,0,0,0,0,0,0,0,0,0,0,0,0,0,0,0,0,0,0,0,0,0,0,0,0,0,0,0,0,0,0,0,0,0,0,0,0,0,0,0,0,0,0,0,0,0,0,0,0,0,0,0,0,0,0,0,0,0,0,0,0,0,0,0]},{"id":5,"name":"objects","type":"objectgroup","draworder":"topdown","x":0,"y":0,"opacity":1,"visible":true,"objects":[{"id":1,"name":"building.gate#0","type":"prop","x":544.0,"y":672,"width":0,"height":0,"rotation":0,"visible":true,"point":true,"properties":[{"name":"kind","type":"string","value":"building.gate"},{"name":"fw","type":"int","value":64},{"name":"fh","type":"int","value":32},{"name":"solid","type":"bool","value":false},{"name":"ref","type":"string","value":"south-gate"}]},{"id":2,"name":"building.hall_grand#0","type":"prop","x":512.0,"y":304,"width":0,"height":0,"rotation":0,"visible":true,"point":true,"properties":[{"name":"kind","type":"string","value":"building.hall_grand"},{"name":"fw","type":"int","value":160},{"name":"fh","type":"int","value":80},{"name":"solid","type":"bool","value":true},{"name":"ref","type":"string","value":"zhoufu"},{"name":"plaque","type":"string","value":"荆州府"},{"name":"cl","type":"float","value":55.0},{"name":"cr","type":"float","value":55.0}]},{"id":3,"name":"building.house#0","type":"prop","x":192.0,"y":560,"width":0,"height":0,"rotation":0,"visible":true,"point":true,"properties":[{"name":"kind","type":"string","value":"building.house"},{"name":"fw","type":"int","value":64},{"name":"fh","type":"int","value":32},{"name":"solid","type":"bool","value":true},{"name":"ref","type":"string","value":"house-1"},{"name":"cl","type":"float","value":20.0},{"name":"cr","type":"float","value":20.0}]},{"id":4,"name":"building.house#0","type":"prop","x":320.0,"y":560,"width":0,"height":0,"rotation":0,"visible":true,"point":true,"properties":[{"name":"kind","type":"string","value":"building.house"},{"name":"fw","type":"int","value":64},{"name":"fh","type":"int","value":32},{"name":"solid","type":"bool","value":true},{"name":"ref","type":"string","value":"house-2"},{"name":"cl","type":"float","value":20.0},{"name":"cr","type":"float","value":20.0}]},{"id":5,"name":"market.stalls#0","type":"prop","x":768.0,"y":496,"width":0,"height":0,"rotation":0,"visible":true,"point":true,"properties":[{"name":"kind","type":"string","value":"market.stalls"},{"name":"fw","type":"int","value":96},{"name":"fh","type":"int","value":32},{"name":"solid","type":"bool","value":true},{"name":"ref","type":"string","value":"stalls"}]},{"id":6,"name":"building.house#0","type":"prop","x":800.0,"y":240,"width":0,"height":0,"rotation":0,"visible":true,"point":true,"properties":[{"name":"kind","type":"string","value":"building.house"},{"name":"fw","type":"int","value":64},{"name":"fh","type":"int","value":32},{"name":"solid","type":"bool","value":true},{"name":"ref","type":"string","value":"house-3"},{"name":"cl","type":"float","value":20.0},{"name":"cr","type":"float","value":20.0}]},{"id":7,"name":"tree.willow#0","type":"prop","x":152.0,"y":384,"width":0,"height":0,"rotation":0,"visible":true,"point":true,"properties":[{"name":"kind","type":"string","value":"tree.willow"},{"name":"fw","type":"int","value":16},{"name":"fh","type":"int","value":16},{"name":"solid","type":"bool","value":true}]},{"id":8,"name":"tree.willow#0","type":"prop","x":200.0,"y":464,"width":0,"height":0,"rotation":0,"visible":true,"point":true,"properties":[{"name":"kind","type":"string","value":"tree.willow"},{"name":"fw","type":"int","value":16},{"name":"fh","type":"int","value":16},{"name":"solid","type":"bool","value":true}]},{"id":9,"name":"tree.willow#0","type":"prop","x":280.0,"y":384,"width":0,"height":0,"rotation":0,"visible":true,"point":true,"properties":[{"name":"kind","type":"string","value":"tree.willow"},{"name":"fw","type":"int","value":16},{"name":"fh","type":"int","value":16},{"name":"solid","type":"bool","value":true}]},{"id":10,"name":"tree.willow#0","type":"prop","x":328.0,"y":464,"width":0,"height":0,"rotation":0,"visible":true,"point":true,"properties":[{"name":"kind","type":"string","value":"tree.willow"},{"name":"fw","type":"int","value":16},{"name":"fh","type":"int","value":16},{"name":"solid","type":"bool","value":true}]},{"id":11,"name":"tree.willow#0","type":"prop","x":456.0,"y":464,"width":0,"height":0,"rotation":0,"visible":true,"point":true,"properties":[{"name":"kind","type":"string","value":"tree.willow"},{"name":"fw","type":"int","value":16},{"name":"fh","type":"int","value":16},{"name":"solid","type":"bool","value":true}]},{"id":12,"name":"tree.willow#0","type":"prop","x":584.0,"y":464,"width":0,"height":0,"rotation":0,"visible":true,"point":true,"properties":[{"name":"kind","type":"string","value":"tree.willow"},{"name":"fw","type":"int","value":16},{"name":"fh","type":"int","value":16},{"name":"solid","type":"bool","value":true}]},{"id":13,"name":"tree.willow#0","type":"prop","x":792.0,"y":384,"width":0,"height":0,"rotation":0,"visible":true,"point":true,"properties":[{"name":"kind","type":"string","value":"tree.willow"},{"name":"fw","type":"int","value":16},{"name":"fh","type":"int","value":16},{"name":"solid","type":"bool","value":true}]},{"id":14,"name":"tree.willow#0","type":"prop","x":840.0,"y":464,"width":0,"height":0,"rotation":0,"visible":true,"point":true,"properties":[{"name":"kind","type":"string","value":"tree.willow"},{"name":"fw","type":"int","value":16},{"name":"fh","type":"int","value":16},{"name":"solid","type":"bool","value":true}]},{"id":15,"name":"banner.red#0","type":"prop","x":488.0,"y":320,"width":0,"height":0,"rotation":0,"visible":true,"point":true,"properties":[{"name":"kind","type":"string","value":"banner.red"},{"name":"fw","type":"int","value":16},{"name":"fh","type":"int","value":16},{"name":"solid","type":"bool","value":true}]},{"id":16,"name":"banner.red#0","type":"prop","x":552.0,"y":320,"width":0,"height":0,"rotation":0,"visible":true,"point":true,"properties":[{"name":"kind","type":"string","value":"banner.red"},{"name":"fw","type":"int","value":16},{"name":"fh","type":"int","value":16},{"name":"solid","type":"bool","value":true}]},{"id":17,"name":"","type":"prop","x":512.0,"y":112,"width":0,"height":0,"rotation":0,"visible":true,"point":true,"properties":[{"name":"kind","type":"string","value":"wall"},{"name":"fw","type":"int","value":832},{"name":"fh","type":"int","value":16},{"name":"solid","type":"bool","value":true}]},{"id":18,"name":"","type":"prop","x":512.0,"y":128,"width":0,"height":0,"rotation":0,"visible":true,"point":true,"properties":[{"name":"kind","type":"string","value":"wall"},{"name":"fw","type":"int","value":832},{"name":"fh","type":"int","value":16},{"name":"solid","type":"bool","value":true}]},{"id":19,"name":"","type":"prop","x":112.0,"y":144,"width":0,"height":0,"rotation":0,"visible":true,"point":true,"properties":[{"name":"kind","type":"string","value":"wall"},{"name":"fw","type":"int","value":32},{"name":"fh","type":"int","value":16},{"name":"solid","type":"bool","value":true}]},{"id":20,"name":"","type":"prop","x":912.0,"y":144,"width":0,"height":0,"rotation":0,"visible":true,"point":true,"properties":[{"name":"kind","type":"string","value":"wall"},{"name":"fw","type":"int","value":32},{"name":"fh","type":"int","value":16},{"name":"solid","type":"bool","value":true}]},{"id":21,"name":"","type":"prop","x":112.0,"y":160,"width":0,"height":0,"rotation":0,"visible":true,"point":true,"properties":[{"name":"kind","type":"string","value":"wall"},{"name":"fw","type":"int","value":32},{"name":"fh","type":"int","value":16},{"name":"solid","type":"bool","value":true}]},{"id":22,"name":"","type":"prop","x":912.0,"y":160,"width":0,"height":0,"rotation":0,"visible":true,"point":true,"properties":[{"name":"kind","type":"string","value":"wall"},{"name":"fw","type":"int","value":32},{"name":"fh","type":"int","value":16},{"name":"solid","type":"bool","value":true}]},{"id":23,"name":"","type":"prop","x":112.0,"y":176,"width":0,"height":0,"rotation":0,"visible":true,"point":true,"properties":[{"name":"kind","type":"string","value":"wall"},{"name":"fw","type":"int","value":32},{"name":"fh","type":"int","value":16},{"name":"solid","type":"bool","value":true}]},{"id":24,"name":"","type":"prop","x":912.0,"y":176,"width":0,"height":0,"rotation":0,"visible":true,"point":true,"properties":[{"name":"kind","type":"string","value":"wall"},{"name":"fw","type":"int","value":32},{"name":"fh","type":"int","value":16},{"name":"solid","type":"bool","value":true}]},{"id":25,"name":"","type":"prop","x":112.0,"y":192,"width":0,"height":0,"rotation":0,"visible":true,"point":true,"properties":[{"name":"kind","type":"string","value":"wall"},{"name":"fw","type":"int","value":32},{"name":"fh","type":"int","value":16},{"name":"solid","type":"bool","value":true}]},{"id":26,"name":"","type":"prop","x":912.0,"y":192,"width":0,"height":0,"rotation":0,"visible":true,"point":true,"properties":[{"name":"kind","type":"string","value":"wall"},{"name":"fw","type":"int","value":32},{"name":"fh","type":"int","value":16},{"name":"solid","type":"bool","value":true}]},{"id":27,"name":"","type":"prop","x":112.0,"y":208,"width":0,"height":0,"rotation":0,"visible":true,"point":true,"properties":[{"name":"kind","type":"string","value":"wall"},{"name":"fw","type":"int","value":32},{"name":"fh","type":"int","value":16},{"name":"solid","type":"bool","value":true}]},{"id":28,"name":"","type":"prop","x":912.0,"y":208,"width":0,"height":0,"rotation":0,"visible":true,"point":true,"properties":[{"name":"kind","type":"string","value":"wall"},{"name":"fw","type":"int","value":32},{"name":"fh","type":"int","value":16},{"name":"solid","type":"bool","value":true}]},{"id":29,"name":"","type":"prop","x":112.0,"y":224,"width":0,"height":0,"rotation":0,"visible":true,"point":true,"properties":[{"name":"kind","type":"string","value":"wall"},{"name":"fw","type":"int","value":32},{"name":"fh","type":"int","value":16},{"name":"solid","type":"bool","value":true}]},{"id":30,"name":"","type":"prop","x":912.0,"y":224,"width":0,"height":0,"rotation":0,"visible":true,"point":true,"properties":[{"name":"kind","type":"string","value":"wall"},{"name":"fw","type":"int","value":32},{"name":"fh","type":"int","value":16},{"name":"solid","type":"bool","value":true}]},{"id":31,"name":"","type":"prop","x":112.0,"y":240,"width":0,"height":0,"rotation":0,"visible":true,"point":true,"properties":[{"name":"kind","type":"string","value":"wall"},{"name":"fw","type":"int","value":32},{"name":"fh","type":"int","value":16},{"name":"solid","type":"bool","value":true}]},{"id":32,"name":"","type":"prop","x":912.0,"y":240,"width":0,"height":0,"rotation":0,"visible":true,"point":true,"properties":[{"name":"kind","type":"string","value":"wall"},{"name":"fw","type":"int","value":32},{"name":"fh","type":"int","value":16},{"name":"solid","type":"bool","value":true}]},{"id":33,"name":"","type":"prop","x":112.0,"y":256,"width":0,"height":0,"rotation":0,"visible":true,"point":true,"properties":[{"name":"kind","type":"string","value":"wall"},{"name":"fw","type":"int","value":32},{"name":"fh","type":"int","value":16},{"name":"solid","type":"bool","value":true}]},{"id":34,"name":"","type":"prop","x":912.0,"y":256,"width":0,"height":0,"rotation":0,"visible":true,"point":true,"properties":[{"name":"kind","type":"string","value":"wall"},{"name":"fw","type":"int","value":32},{"name":"fh","type":"int","value":16},{"name":"solid","type":"bool","value":true}]},{"id":35,"name":"","type":"prop","x":112.0,"y":272,"width":0,"height":0,"rotation":0,"visible":true,"point":true,"properties":[{"name":"kind","type":"string","value":"wall"},{"name":"fw","type":"int","value":32},{"name":"fh","type":"int","value":16},{"name":"solid","type":"bool","value":true}]},{"id":36,"name":"","type":"prop","x":912.0,"y":272,"width":0,"height":0,"rotation":0,"visible":true,"point":true,"properties":[{"name":"kind","type":"string","value":"wall"},{"name":"fw","type":"int","value":32},{"name":"fh","type":"int","value":16},{"name":"solid","type":"bool","value":true}]},{"id":37,"name":"","type":"prop","x":112.0,"y":288,"width":0,"height":0,"rotation":0,"visible":true,"point":true,"properties":[{"name":"kind","type":"string","value":"wall"},{"name":"fw","type":"int","value":32},{"name":"fh","type":"int","value":16},{"name":"solid","type":"bool","value":true}]},{"id":38,"name":"","type":"prop","x":912.0,"y":288,"width":0,"height":0,"rotation":0,"visible":true,"point":true,"properties":[{"name":"kind","type":"string","value":"wall"},{"name":"fw","type":"int","value":32},{"name":"fh","type":"int","value":16},{"name":"solid","type":"bool","value":true}]},{"id":39,"name":"","type":"prop","x":112.0,"y":304,"width":0,"height":0,"rotation":0,"visible":true,"point":true,"properties":[{"name":"kind","type":"string","value":"wall"},{"name":"fw","type":"int","value":32},{"name":"fh","type":"int","value":16},{"name":"solid","type":"bool","value":true}]},{"id":40,"name":"","type":"prop","x":912.0,"y":304,"width":0,"height":0,"rotation":0,"visible":true,"point":true,"properties":[{"name":"kind","type":"string","value":"wall"},{"name":"fw","type":"int","value":32},{"name":"fh","type":"int","value":16},{"name":"solid","type":"bool","value":true}]},{"id":41,"name":"","type":"prop","x":112.0,"y":320,"width":0,"height":0,"rotation":0,"visible":true,"point":true,"properties":[{"name":"kind","type":"string","value":"wall"},{"name":"fw","type":"int","value":32},{"name":"fh","type":"int","value":16},{"name":"solid","type":"bool","value":true}]},{"id":42,"name":"","type":"prop","x":912.0,"y":320,"width":0,"height":0,"rotation":0,"visible":true,"point":true,"properties":[{"name":"kind","type":"string","value":"wall"},{"name":"fw","type":"int","value":32},{"name":"fh","type":"int","value":16},{"name":"solid","type":"bool","value":true}]},{"id":43,"name":"","type":"prop","x":112.0,"y":336,"width":0,"height":0,"rotation":0,"visible":true,"point":true,"properties":[{"name":"kind","type":"string","value":"wall"},{"name":"fw","type":"int","value":32},{"name":"fh","type":"int","value":16},{"name":"solid","type":"bool","value":true}]},{"id":44,"name":"","type":"prop","x":912.0,"y":336,"width":0,"height":0,"rotation":0,"visible":true,"point":true,"properties":[{"name":"kind","type":"string","value":"wall"},{"name":"fw","type":"int","value":32},{"name":"fh","type":"int","value":16},{"name":"solid","type":"bool","value":true}]},{"id":45,"name":"","type":"prop","x":112.0,"y":352,"width":0,"height":0,"rotation":0,"visible":true,"point":true,"properties":[{"name":"kind","type":"string","value":"wall"},{"name":"fw","type":"int","value":32},{"name":"fh","type":"int","value":16},{"name":"solid","type":"bool","value":true}]},{"id":46,"name":"","type":"prop","x":912.0,"y":352,"width":0,"height":0,"rotation":0,"visible":true,"point":true,"properties":[{"name":"kind","type":"string","value":"wall"},{"name":"fw","type":"int","value":32},{"name":"fh","type":"int","value":16},{"name":"solid","type":"bool","value":true}]},{"id":47,"name":"","type":"prop","x":112.0,"y":368,"width":0,"height":0,"rotation":0,"visible":true,"point":true,"properties":[{"name":"kind","type":"string","value":"wall"},{"name":"fw","type":"int","value":32},{"name":"fh","type":"int","value":16},{"name":"solid","type":"bool","value":true}]},{"id":48,"name":"","type":"prop","x":912.0,"y":368,"width":0,"height":0,"rotation":0,"visible":true,"point":true,"properties":[{"name":"kind","type":"string","value":"wall"},{"name":"fw","type":"int","value":32},{"name":"fh","type":"int","value":16},{"name":"solid","type":"bool","value":true}]},{"id":49,"name":"","type":"prop","x":112.0,"y":384,"width":0,"height":0,"rotation":0,"visible":true,"point":true,"properties":[{"name":"kind","type":"string","value":"wall"},{"name":"fw","type":"int","value":32},{"name":"fh","type":"int","value":16},{"name":"solid","type":"bool","value":true}]},{"id":50,"name":"","type":"prop","x":912.0,"y":384,"width":0,"height":0,"rotation":0,"visible":true,"point":true,"properties":[{"name":"kind","type":"string","value":"wall"},{"name":"fw","type":"int","value":32},{"name":"fh","type":"int","value":16},{"name":"solid","type":"bool","value":true}]},{"id":51,"name":"","type":"prop","x":112.0,"y":400,"width":0,"height":0,"rotation":0,"visible":true,"point":true,"properties":[{"name":"kind","type":"string","value":"wall"},{"name":"fw","type":"int","value":32},{"name":"fh","type":"int","value":16},{"name":"solid","type":"bool","value":true}]},{"id":52,"name":"","type":"prop","x":912.0,"y":400,"width":0,"height":0,"rotation":0,"visible":true,"point":true,"properties":[{"name":"kind","type":"string","value":"wall"},{"name":"fw","type":"int","value":32},{"name":"fh","type":"int","value":16},{"name":"solid","type":"bool","value":true}]},{"id":53,"name":"","type":"prop","x":112.0,"y":416,"width":0,"height":0,"rotation":0,"visible":true,"point":true,"properties":[{"name":"kind","type":"string","value":"wall"},{"name":"fw","type":"int","value":32},{"name":"fh","type":"int","value":16},{"name":"solid","type":"bool","value":true}]},{"id":54,"name":"","type":"prop","x":912.0,"y":416,"width":0,"height":0,"rotation":0,"visible":true,"point":true,"properties":[{"name":"kind","type":"string","value":"wall"},{"name":"fw","type":"int","value":32},{"name":"fh","type":"int","value":16},{"name":"solid","type":"bool","value":true}]},{"id":55,"name":"","type":"prop","x":112.0,"y":432,"width":0,"height":0,"rotation":0,"visible":true,"point":true,"properties":[{"name":"kind","type":"string","value":"wall"},{"name":"fw","type":"int","value":32},{"name":"fh","type":"int","value":16},{"name":"solid","type":"bool","value":true}]},{"id":56,"name":"","type":"prop","x":912.0,"y":432,"width":0,"height":0,"rotation":0,"visible":true,"point":true,"properties":[{"name":"kind","type":"string","value":"wall"},{"name":"fw","type":"int","value":32},{"name":"fh","type":"int","value":16},{"name":"solid","type":"bool","value":true}]},{"id":57,"name":"","type":"prop","x":112.0,"y":448,"width":0,"height":0,"rotation":0,"visible":true,"point":true,"properties":[{"name":"kind","type":"string","value":"wall"},{"name":"fw","type":"int","value":32},{"name":"fh","type":"int","value":16},{"name":"solid","type":"bool","value":true}]},{"id":58,"name":"","type":"prop","x":912.0,"y":448,"width":0,"height":0,"rotation":0,"visible":true,"point":true,"properties":[{"name":"kind","type":"string","value":"wall"},{"name":"fw","type":"int","value":32},{"name":"fh","type":"int","value":16},{"name":"solid","type":"bool","value":true}]},{"id":59,"name":"","type":"prop","x":112.0,"y":464,"width":0,"height":0,"rotation":0,"visible":true,"point":true,"properties":[{"name":"kind","type":"string","value":"wall"},{"name":"fw","type":"int","value":32},{"name":"fh","type":"int","value":16},{"name":"solid","type":"bool","value":true}]},{"id":60,"name":"","type":"prop","x":912.0,"y":464,"width":0,"height":0,"rotation":0,"visible":true,"point":true,"properties":[{"name":"kind","type":"string","value":"wall"},{"name":"fw","type":"int","value":32},{"name":"fh","type":"int","value":16},{"name":"solid","type":"bool","value":true}]},{"id":61,"name":"","type":"prop","x":112.0,"y":480,"width":0,"height":0,"rotation":0,"visible":true,"point":true,"properties":[{"name":"kind","type":"string","value":"wall"},{"name":"fw","type":"int","value":32},{"name":"fh","type":"int","value":16},{"name":"solid","type":"bool","value":true}]},{"id":62,"name":"","type":"prop","x":912.0,"y":480,"width":0,"height":0,"rotation":0,"visible":true,"point":true,"properties":[{"name":"kind","type":"string","value":"wall"},{"name":"fw","type":"int","value":32},{"name":"fh","type":"int","value":16},{"name":"solid","type":"bool","value":true}]},{"id":63,"name":"","type":"prop","x":112.0,"y":496,"width":0,"height":0,"rotation":0,"visible":true,"point":true,"properties":[{"name":"kind","type":"string","value":"wall"},{"name":"fw","type":"int","value":32},{"name":"fh","type":"int","value":16},{"name":"solid","type":"bool","value":true}]},{"id":64,"name":"","type":"prop","x":912.0,"y":496,"width":0,"height":0,"rotation":0,"visible":true,"point":true,"properties":[{"name":"kind","type":"string","value":"wall"},{"name":"fw","type":"int","value":32},{"name":"fh","type":"int","value":16},{"name":"solid","type":"bool","value":true}]},{"id":65,"name":"","type":"prop","x":112.0,"y":512,"width":0,"height":0,"rotation":0,"visible":true,"point":true,"properties":[{"name":"kind","type":"string","value":"wall"},{"name":"fw","type":"int","value":32},{"name":"fh","type":"int","value":16},{"name":"solid","type":"bool","value":true}]},{"id":66,"name":"","type":"prop","x":912.0,"y":512,"width":0,"height":0,"rotation":0,"visible":true,"point":true,"properties":[{"name":"kind","type":"string","value":"wall"},{"name":"fw","type":"int","value":32},{"name":"fh","type":"int","value":16},{"name":"solid","type":"bool","value":true}]},{"id":67,"name":"","type":"prop","x":112.0,"y":528,"width":0,"height":0,"rotation":0,"visible":true,"point":true,"properties":[{"name":"kind","type":"string","value":"wall"},{"name":"fw","type":"int","value":32},{"name":"fh","type":"int","value":16},{"name":"solid","type":"bool","value":true}]},{"id":68,"name":"","type":"prop","x":912.0,"y":528,"width":0,"height":0,"rotation":0,"visible":true,"point":true,"properties":[{"name":"kind","type":"string","value":"wall"},{"name":"fw","type":"int","value":32},{"name":"fh","type":"int","value":16},{"name":"solid","type":"bool","value":true}]},{"id":69,"name":"","type":"prop","x":112.0,"y":544,"width":0,"height":0,"rotation":0,"visible":true,"point":true,"properties":[{"name":"kind","type":"string","value":"wall"},{"name":"fw","type":"int","value":32},{"name":"fh","type":"int","value":16},{"name":"solid","type":"bool","value":true}]},{"id":70,"name":"","type":"prop","x":912.0,"y":544,"width":0,"height":0,"rotation":0,"visible":true,"point":true,"properties":[{"name":"kind","type":"string","value":"wall"},{"name":"fw","type":"int","value":32},{"name":"fh","type":"int","value":16},{"name":"solid","type":"bool","value":true}]},{"id":71,"name":"","type":"prop","x":112.0,"y":560,"width":0,"height":0,"rotation":0,"visible":true,"point":true,"properties":[{"name":"kind","type":"string","value":"wall"},{"name":"fw","type":"int","value":32},{"name":"fh","type":"int","value":16},{"name":"solid","type":"bool","value":true}]},{"id":72,"name":"","type":"prop","x":912.0,"y":560,"width":0,"height":0,"rotation":0,"visible":true,"point":true,"properties":[{"name":"kind","type":"string","value":"wall"},{"name":"fw","type":"int","value":32},{"name":"fh","type":"int","value":16},{"name":"solid","type":"bool","value":true}]},{"id":73,"name":"","type":"prop","x":112.0,"y":576,"width":0,"height":0,"rotation":0,"visible":true,"point":true,"properties":[{"name":"kind","type":"string","value":"wall"},{"name":"fw","type":"int","value":32},{"name":"fh","type":"int","value":16},{"name":"solid","type":"bool","value":true}]},{"id":74,"name":"","type":"prop","x":912.0,"y":576,"width":0,"height":0,"rotation":0,"visible":true,"point":true,"properties":[{"name":"kind","type":"string","value":"wall"},{"name":"fw","type":"int","value":32},{"name":"fh","type":"int","value":16},{"name":"solid","type":"bool","value":true}]},{"id":75,"name":"","type":"prop","x":112.0,"y":592,"width":0,"height":0,"rotation":0,"visible":true,"point":true,"properties":[{"name":"kind","type":"string","value":"wall"},{"name":"fw","type":"int","value":32},{"name":"fh","type":"int","value":16},{"name":"solid","type":"bool","value":true}]},{"id":76,"name":"","type":"prop","x":912.0,"y":592,"width":0,"height":0,"rotation":0,"visible":true,"point":true,"properties":[{"name":"kind","type":"string","value":"wall"},{"name":"fw","type":"int","value":32},{"name":"fh","type":"int","value":16},{"name":"solid","type":"bool","value":true}]},{"id":77,"name":"","type":"prop","x":112.0,"y":608,"width":0,"height":0,"rotation":0,"visible":true,"point":true,"properties":[{"name":"kind","type":"string","value":"wall"},{"name":"fw","type":"int","value":32},{"name":"fh","type":"int","value":16},{"name":"solid","type":"bool","value":true}]},{"id":78,"name":"","type":"prop","x":912.0,"y":608,"width":0,"height":0,"rotation":0,"visible":true,"point":true,"properties":[{"name":"kind","type":"string","value":"wall"},{"name":"fw","type":"int","value":32},{"name":"fh","type":"int","value":16},{"name":"solid","type":"bool","value":true}]},{"id":79,"name":"","type":"prop","x":112.0,"y":624,"width":0,"height":0,"rotation":0,"visible":true,"point":true,"properties":[{"name":"kind","type":"string","value":"wall"},{"name":"fw","type":"int","value":32},{"name":"fh","type":"int","value":16},{"name":"solid","type":"bool","value":true}]},{"id":80,"name":"","type":"prop","x":912.0,"y":624,"width":0,"height":0,"rotation":0,"visible":true,"point":true,"properties":[{"name":"kind","type":"string","value":"wall"},{"name":"fw","type":"int","value":32},{"name":"fh","type":"int","value":16},{"name":"solid","type":"bool","value":true}]},{"id":81,"name":"","type":"prop","x":112.0,"y":640,"width":0,"height":0,"rotation":0,"visible":true,"point":true,"properties":[{"name":"kind","type":"string","value":"wall"},{"name":"fw","type":"int","value":32},{"name":"fh","type":"int","value":16},{"name":"solid","type":"bool","value":true}]},{"id":82,"name":"","type":"prop","x":912.0,"y":640,"width":0,"height":0,"rotation":0,"visible":true,"point":true,"properties":[{"name":"kind","type":"string","value":"wall"},{"name":"fw","type":"int","value":32},{"name":"fh","type":"int","value":16},{"name":"solid","type":"bool","value":true}]},{"id":83,"name":"","type":"prop","x":304.0,"y":656,"width":0,"height":0,"rotation":0,"visible":true,"point":true,"properties":[{"name":"kind","type":"string","value":"wall"},{"name":"fw","type":"int","value":416},{"name":"fh","type":"int","value":16},{"name":"solid","type":"bool","value":true}]},{"id":84,"name":"","type":"prop","x":752.0,"y":656,"width":0,"height":0,"rotation":0,"visible":true,"point":true,"properties":[{"name":"kind","type":"string","value":"wall"},{"name":"fw","type":"int","value":352},{"name":"fh","type":"int","value":16},{"name":"solid","type":"bool","value":true}]},{"id":85,"name":"","type":"prop","x":304.0,"y":672,"width":0,"height":0,"rotation":0,"visible":true,"point":true,"properties":[{"name":"kind","type":"string","value":"wall"},{"name":"fw","type":"int","value":416},{"name":"fh","type":"int","value":16},{"name":"solid","type":"bool","value":true}]},{"id":86,"name":"","type":"prop","x":752.0,"y":672,"width":0,"height":0,"rotation":0,"visible":true,"point":true,"properties":[{"name":"kind","type":"string","value":"wall"},{"name":"fw","type":"int","value":352},{"name":"fh","type":"int","value":16},{"name":"solid","type":"bool","value":true}]},{"id":87,"name":"hall-steps","type":"spot","x":520.0,"y":331.2,"width":0,"height":0,"rotation":0,"visible":true,"point":true,"properties":[{"name":"node","type":"string","value":""},{"name":"label","type":"string","value":"The steps of the government hall"},{"name":"label_zh","type":"string","value":"府衙台阶前"}]},{"id":88,"name":"npc-1","type":"npc","x":408.0,"y":414.4,"width":0,"height":0,"rotation":0,"visible":true,"point":true,"properties":[{"name":"kind","type":"string","value":"folk.soldier"},{"name":"sprite","type":"string","value":"f_soldier"},{"name":"wander","type":"bool","value":false},{"name":"drawn","type":"bool","value":true},{"name":"say","type":"string","value":"[[\"n\", \"“An envoy from Wu, Lü Fan. He came by boat this morning, and the Directing General is with our lord already.”\", \"“东吴来的使者叫吕范，今天早上坐船来的。军师已经在主公那儿了。”\", \"c2157397141e\"]]"}]},{"id":89,"name":"npc-2","type":"npc","x":792.0,"y":542.4,"width":0,"height":0,"rotation":0,"visible":true,"point":true,"properties":[{"name":"kind","type":"string","value":"folk.villager"},{"name":"sprite","type":"string","value":"f_farmer2"},{"name":"wander","type":"bool","value":false},{"name":"drawn","type":"bool","value":true},{"name":"say","type":"string","value":"[[\"n\", \"“A boat from Wu at the landing, flying red. A wedding, the boatmen say. Whose?”\", \"“码头上来了一条东吴的船，挂着红绸。船夫说是要办喜事。谁家的喜事？”\", \"6106e65b357d\"]]"}]},{"id":90,"name":"exit-jingzhou--jz-hall","type":"exit","x":505.6,"y":301.6,"width":12.8,"height":12.0,"rotation":0,"visible":true,"properties":[{"name":"to","type":"string","value":"jingzhou--jz-hall"},{"name":"side","type":"string","value":"N"}]},{"id":91,"name":"entry-jingzhou--jz-hall","type":"entry","x":520.0,"y":318.4,"width":0,"height":0,"rotation":0,"visible":true,"point":true,"properties":[{"name":"from","type":"string","value":"jingzhou--jz-hall"}]},{"id":92,"name":"entry","type":"entry","x":536.0,"y":414.4,"width":0,"height":0,"rotation":0,"visible":true,"point":true}]}]}