{"type":"map","version":"1.10","tiledversion":"1.10.2","orientation":"orthogonal","renderorder":"right-down","width":40,"height":30,"tilewidth":16,"tileheight":16,"infinite":false,"nextlayerid":4,"nextobjectid":226,"properties":[{"name":"kit","type":"string","value":"ninja"},{"name":"source","type":"string","value":"changan.map.json"}],"tilesets":[{"firstgid":1,"name":"floor","tilewidth":16,"tileheight":16,"columns":22,"tilecount":572,"margin":0,"spacing":0,"image":"../../../../assets/tk/ninja/floor.png","imagewidth":352,"imageheight":416}],"layers":[{"id":1,"name":"ground","type":"tilelayer","width":40,"height":30,"x":0,"y":0,"opacity":1,"visible":true,"data":[265,265,269,265,269,265,265,265,267,246,265,245,265,265,265,265,265,246,265,265,269,265,265,265,245,269,265,268,265,265,268,265,265,265,265,265,269,265,266,265,269,266,265,265,265,246,269,266,268,266,246,265,265,266,269,265,265,266,265,265,265,265,246,265,265,266,265,265,265,265,266,265,265,265,265,267,246,266,265,265,268,265,265,267,268,245,265,265,265,265,265,265,265,267,265,266,268,245,265,269,267,267,268,266,265,265,265,265,265,265,265,269,246,265,268,245,268,265,265,265,265,265,268,265,245,265,265,269,265,265,269,265,265,265,268,245,265,265,265,265,245,265,265,246,269,265,267,265,266,246,269,246,267,268,265,266,265,265,265,265,265,268,265,265,269,265,265,265,269,265,265,265,265,265,245,265,266,245,265,266,265,269,265,265,269,265,265,267,265,265,265,265,265,265,246,246,265,265,265,265,265,269,265,265,267,265,266,265,269,266,245,265,265,265,265,265,265,245,265,265,268,268,266,267,269,269,265,267,269,246,246,265,268,265,266,269,265,245,265,268,269,265,268,245,265,245,268,265,265,268,265,265,267,265,265,265,265,265,265,265,245,246,266,267,265,268,265,265,245,269,265,268,269,246,265,245,268,265,265,265,265,245,265,266,265,267,246,265,265,268,265,265,265,269,265,265,266,245,265,265,265,265,268,265,265,267,265,265,266,265,246,265,267,246,265,266,265,245,265,265,265,265,265,246,265,267,265,265,265,265,246,246,265,267,265,265,245,268,265,265,265,246,265,265,265,268,265,269,245,246,265,265,269,265,246,268,265,245,265,266,265,265,265,269,265,265,265,265,265,269,265,265,265,265,265,267,265,265,266,269,265,246,266,265,265,268,266,265,246,265,265,269,265,268,265,246,265,265,265,265,265,268,265,246,265,265,269,265,268,246,265,265,266,265,265,245,265,265,267,265,265,265,269,267,265,265,265,265,265,245,245,265,265,267,268,245,269,245,265,266,265,268,265,269,267,265,265,265,265,265,245,267,246,245,265,269,265,268,265,266,269,266,266,265,245,265,265,245,246,269,265,269,245,265,266,269,265,265,267,269,265,265,269,265,266,246,265,245,265,265,265,267,265,265,265,265,265,267,245,265,265,265,265,265,245,265,265,265,246,265,246,266,268,265,265,265,265,267,246,265,265,266,245,265,268,265,246,265,245,266,265,265,265,265,265,268,267,245,265,265,265,265,265,246,265,265,265,265,265,266,265,265,265,265,269,245,246,268,265,267,265,245,265,265,265,265,265,245,265,266,265,245,265,265,266,267,265,265,266,265,265,265,265,265,265,266,267,245,246,265,265,268,265,265,245,265,265,245,265,265,265,265,267,267,265,265,265,265,265,266,266,265,267,246,265,267,265,265,265,266,265,265,265,265,265,269,265,245,265,245,266,245,265,265,265,267,265,265,265,265,246,265,266,269,246,269,265,266,266,269,265,265,268,265,265,265,267,268,266,267,265,265,246,266,265,266,269,268,265,246,265,265,265,245,265,268,265,265,266,269,265,265,265,265,265,266,265,246,265,267,265,245,265,245,267,265,265,265,246,265,265,245,245,267,265,265,268,246,245,266,267,269,265,245,265,265,265,267,268,245,265,265,269,265,265,265,245,265,265,265,245,265,269,265,265,267,268,265,267,268,265,268,245,265,266,269,245,269,268,265,267,265,267,245,265,265,268,265,265,268,265,246,265,265,265,265,265,265,265,265,267,265,265,265,269,265,265,267,265,268,265,265,265,265,265,269,265,265,266,268,265,245,266,267,265,245,265,269,269,246,265,265,266,265,265,246,265,265,268,268,246,265,265,265,269,265,245,265,265,265,246,266,268,265,265,266,246,265,265,267,245,265,265,265,265,268,268,265,265,265,265,265,265,265,265,265,265,268,267,265,245,265,245,265,265,265,246,265,267,246,265,245,265,245,268,265,265,265,265,267,265,265,265,246,265,269,268,246,265,265,268,265,265,265,265,265,267,265,245,265,246,269,245,265,245,246,265,265,268,265,265,265,266,265,265,265,265,265,246,267,266,265,268,266,265,265,269,265,269,246,265,268,267,269,268,265,265,265,265,265,265,265,268,265,265,265,265,266,265,265,245,265,265,266,265,246,265,265,265,265,265,267,267,265,265,265,266,265,265,266,268,265,265,246,265,265,265,265,245,265,265,266,265,268,245,265,265,265,265,268,268,265,265,267,266,265,265,268,266,265,265,268,265,265,265,246,268,265,265,267,246,265,265,267,265,265,265,268,265,265,246,267,265,266,246,268,267,265,265,265,265,269,266,268,265,265,265,265,245,265,245,245,265,269,246,265,265,267,265,265,265,268,265,265,265,265,245,245,265,265,268,265,265,268,267,246,267,267,265,265,246,267,265,265,265,265,267,265,265,265,265,265,267,265,265,268,265,265,245,265,265,265,265,265,265,265,265,245,265,265,245,265,265,267,245,268,265,269,265,265,265,245,267,245,265,269,265,265,268,266,265,266,265,265,268,265,265,268,268,269,267,265,265,265,265,266,265,265,265,265,265,265,265,265,269,265,269,246,265,265,246,246,268,266,265,265,265,265,265,246,245,265,268,265,265,245,269,265,268,245,269,266,265,265,265,265,246,265,245,268,265,265,246,265,269,246,265,265,265,245,265,265,269,265,265,265,267,265,265,245,265,269,265,265,265,265,268,265,265,245]},{"id":2,"name":"dirt","type":"tilelayer","width":40,"height":30,"x":0,"y":0,"opacity":1,"visible":true,"data":[0,0,0,0,0,0,0,0,0,0,0,0,0,0,0,0,0,0,0,0,0,0,0,0,0,0,0,0,0,0,0,0,0,0,0,0,0,0,0,0,0,0,0,0,0,0,0,0,0,0,0,0,0,0,0,0,0,0,0,0,0,0,0,0,0,0,0,0,0,0,0,0,0,0,0,0,0,0,0,0,0,0,0,0,0,0,0,0,0,0,0,0,0,0,0,0,0,0,0,0,0,0,0,0,0,0,0,0,0,0,0,0,0,0,0,0,0,0,0,0,0,0,0,0,0,0,0,0,0,0,0,0,0,0,0,0,0,0,0,0,0,0,0,0,0,0,0,0,0,0,0,0,0,0,0,0,0,0,0,0,0,0,0,0,0,0,0,0,0,0,0,0,0,0,0,0,0,0,0,0,0,0,0,0,0,0,0,0,0,0,0,0,0,0,0,0,0,0,0,0,0,0,0,0,0,0,0,0,0,0,0,0,0,0,0,0,0,221,222,162,0,0,0,0,0,0,0,0,0,0,0,0,0,0,0,0,0,0,0,0,0,0,0,0,0,0,0,0,0,0,0,0,0,0,0,0,0,0,0,180,0,0,0,0,0,0,0,0,0,0,0,0,0,0,0,0,0,0,0,0,0,0,0,0,0,0,0,0,0,0,0,0,0,0,0,0,0,0,0,180,0,0,0,0,0,0,0,0,0,0,0,0,0,0,0,0,0,0,0,0,0,0,0,0,0,0,0,0,0,0,0,0,0,0,0,0,0,221,222,250,0,0,0,0,0,0,0,0,0,0,0,0,0,0,0,0,0,0,0,0,0,0,0,0,0,0,0,0,0,0,0,0,0,0,0,0,0,0,0,247,222,223,0,0,0,0,0,0,0,0,0,0,0,0,0,0,0,0,0,0,0,0,0,0,0,0,0,0,0,0,0,0,0,0,0,0,0,0,0,180,0,0,0,0,0,0,0,0,0,0,0,0,0,0,0,0,0,0,0,0,0,0,0,0,0,0,0,0,0,0,0,0,0,0,0,0,0,221,163,228,0,0,0,0,0,0,0,0,0,0,0,0,0,0,0,0,0,0,0,0,0,0,0,0,0,0,0,0,0,0,0,0,221,222,162,0,0,0,180,0,0,0,0,0,0,0,0,0,0,0,0,0,0,0,0,0,0,0,0,0,0,0,0,0,0,0,0,158,0,0,0,0,0,0,180,0,0,159,228,0,0,158,0,0,0,0,0,0,0,0,0,0,0,0,0,0,0,0,0,0,0,0,0,0,0,0,0,180,0,0,0,0,0,0,180,0,0,180,0,0,0,180,0,0,0,0,0,0,0,0,0,0,0,0,0,0,0,0,0,0,156,156,156,156,156,156,156,207,156,156,157,0,158,0,203,156,156,207,156,156,156,206,0,0,0,0,0,0,0,0,0,0,0,0,0,0,0,0,0,0,200,200,200,200,200,200,200,200,200,183,179,0,180,0,177,243,244,244,244,244,243,179,0,0,0,0,0,0,0,0,0,0,0,0,0,0,0,0,0,0,0,0,0,0,0,0,0,0,0,177,204,156,207,156,205,243,244,244,178,244,244,179,0,0,0,0,0,0,0,0,0,0,0,0,0,0,0,0,0,0,0,0,0,0,0,0,0,0,0,199,200,200,200,200,183,244,178,244,243,244,244,179,0,0,0,0,0,0,0,0,0,0,0,0,0,0,0,0,0,0,0,0,0,0,0,0,0,0,0,0,0,0,0,0,181,200,200,200,200,200,200,226,222,223,0,0,0,0,0,0,0,0,0,0,0,0,0,0,0,0,0,0,0,0,0,0,0,0,0,0,0,0,0,0,180,0,0,0,0,0,0,0,0,0,0,0,0,0,0,0,0,0,0,0,0,0,0,0,0,0,0,0,0,0,0,0,0,0,0,0,0,0,221,222,228,0,0,0,0,0,0,0,0,0,0,0,0,0,0,0,0,0,0,0,0,0,0,0,0,0,0,0,0,0,0,0,0,0,0,0,0,0,0,0,0,0,0,0,0,0,0,0,0,0,0,0,0,0,0,0,0,0,0,0,0,0,0,0,0,0,0,0,0,0,0,0,0,0,0,0,0,0,0,0,0,0,0,0,0,0,0,0,0,0,0,0,0,0,0,0,0,0,0,0,0,0,0,0,0,0,0,0,0,0,0,0,0,0,0,0,0,0,0,0,0,0,0,0,0,0,0,0,0,0,0,0,0,0,0,0,0,0,0,0,0,0,0,0,0,0,0,0,0,0,0,0,0,0,0,0,0,0,0,0,0,0,0,0,0,0,0,0,0,0,0,0,0,0,0,0,0,0,0,0,0,0,0,0,0,0,0,0,0,0,0,0,0,0,0,0,0,0,0,0,0,0,0,0,0,0,0,0,0,0,0,0,0,0,0,0,0,0,0,0,0,0,0,0,0,0,0,0,0,0,0,0,0,0,0,0,0,0,0,0,0,0,0,0,0,0,0,0,0,0,0,0,0,0,0,0,0,0,0,0,0,0,0,0,0,0,0,0,0,0,0,0,0,0,0,0,0,0,0,0,0,0,0,0,0,0,0,0,0,0,0,0,0,0,0,0,0,0,0,0,0,0,0,0,0,0,0,0,0,0,0,0,0,0,0,0,0,0,0,0,0,0,0,0,0,0,0,0,0,0,0,0,0,0,0,0,0,0,0,0,0,0,0,0,0,0]},{"id":3,"name":"objects","type":"objectgroup","draworder":"topdown","x":0,"y":0,"opacity":1,"visible":true,"objects":[{"id":1,"name":"building.gate#0","type":"prop","x":272.0,"y":208,"width":0,"height":0,"rotation":0,"visible":true,"point":true,"properties":[{"name":"kind","type":"string","value":"building.gate"},{"name":"fw","type":"int","value":32},{"name":"fh","type":"int","value":16},{"name":"solid","type":"bool","value":false},{"name":"ref","type":"string","value":"gate"}]},{"id":2,"name":"building.shop#1","type":"prop","x":376.0,"y":304,"width":0,"height":0,"rotation":0,"visible":true,"point":true,"properties":[{"name":"kind","type":"string","value":"building.shop"},{"name":"fw","type":"int","value":48},{"name":"fh","type":"int","value":32},{"name":"solid","type":"bool","value":true},{"name":"ref","type":"string","value":"market"},{"name":"cl","type":"float","value":20.0},{"name":"cr","type":"float","value":20.0}]},{"id":3,"name":"building.gate#0","type":"prop","x":336.0,"y":208,"width":0,"height":0,"rotation":0,"visible":true,"point":true,"properties":[{"name":"kind","type":"string","value":"building.gate"},{"name":"fw","type":"int","value":32},{"name":"fh","type":"int","value":16},{"name":"solid","type":"bool","value":false},{"name":"ref","type":"string","value":"tower"}]},{"id":4,"name":"landmark.shrine#0","type":"prop","x":272.0,"y":320,"width":0,"height":0,"rotation":0,"visible":true,"point":true,"properties":[{"name":"kind","type":"string","value":"landmark.shrine"},{"name":"fw","type":"int","value":32},{"name":"fh","type":"int","value":16},{"name":"solid","type":"bool","value":true},{"name":"ref","type":"string","value":"shrine"}]},{"id":5,"name":"building.hall#0","type":"prop","x":272.0,"y":176,"width":0,"height":0,"rotation":0,"visible":true,"point":true,"properties":[{"name":"kind","type":"string","value":"building.hall"},{"name":"fw","type":"int","value":64},{"name":"fh","type":"int","value":32},{"name":"solid","type":"bool","value":true},{"name":"ref","type":"string","value":"hall-1"},{"name":"cl","type":"float","value":28.0},{"name":"cr","type":"float","value":28.0}]},{"id":6,"name":"building.house#1","type":"prop","x":192.0,"y":240,"width":0,"height":0,"rotation":0,"visible":true,"point":true,"properties":[{"name":"kind","type":"string","value":"building.house"},{"name":"fw","type":"int","value":64},{"name":"fh","type":"int","value":32},{"name":"solid","type":"bool","value":true},{"name":"ref","type":"string","value":"house-1"},{"name":"cl","type":"float","value":28.0},{"name":"cr","type":"float","value":28.0}]},{"id":7,"name":"building.house#1","type":"prop","x":112.0,"y":208,"width":0,"height":0,"rotation":0,"visible":true,"point":true,"properties":[{"name":"kind","type":"string","value":"building.house"},{"name":"fw","type":"int","value":64},{"name":"fh","type":"int","value":32},{"name":"solid","type":"bool","value":true},{"name":"ref","type":"string","value":"house-2"},{"name":"cl","type":"float","value":28.0},{"name":"cr","type":"float","value":28.0}]},{"id":8,"name":"building.inn#0","type":"prop","x":272.0,"y":128,"width":0,"height":0,"rotation":0,"visible":true,"point":true,"properties":[{"name":"kind","type":"string","value":"building.inn"},{"name":"fw","type":"int","value":64},{"name":"fh","type":"int","value":32},{"name":"solid","type":"bool","value":true},{"name":"ref","type":"string","value":"inn-1"},{"name":"cl","type":"float","value":28.0},{"name":"cr","type":"float","value":28.0}]},{"id":9,"name":"building.shop#1","type":"prop","x":344.0,"y":144,"width":0,"height":0,"rotation":0,"visible":true,"point":true,"properties":[{"name":"kind","type":"string","value":"building.shop"},{"name":"fw","type":"int","value":48},{"name":"fh","type":"int","value":32},{"name":"solid","type":"bool","value":true},{"name":"ref","type":"string","value":"shop-1"},{"name":"cl","type":"float","value":20.0},{"name":"cr","type":"float","value":20.0}]},{"id":10,"name":"building.house#1","type":"prop","x":192.0,"y":336,"width":0,"height":0,"rotation":0,"visible":true,"point":true,"properties":[{"name":"kind","type":"string","value":"building.house"},{"name":"fw","type":"int","value":64},{"name":"fh","type":"int","value":32},{"name":"solid","type":"bool","value":true},{"name":"ref","type":"string","value":"house-3"},{"name":"cl","type":"float","value":28.0},{"name":"cr","type":"float","value":28.0}]},{"id":11,"name":"building.shop#0","type":"prop","x":280.0,"y":80,"width":0,"height":0,"rotation":0,"visible":true,"point":true,"properties":[{"name":"kind","type":"string","value":"building.shop"},{"name":"fw","type":"int","value":48},{"name":"fh","type":"int","value":32},{"name":"solid","type":"bool","value":true},{"name":"ref","type":"string","value":"shop-2"},{"name":"cl","type":"float","value":20.0},{"name":"cr","type":"float","value":20.0}]},{"id":12,"name":"building.house#1","type":"prop","x":192.0,"y":192,"width":0,"height":0,"rotation":0,"visible":true,"point":true,"properties":[{"name":"kind","type":"string","value":"building.house"},{"name":"fw","type":"int","value":64},{"name":"fh","type":"int","value":32},{"name":"solid","type":"bool","value":true},{"name":"ref","type":"string","value":"house-4"},{"name":"cl","type":"float","value":28.0},{"name":"cr","type":"float","value":28.0}]},{"id":13,"name":"plant.bush#0","type":"prop","x":168.0,"y":64,"width":0,"height":0,"rotation":0,"visible":true,"point":true,"properties":[{"name":"kind","type":"string","value":"plant.bush"},{"name":"fw","type":"int","value":16},{"name":"fh","type":"int","value":16},{"name":"solid","type":"bool","value":false}]},{"id":14,"name":"tree.small#0","type":"prop","x":152.0,"y":112,"width":0,"height":0,"rotation":0,"visible":true,"point":true,"properties":[{"name":"kind","type":"string","value":"tree.small"},{"name":"fw","type":"int","value":16},{"name":"fh","type":"int","value":16},{"name":"solid","type":"bool","value":true}]},{"id":15,"name":"tree.small#0","type":"prop","x":184.0,"y":96,"width":0,"height":0,"rotation":0,"visible":true,"point":true,"properties":[{"name":"kind","type":"string","value":"tree.small"},{"name":"fw","type":"int","value":16},{"name":"fh","type":"int","value":16},{"name":"solid","type":"bool","value":true}]},{"id":16,"name":"tree.small#0","type":"prop","x":168.0,"y":128,"width":0,"height":0,"rotation":0,"visible":true,"point":true,"properties":[{"name":"kind","type":"string","value":"tree.small"},{"name":"fw","type":"int","value":16},{"name":"fh","type":"int","value":16},{"name":"solid","type":"bool","value":true}]},{"id":17,"name":"tree.small#0","type":"prop","x":200.0,"y":128,"width":0,"height":0,"rotation":0,"visible":true,"point":true,"properties":[{"name":"kind","type":"string","value":"tree.small"},{"name":"fw","type":"int","value":16},{"name":"fh","type":"int","value":16},{"name":"solid","type":"bool","value":true}]},{"id":18,"name":"plant.bush#0","type":"prop","x":184.0,"y":128,"width":0,"height":0,"rotation":0,"visible":true,"point":true,"properties":[{"name":"kind","type":"string","value":"plant.bush"},{"name":"fw","type":"int","value":16},{"name":"fh","type":"int","value":16},{"name":"solid","type":"bool","value":false}]},{"id":19,"name":"plant.bush#1","type":"prop","x":200.0,"y":80,"width":0,"height":0,"rotation":0,"visible":true,"point":true,"properties":[{"name":"kind","type":"string","value":"plant.bush"},{"name":"fw","type":"int","value":16},{"name":"fh","type":"int","value":16},{"name":"solid","type":"bool","value":false}]},{"id":20,"name":"tree.small#0","type":"prop","x":216.0,"y":96,"width":0,"height":0,"rotation":0,"visible":true,"point":true,"properties":[{"name":"kind","type":"string","value":"tree.small"},{"name":"fw","type":"int","value":16},{"name":"fh","type":"int","value":16},{"name":"solid","type":"bool","value":true}]},{"id":21,"name":"plant.bush#0","type":"prop","x":600.0,"y":400,"width":0,"height":0,"rotation":0,"visible":true,"point":true,"properties":[{"name":"kind","type":"string","value":"plant.bush"},{"name":"fw","type":"int","value":16},{"name":"fh","type":"int","value":16},{"name":"solid","type":"bool","value":false}]},{"id":22,"name":"plant.bush#0","type":"prop","x":536.0,"y":384,"width":0,"height":0,"rotation":0,"visible":true,"point":true,"properties":[{"name":"kind","type":"string","value":"plant.bush"},{"name":"fw","type":"int","value":16},{"name":"fh","type":"int","value":16},{"name":"solid","type":"bool","value":false}]},{"id":23,"name":"tree.small#0","type":"prop","x":600.0,"y":448,"width":0,"height":0,"rotation":0,"visible":true,"point":true,"properties":[{"name":"kind","type":"string","value":"tree.small"},{"name":"fw","type":"int","value":16},{"name":"fh","type":"int","value":16},{"name":"solid","type":"bool","value":true}]},{"id":24,"name":"tree.small#0","type":"prop","x":584.0,"y":400,"width":0,"height":0,"rotation":0,"visible":true,"point":true,"properties":[{"name":"kind","type":"string","value":"tree.small"},{"name":"fw","type":"int","value":16},{"name":"fh","type":"int","value":16},{"name":"solid","type":"bool","value":true}]},{"id":25,"name":"tree.pine#0","type":"prop","x":536.0,"y":400,"width":0,"height":0,"rotation":0,"visible":true,"point":true,"properties":[{"name":"kind","type":"string","value":"tree.pine"},{"name":"fw","type":"int","value":16},{"name":"fh","type":"int","value":16},{"name":"solid","type":"bool","value":true}]},{"id":26,"name":"tree.small#0","type":"prop","x":552.0,"y":192,"width":0,"height":0,"rotation":0,"visible":true,"point":true,"properties":[{"name":"kind","type":"string","value":"tree.small"},{"name":"fw","type":"int","value":16},{"name":"fh","type":"int","value":16},{"name":"solid","type":"bool","value":true}]},{"id":27,"name":"plant.bush#0","type":"prop","x":600.0,"y":208,"width":0,"height":0,"rotation":0,"visible":true,"point":true,"properties":[{"name":"kind","type":"string","value":"plant.bush"},{"name":"fw","type":"int","value":16},{"name":"fh","type":"int","value":16},{"name":"solid","type":"bool","value":false}]},{"id":28,"name":"plant.bush#0","type":"prop","x":536.0,"y":160,"width":0,"height":0,"rotation":0,"visible":true,"point":true,"properties":[{"name":"kind","type":"string","value":"plant.bush"},{"name":"fw","type":"int","value":16},{"name":"fh","type":"int","value":16},{"name":"solid","type":"bool","value":false}]},{"id":29,"name":"tree.small#0","type":"prop","x":504.0,"y":160,"width":0,"height":0,"rotation":0,"visible":true,"point":true,"properties":[{"name":"kind","type":"string","value":"tree.small"},{"name":"fw","type":"int","value":16},{"name":"fh","type":"int","value":16},{"name":"solid","type":"bool","value":true}]},{"id":30,"name":"tree.pine#0","type":"prop","x":536.0,"y":192,"width":0,"height":0,"rotation":0,"visible":true,"point":true,"properties":[{"name":"kind","type":"string","value":"tree.pine"},{"name":"fw","type":"int","value":16},{"name":"fh","type":"int","value":16},{"name":"solid","type":"bool","value":true}]},{"id":31,"name":"tree.pine#0","type":"prop","x":552.0,"y":224,"width":0,"height":0,"rotation":0,"visible":true,"point":true,"properties":[{"name":"kind","type":"string","value":"tree.pine"},{"name":"fw","type":"int","value":16},{"name":"fh","type":"int","value":16},{"name":"solid","type":"bool","value":true}]},{"id":32,"name":"tree.small#0","type":"prop","x":584.0,"y":176,"width":0,"height":0,"rotation":0,"visible":true,"point":true,"properties":[{"name":"kind","type":"string","value":"tree.small"},{"name":"fw","type":"int","value":16},{"name":"fh","type":"int","value":16},{"name":"solid","type":"bool","value":true}]},{"id":33,"name":"tree.pine#0","type":"prop","x":472.0,"y":16,"width":0,"height":0,"rotation":0,"visible":true,"point":true,"properties":[{"name":"kind","type":"string","value":"tree.pine"},{"name":"fw","type":"int","value":16},{"name":"fh","type":"int","value":16},{"name":"solid","type":"bool","value":true}]},{"id":34,"name":"tree.grove#1","type":"prop","x":424.0,"y":16,"width":0,"height":0,"rotation":0,"visible":true,"point":true,"properties":[{"name":"kind","type":"string","value":"tree.grove"},{"name":"fw","type":"int","value":48},{"name":"fh","type":"int","value":16},{"name":"solid","type":"bool","value":true}]},{"id":35,"name":"tree.grove#0","type":"prop","x":552.0,"y":32,"width":0,"height":0,"rotation":0,"visible":true,"point":true,"properties":[{"name":"kind","type":"string","value":"tree.grove"},{"name":"fw","type":"int","value":48},{"name":"fh","type":"int","value":16},{"name":"solid","type":"bool","value":true}]},{"id":36,"name":"tree.grove#0","type":"prop","x":584.0,"y":16,"width":0,"height":0,"rotation":0,"visible":true,"point":true,"properties":[{"name":"kind","type":"string","value":"tree.grove"},{"name":"fw","type":"int","value":48},{"name":"fh","type":"int","value":16},{"name":"solid","type":"bool","value":true}]},{"id":37,"name":"tree.grove#1","type":"prop","x":536.0,"y":480,"width":0,"height":0,"rotation":0,"visible":true,"point":true,"properties":[{"name":"kind","type":"string","value":"tree.grove"},{"name":"fw","type":"int","value":48},{"name":"fh","type":"int","value":16},{"name":"solid","type":"bool","value":true}]},{"id":38,"name":"tree.grove#1","type":"prop","x":216.0,"y":480,"width":0,"height":0,"rotation":0,"visible":true,"point":true,"properties":[{"name":"kind","type":"string","value":"tree.grove"},{"name":"fw","type":"int","value":48},{"name":"fh","type":"int","value":16},{"name":"solid","type":"bool","value":true}]},{"id":39,"name":"tree.pine#0","type":"prop","x":248.0,"y":16,"width":0,"height":0,"rotation":0,"visible":true,"point":true,"properties":[{"name":"kind","type":"string","value":"tree.pine"},{"name":"fw","type":"int","value":16},{"name":"fh","type":"int","value":16},{"name":"solid","type":"bool","value":true}]},{"id":40,"name":"tree.pine#0","type":"prop","x":8.0,"y":64,"width":0,"height":0,"rotation":0,"visible":true,"point":true,"properties":[{"name":"kind","type":"string","value":"tree.pine"},{"name":"fw","type":"int","value":16},{"name":"fh","type":"int","value":16},{"name":"solid","type":"bool","value":true}]},{"id":41,"name":"tree.grove#0","type":"prop","x":264.0,"y":480,"width":0,"height":0,"rotation":0,"visible":true,"point":true,"properties":[{"name":"kind","type":"string","value":"tree.grove"},{"name":"fw","type":"int","value":48},{"name":"fh","type":"int","value":16},{"name":"solid","type":"bool","value":true}]},{"id":42,"name":"tree.grove#1","type":"prop","x":616.0,"y":480,"width":0,"height":0,"rotation":0,"visible":true,"point":true,"properties":[{"name":"kind","type":"string","value":"tree.grove"},{"name":"fw","type":"int","value":48},{"name":"fh","type":"int","value":16},{"name":"solid","type":"bool","value":true}]},{"id":43,"name":"tree.pine#0","type":"prop","x":616.0,"y":368,"width":0,"height":0,"rotation":0,"visible":true,"point":true,"properties":[{"name":"kind","type":"string","value":"tree.pine"},{"name":"fw","type":"int","value":16},{"name":"fh","type":"int","value":16},{"name":"solid","type":"bool","value":true}]},{"id":44,"name":"tree.grove#0","type":"prop","x":280.0,"y":16,"width":0,"height":0,"rotation":0,"visible":true,"point":true,"properties":[{"name":"kind","type":"string","value":"tree.grove"},{"name":"fw","type":"int","value":48},{"name":"fh","type":"int","value":16},{"name":"solid","type":"bool","value":true}]},{"id":45,"name":"tree.pine#0","type":"prop","x":136.0,"y":480,"width":0,"height":0,"rotation":0,"visible":true,"point":true,"properties":[{"name":"kind","type":"string","value":"tree.pine"},{"name":"fw","type":"int","value":16},{"name":"fh","type":"int","value":16},{"name":"solid","type":"bool","value":true}]},{"id":46,"name":"tree.pine#0","type":"prop","x":616.0,"y":224,"width":0,"height":0,"rotation":0,"visible":true,"point":true,"properties":[{"name":"kind","type":"string","value":"tree.pine"},{"name":"fw","type":"int","value":16},{"name":"fh","type":"int","value":16},{"name":"solid","type":"bool","value":true}]},{"id":47,"name":"tree.pine#0","type":"prop","x":632.0,"y":32,"width":0,"height":0,"rotation":0,"visible":true,"point":true,"properties":[{"name":"kind","type":"string","value":"tree.pine"},{"name":"fw","type":"int","value":16},{"name":"fh","type":"int","value":16},{"name":"solid","type":"bool","value":true}]},{"id":48,"name":"tree.pine#0","type":"prop","x":616.0,"y":336,"width":0,"height":0,"rotation":0,"visible":true,"point":true,"properties":[{"name":"kind","type":"string","value":"tree.pine"},{"name":"fw","type":"int","value":16},{"name":"fh","type":"int","value":16},{"name":"solid","type":"bool","value":true}]},{"id":49,"name":"tree.grove#1","type":"prop","x":40.0,"y":112,"width":0,"height":0,"rotation":0,"visible":true,"point":true,"properties":[{"name":"kind","type":"string","value":"tree.grove"},{"name":"fw","type":"int","value":48},{"name":"fh","type":"int","value":16},{"name":"solid","type":"bool","value":true}]},{"id":50,"name":"tree.grove#0","type":"prop","x":72.0,"y":464,"width":0,"height":0,"rotation":0,"visible":true,"point":true,"properties":[{"name":"kind","type":"string","value":"tree.grove"},{"name":"fw","type":"int","value":48},{"name":"fh","type":"int","value":16},{"name":"solid","type":"bool","value":true}]},{"id":51,"name":"tree.pine#0","type":"prop","x":8.0,"y":112,"width":0,"height":0,"rotation":0,"visible":true,"point":true,"properties":[{"name":"kind","type":"string","value":"tree.pine"},{"name":"fw","type":"int","value":16},{"name":"fh","type":"int","value":16},{"name":"solid","type":"bool","value":true}]},{"id":52,"name":"tree.grove#1","type":"prop","x":392.0,"y":32,"width":0,"height":0,"rotation":0,"visible":true,"point":true,"properties":[{"name":"kind","type":"string","value":"tree.grove"},{"name":"fw","type":"int","value":48},{"name":"fh","type":"int","value":16},{"name":"solid","type":"bool","value":true}]},{"id":53,"name":"tree.grove#0","type":"prop","x":488.0,"y":480,"width":0,"height":0,"rotation":0,"visible":true,"point":true,"properties":[{"name":"kind","type":"string","value":"tree.grove"},{"name":"fw","type":"int","value":48},{"name":"fh","type":"int","value":16},{"name":"solid","type":"bool","value":true}]},{"id":54,"name":"tree.pine#0","type":"prop","x":360.0,"y":480,"width":0,"height":0,"rotation":0,"visible":true,"point":true,"properties":[{"name":"kind","type":"string","value":"tree.pine"},{"name":"fw","type":"int","value":16},{"name":"fh","type":"int","value":16},{"name":"solid","type":"bool","value":true}]},{"id":55,"name":"tree.pine#0","type":"prop","x":24.0,"y":384,"width":0,"height":0,"rotation":0,"visible":true,"point":true,"properties":[{"name":"kind","type":"string","value":"tree.pine"},{"name":"fw","type":"int","value":16},{"name":"fh","type":"int","value":16},{"name":"solid","type":"bool","value":true}]},{"id":56,"name":"tree.pine#0","type":"prop","x":312.0,"y":32,"width":0,"height":0,"rotation":0,"visible":true,"point":true,"properties":[{"name":"kind","type":"string","value":"tree.pine"},{"name":"fw","type":"int","value":16},{"name":"fh","type":"int","value":16},{"name":"solid","type":"bool","value":true}]},{"id":57,"name":"tree.pine#0","type":"prop","x":584.0,"y":464,"width":0,"height":0,"rotation":0,"visible":true,"point":true,"properties":[{"name":"kind","type":"string","value":"tree.pine"},{"name":"fw","type":"int","value":16},{"name":"fh","type":"int","value":16},{"name":"solid","type":"bool","value":true}]},{"id":58,"name":"tree.grove#1","type":"prop","x":536.0,"y":464,"width":0,"height":0,"rotation":0,"visible":true,"point":true,"properties":[{"name":"kind","type":"string","value":"tree.grove"},{"name":"fw","type":"int","value":48},{"name":"fh","type":"int","value":16},{"name":"solid","type":"bool","value":true}]},{"id":59,"name":"tree.pine#0","type":"prop","x":520.0,"y":32,"width":0,"height":0,"rotation":0,"visible":true,"point":true,"properties":[{"name":"kind","type":"string","value":"tree.pine"},{"name":"fw","type":"int","value":16},{"name":"fh","type":"int","value":16},{"name":"solid","type":"bool","value":true}]},{"id":60,"name":"tree.pine#0","type":"prop","x":200.0,"y":464,"width":0,"height":0,"rotation":0,"visible":true,"point":true,"properties":[{"name":"kind","type":"string","value":"tree.pine"},{"name":"fw","type":"int","value":16},{"name":"fh","type":"int","value":16},{"name":"solid","type":"bool","value":true}]},{"id":61,"name":"tree.grove#1","type":"prop","x":24.0,"y":48,"width":0,"height":0,"rotation":0,"visible":true,"point":true,"properties":[{"name":"kind","type":"string","value":"tree.grove"},{"name":"fw","type":"int","value":48},{"name":"fh","type":"int","value":16},{"name":"solid","type":"bool","value":true}]},{"id":62,"name":"tree.grove#0","type":"prop","x":40.0,"y":208,"width":0,"height":0,"rotation":0,"visible":true,"point":true,"properties":[{"name":"kind","type":"string","value":"tree.grove"},{"name":"fw","type":"int","value":48},{"name":"fh","type":"int","value":16},{"name":"solid","type":"bool","value":true}]},{"id":63,"name":"tree.pine#0","type":"prop","x":8.0,"y":432,"width":0,"height":0,"rotation":0,"visible":true,"point":true,"properties":[{"name":"kind","type":"string","value":"tree.pine"},{"name":"fw","type":"int","value":16},{"name":"fh","type":"int","value":16},{"name":"solid","type":"bool","value":true}]},{"id":64,"name":"tree.grove#0","type":"prop","x":72.0,"y":480,"width":0,"height":0,"rotation":0,"visible":true,"point":true,"properties":[{"name":"kind","type":"string","value":"tree.grove"},{"name":"fw","type":"int","value":48},{"name":"fh","type":"int","value":16},{"name":"solid","type":"bool","value":true}]},{"id":65,"name":"tree.pine#0","type":"prop","x":616.0,"y":416,"width":0,"height":0,"rotation":0,"visible":true,"point":true,"properties":[{"name":"kind","type":"string","value":"tree.pine"},{"name":"fw","type":"int","value":16},{"name":"fh","type":"int","value":16},{"name":"solid","type":"bool","value":true}]},{"id":66,"name":"tree.pine#0","type":"prop","x":168.0,"y":16,"width":0,"height":0,"rotation":0,"visible":true,"point":true,"properties":[{"name":"kind","type":"string","value":"tree.pine"},{"name":"fw","type":"int","value":16},{"name":"fh","type":"int","value":16},{"name":"solid","type":"bool","value":true}]},{"id":67,"name":"tree.grove#0","type":"prop","x":264.0,"y":464,"width":0,"height":0,"rotation":0,"visible":true,"point":true,"properties":[{"name":"kind","type":"string","value":"tree.grove"},{"name":"fw","type":"int","value":48},{"name":"fh","type":"int","value":16},{"name":"solid","type":"bool","value":true}]},{"id":68,"name":"tree.pine#0","type":"prop","x":616.0,"y":448,"width":0,"height":0,"rotation":0,"visible":true,"point":true,"properties":[{"name":"kind","type":"string","value":"tree.pine"},{"name":"fw","type":"int","value":16},{"name":"fh","type":"int","value":16},{"name":"solid","type":"bool","value":true}]},{"id":69,"name":"tree.grove#0","type":"prop","x":616.0,"y":176,"width":0,"height":0,"rotation":0,"visible":true,"point":true,"properties":[{"name":"kind","type":"string","value":"tree.grove"},{"name":"fw","type":"int","value":48},{"name":"fh","type":"int","value":16},{"name":"solid","type":"bool","value":true}]},{"id":70,"name":"tree.pine#0","type":"prop","x":24.0,"y":416,"width":0,"height":0,"rotation":0,"visible":true,"point":true,"properties":[{"name":"kind","type":"string","value":"tree.pine"},{"name":"fw","type":"int","value":16},{"name":"fh","type":"int","value":16},{"name":"solid","type":"bool","value":true}]},{"id":71,"name":"tree.pine#0","type":"prop","x":24.0,"y":400,"width":0,"height":0,"rotation":0,"visible":true,"point":true,"properties":[{"name":"kind","type":"string","value":"tree.pine"},{"name":"fw","type":"int","value":16},{"name":"fh","type":"int","value":16},{"name":"solid","type":"bool","value":true}]},{"id":72,"name":"tree.pine#0","type":"prop","x":120.0,"y":16,"width":0,"height":0,"rotation":0,"visible":true,"point":true,"properties":[{"name":"kind","type":"string","value":"tree.pine"},{"name":"fw","type":"int","value":16},{"name":"fh","type":"int","value":16},{"name":"solid","type":"bool","value":true}]},{"id":73,"name":"tree.grove#1","type":"prop","x":120.0,"y":32,"width":0,"height":0,"rotation":0,"visible":true,"point":true,"properties":[{"name":"kind","type":"string","value":"tree.grove"},{"name":"fw","type":"int","value":48},{"name":"fh","type":"int","value":16},{"name":"solid","type":"bool","value":true}]},{"id":74,"name":"tree.pine#0","type":"prop","x":24.0,"y":192,"width":0,"height":0,"rotation":0,"visible":true,"point":true,"properties":[{"name":"kind","type":"string","value":"tree.pine"},{"name":"fw","type":"int","value":16},{"name":"fh","type":"int","value":16},{"name":"solid","type":"bool","value":true}]},{"id":75,"name":"tree.pine#0","type":"prop","x":504.0,"y":16,"width":0,"height":0,"rotation":0,"visible":true,"point":true,"properties":[{"name":"kind","type":"string","value":"tree.pine"},{"name":"fw","type":"int","value":16},{"name":"fh","type":"int","value":16},{"name":"solid","type":"bool","value":true}]},{"id":76,"name":"tree.grove#1","type":"prop","x":616.0,"y":128,"width":0,"height":0,"rotation":0,"visible":true,"point":true,"properties":[{"name":"kind","type":"string","value":"tree.grove"},{"name":"fw","type":"int","value":48},{"name":"fh","type":"int","value":16},{"name":"solid","type":"bool","value":true}]},{"id":77,"name":"tree.pine#0","type":"prop","x":8.0,"y":16,"width":0,"height":0,"rotation":0,"visible":true,"point":true,"properties":[{"name":"kind","type":"string","value":"tree.pine"},{"name":"fw","type":"int","value":16},{"name":"fh","type":"int","value":16},{"name":"solid","type":"bool","value":true}]},{"id":78,"name":"tree.pine#0","type":"prop","x":328.0,"y":32,"width":0,"height":0,"rotation":0,"visible":true,"point":true,"properties":[{"name":"kind","type":"string","value":"tree.pine"},{"name":"fw","type":"int","value":16},{"name":"fh","type":"int","value":16},{"name":"solid","type":"bool","value":true}]},{"id":79,"name":"tree.pine#0","type":"prop","x":136.0,"y":16,"width":0,"height":0,"rotation":0,"visible":true,"point":true,"properties":[{"name":"kind","type":"string","value":"tree.pine"},{"name":"fw","type":"int","value":16},{"name":"fh","type":"int","value":16},{"name":"solid","type":"bool","value":true}]},{"id":80,"name":"tree.pine#0","type":"prop","x":152.0,"y":464,"width":0,"height":0,"rotation":0,"visible":true,"point":true,"properties":[{"name":"kind","type":"string","value":"tree.pine"},{"name":"fw","type":"int","value":16},{"name":"fh","type":"int","value":16},{"name":"solid","type":"bool","value":true}]},{"id":81,"name":"tree.grove#1","type":"prop","x":24.0,"y":176,"width":0,"height":0,"rotation":0,"visible":true,"point":true,"properties":[{"name":"kind","type":"string","value":"tree.grove"},{"name":"fw","type":"int","value":48},{"name":"fh","type":"int","value":16},{"name":"solid","type":"bool","value":true}]},{"id":82,"name":"tree.grove#1","type":"prop","x":360.0,"y":464,"width":0,"height":0,"rotation":0,"visible":true,"point":true,"properties":[{"name":"kind","type":"string","value":"tree.grove"},{"name":"fw","type":"int","value":48},{"name":"fh","type":"int","value":16},{"name":"solid","type":"bool","value":true}]},{"id":83,"name":"tree.grove#1","type":"prop","x":24.0,"y":160,"width":0,"height":0,"rotation":0,"visible":true,"point":true,"properties":[{"name":"kind","type":"string","value":"tree.grove"},{"name":"fw","type":"int","value":48},{"name":"fh","type":"int","value":16},{"name":"solid","type":"bool","value":true}]},{"id":84,"name":"tree.grove#0","type":"prop","x":168.0,"y":32,"width":0,"height":0,"rotation":0,"visible":true,"point":true,"properties":[{"name":"kind","type":"string","value":"tree.grove"},{"name":"fw","type":"int","value":48},{"name":"fh","type":"int","value":16},{"name":"solid","type":"bool","value":true}]},{"id":85,"name":"tree.grove#1","type":"prop","x":200.0,"y":16,"width":0,"height":0,"rotation":0,"visible":true,"point":true,"properties":[{"name":"kind","type":"string","value":"tree.grove"},{"name":"fw","type":"int","value":48},{"name":"fh","type":"int","value":16},{"name":"solid","type":"bool","value":true}]},{"id":86,"name":"tree.grove#1","type":"prop","x":264.0,"y":32,"width":0,"height":0,"rotation":0,"visible":true,"point":true,"properties":[{"name":"kind","type":"string","value":"tree.grove"},{"name":"fw","type":"int","value":48},{"name":"fh","type":"int","value":16},{"name":"solid","type":"bool","value":true}]},{"id":87,"name":"tree.pine#0","type":"prop","x":616.0,"y":384,"width":0,"height":0,"rotation":0,"visible":true,"point":true,"properties":[{"name":"kind","type":"string","value":"tree.pine"},{"name":"fw","type":"int","value":16},{"name":"fh","type":"int","value":16},{"name":"solid","type":"bool","value":true}]},{"id":88,"name":"tree.pine#0","type":"prop","x":40.0,"y":16,"width":0,"height":0,"rotation":0,"visible":true,"point":true,"properties":[{"name":"kind","type":"string","value":"tree.pine"},{"name":"fw","type":"int","value":16},{"name":"fh","type":"int","value":16},{"name":"solid","type":"bool","value":true}]},{"id":89,"name":"tree.pine#0","type":"prop","x":24.0,"y":432,"width":0,"height":0,"rotation":0,"visible":true,"point":true,"properties":[{"name":"kind","type":"string","value":"tree.pine"},{"name":"fw","type":"int","value":16},{"name":"fh","type":"int","value":16},{"name":"solid","type":"bool","value":true}]},{"id":90,"name":"tree.grove#1","type":"prop","x":312.0,"y":480,"width":0,"height":0,"rotation":0,"visible":true,"point":true,"properties":[{"name":"kind","type":"string","value":"tree.grove"},{"name":"fw","type":"int","value":48},{"name":"fh","type":"int","value":16},{"name":"solid","type":"bool","value":true}]},{"id":91,"name":"tree.grove#0","type":"prop","x":72.0,"y":16,"width":0,"height":0,"rotation":0,"visible":true,"point":true,"properties":[{"name":"kind","type":"string","value":"tree.grove"},{"name":"fw","type":"int","value":48},{"name":"fh","type":"int","value":16},{"name":"solid","type":"bool","value":true}]},{"id":92,"name":"tree.pine#0","type":"prop","x":24.0,"y":32,"width":0,"height":0,"rotation":0,"visible":true,"point":true,"properties":[{"name":"kind","type":"string","value":"tree.pine"},{"name":"fw","type":"int","value":16},{"name":"fh","type":"int","value":16},{"name":"solid","type":"bool","value":true}]},{"id":93,"name":"tree.grove#0","type":"prop","x":616.0,"y":48,"width":0,"height":0,"rotation":0,"visible":true,"point":true,"properties":[{"name":"kind","type":"string","value":"tree.grove"},{"name":"fw","type":"int","value":48},{"name":"fh","type":"int","value":16},{"name":"solid","type":"bool","value":true}]},{"id":94,"name":"tree.pine#0","type":"prop","x":616.0,"y":256,"width":0,"height":0,"rotation":0,"visible":true,"point":true,"properties":[{"name":"kind","type":"string","value":"tree.pine"},{"name":"fw","type":"int","value":16},{"name":"fh","type":"int","value":16},{"name":"solid","type":"bool","value":true}]},{"id":95,"name":"tree.grove#0","type":"prop","x":616.0,"y":432,"width":0,"height":0,"rotation":0,"visible":true,"point":true,"properties":[{"name":"kind","type":"string","value":"tree.grove"},{"name":"fw","type":"int","value":48},{"name":"fh","type":"int","value":16},{"name":"solid","type":"bool","value":true}]},{"id":96,"name":"tree.pine#0","type":"prop","x":8.0,"y":96,"width":0,"height":0,"rotation":0,"visible":true,"point":true,"properties":[{"name":"kind","type":"string","value":"tree.pine"},{"name":"fw","type":"int","value":16},{"name":"fh","type":"int","value":16},{"name":"solid","type":"bool","value":true}]},{"id":97,"name":"tree.pine#0","type":"prop","x":632.0,"y":464,"width":0,"height":0,"rotation":0,"visible":true,"point":true,"properties":[{"name":"kind","type":"string","value":"tree.pine"},{"name":"fw","type":"int","value":16},{"name":"fh","type":"int","value":16},{"name":"solid","type":"bool","value":true}]},{"id":98,"name":"tree.pine#0","type":"prop","x":232.0,"y":32,"width":0,"height":0,"rotation":0,"visible":true,"point":true,"properties":[{"name":"kind","type":"string","value":"tree.pine"},{"name":"fw","type":"int","value":16},{"name":"fh","type":"int","value":16},{"name":"solid","type":"bool","value":true}]},{"id":99,"name":"tree.pine#0","type":"prop","x":616.0,"y":80,"width":0,"height":0,"rotation":0,"visible":true,"point":true,"properties":[{"name":"kind","type":"string","value":"tree.pine"},{"name":"fw","type":"int","value":16},{"name":"fh","type":"int","value":16},{"name":"solid","type":"bool","value":true}]},{"id":100,"name":"tree.pine#0","type":"prop","x":8.0,"y":128,"width":0,"height":0,"rotation":0,"visible":true,"point":true,"properties":[{"name":"kind","type":"string","value":"tree.pine"},{"name":"fw","type":"int","value":16},{"name":"fh","type":"int","value":16},{"name":"solid","type":"bool","value":true}]},{"id":101,"name":"tree.grove#1","type":"prop","x":24.0,"y":320,"width":0,"height":0,"rotation":0,"visible":true,"point":true,"properties":[{"name":"kind","type":"string","value":"tree.grove"},{"name":"fw","type":"int","value":48},{"name":"fh","type":"int","value":16},{"name":"solid","type":"bool","value":true}]},{"id":102,"name":"tree.pine#0","type":"prop","x":8.0,"y":368,"width":0,"height":0,"rotation":0,"visible":true,"point":true,"properties":[{"name":"kind","type":"string","value":"tree.pine"},{"name":"fw","type":"int","value":16},{"name":"fh","type":"int","value":16},{"name":"solid","type":"bool","value":true}]},{"id":103,"name":"tree.pine#0","type":"prop","x":392.0,"y":480,"width":0,"height":0,"rotation":0,"visible":true,"point":true,"properties":[{"name":"kind","type":"string","value":"tree.pine"},{"name":"fw","type":"int","value":16},{"name":"fh","type":"int","value":16},{"name":"solid","type":"bool","value":true}]},{"id":104,"name":"tree.pine#0","type":"prop","x":344.0,"y":16,"width":0,"height":0,"rotation":0,"visible":true,"point":true,"properties":[{"name":"kind","type":"string","value":"tree.pine"},{"name":"fw","type":"int","value":16},{"name":"fh","type":"int","value":16},{"name":"solid","type":"bool","value":true}]},{"id":105,"name":"tree.grove#1","type":"prop","x":616.0,"y":96,"width":0,"height":0,"rotation":0,"visible":true,"point":true,"properties":[{"name":"kind","type":"string","value":"tree.grove"},{"name":"fw","type":"int","value":48},{"name":"fh","type":"int","value":16},{"name":"solid","type":"bool","value":true}]},{"id":106,"name":"tree.pine#0","type":"prop","x":296.0,"y":464,"width":0,"height":0,"rotation":0,"visible":true,"point":true,"properties":[{"name":"kind","type":"string","value":"tree.pine"},{"name":"fw","type":"int","value":16},{"name":"fh","type":"int","value":16},{"name":"solid","type":"bool","value":true}]},{"id":107,"name":"tree.pine#0","type":"prop","x":24.0,"y":368,"width":0,"height":0,"rotation":0,"visible":true,"point":true,"properties":[{"name":"kind","type":"string","value":"tree.pine"},{"name":"fw","type":"int","value":16},{"name":"fh","type":"int","value":16},{"name":"solid","type":"bool","value":true}]},{"id":108,"name":"tree.pine#0","type":"prop","x":392.0,"y":464,"width":0,"height":0,"rotation":0,"visible":true,"point":true,"properties":[{"name":"kind","type":"string","value":"tree.pine"},{"name":"fw","type":"int","value":16},{"name":"fh","type":"int","value":16},{"name":"solid","type":"bool","value":true}]},{"id":109,"name":"tree.grove#1","type":"prop","x":456.0,"y":32,"width":0,"height":0,"rotation":0,"visible":true,"point":true,"properties":[{"name":"kind","type":"string","value":"tree.grove"},{"name":"fw","type":"int","value":48},{"name":"fh","type":"int","value":16},{"name":"solid","type":"bool","value":true}]},{"id":110,"name":"tree.pine#0","type":"prop","x":24.0,"y":16,"width":0,"height":0,"rotation":0,"visible":true,"point":true,"properties":[{"name":"kind","type":"string","value":"tree.pine"},{"name":"fw","type":"int","value":16},{"name":"fh","type":"int","value":16},{"name":"solid","type":"bool","value":true}]},{"id":111,"name":"tree.pine#0","type":"prop","x":520.0,"y":16,"width":0,"height":0,"rotation":0,"visible":true,"point":true,"properties":[{"name":"kind","type":"string","value":"tree.pine"},{"name":"fw","type":"int","value":16},{"name":"fh","type":"int","value":16},{"name":"solid","type":"bool","value":true}]},{"id":112,"name":"tree.pine#0","type":"prop","x":376.0,"y":480,"width":0,"height":0,"rotation":0,"visible":true,"point":true,"properties":[{"name":"kind","type":"string","value":"tree.pine"},{"name":"fw","type":"int","value":16},{"name":"fh","type":"int","value":16},{"name":"solid","type":"bool","value":true}]},{"id":113,"name":"tree.grove#1","type":"prop","x":616.0,"y":352,"width":0,"height":0,"rotation":0,"visible":true,"point":true,"properties":[{"name":"kind","type":"string","value":"tree.grove"},{"name":"fw","type":"int","value":48},{"name":"fh","type":"int","value":16},{"name":"solid","type":"bool","value":true}]},{"id":114,"name":"tree.pine#0","type":"prop","x":408.0,"y":480,"width":0,"height":0,"rotation":0,"visible":true,"point":true,"properties":[{"name":"kind","type":"string","value":"tree.pine"},{"name":"fw","type":"int","value":16},{"name":"fh","type":"int","value":16},{"name":"solid","type":"bool","value":true}]},{"id":115,"name":"tree.pine#0","type":"prop","x":312.0,"y":464,"width":0,"height":0,"rotation":0,"visible":true,"point":true,"properties":[{"name":"kind","type":"string","value":"tree.pine"},{"name":"fw","type":"int","value":16},{"name":"fh","type":"int","value":16},{"name":"solid","type":"bool","value":true}]},{"id":116,"name":"tree.grove#0","type":"prop","x":616.0,"y":192,"width":0,"height":0,"rotation":0,"visible":true,"point":true,"properties":[{"name":"kind","type":"string","value":"tree.grove"},{"name":"fw","type":"int","value":48},{"name":"fh","type":"int","value":16},{"name":"solid","type":"bool","value":true}]},{"id":117,"name":"tree.grove#0","type":"prop","x":616.0,"y":320,"width":0,"height":0,"rotation":0,"visible":true,"point":true,"properties":[{"name":"kind","type":"string","value":"tree.grove"},{"name":"fw","type":"int","value":48},{"name":"fh","type":"int","value":16},{"name":"solid","type":"bool","value":true}]},{"id":118,"name":"tree.pine#0","type":"prop","x":8.0,"y":352,"width":0,"height":0,"rotation":0,"visible":true,"point":true,"properties":[{"name":"kind","type":"string","value":"tree.pine"},{"name":"fw","type":"int","value":16},{"name":"fh","type":"int","value":16},{"name":"solid","type":"bool","value":true}]},{"id":119,"name":"tree.pine#0","type":"prop","x":216.0,"y":32,"width":0,"height":0,"rotation":0,"visible":true,"point":true,"properties":[{"name":"kind","type":"string","value":"tree.pine"},{"name":"fw","type":"int","value":16},{"name":"fh","type":"int","value":16},{"name":"solid","type":"bool","value":true}]},{"id":120,"name":"tree.pine#0","type":"prop","x":552.0,"y":16,"width":0,"height":0,"rotation":0,"visible":true,"point":true,"properties":[{"name":"kind","type":"string","value":"tree.pine"},{"name":"fw","type":"int","value":16},{"name":"fh","type":"int","value":16},{"name":"solid","type":"bool","value":true}]},{"id":121,"name":"tree.pine#0","type":"prop","x":632.0,"y":144,"width":0,"height":0,"rotation":0,"visible":true,"point":true,"properties":[{"name":"kind","type":"string","value":"tree.pine"},{"name":"fw","type":"int","value":16},{"name":"fh","type":"int","value":16},{"name":"solid","type":"bool","value":true}]},{"id":122,"name":"tree.pine#0","type":"prop","x":600.0,"y":464,"width":0,"height":0,"rotation":0,"visible":true,"point":true,"properties":[{"name":"kind","type":"string","value":"tree.pine"},{"name":"fw","type":"int","value":16},{"name":"fh","type":"int","value":16},{"name":"solid","type":"bool","value":true}]},{"id":123,"name":"tree.pine#0","type":"prop","x":440.0,"y":464,"width":0,"height":0,"rotation":0,"visible":true,"point":true,"properties":[{"name":"kind","type":"string","value":"tree.pine"},{"name":"fw","type":"int","value":16},{"name":"fh","type":"int","value":16},{"name":"solid","type":"bool","value":true}]},{"id":124,"name":"tree.pine#0","type":"prop","x":232.0,"y":16,"width":0,"height":0,"rotation":0,"visible":true,"point":true,"properties":[{"name":"kind","type":"string","value":"tree.pine"},{"name":"fw","type":"int","value":16},{"name":"fh","type":"int","value":16},{"name":"solid","type":"bool","value":true}]},{"id":125,"name":"tree.pine#0","type":"prop","x":632.0,"y":160,"width":0,"height":0,"rotation":0,"visible":true,"point":true,"properties":[{"name":"kind","type":"string","value":"tree.pine"},{"name":"fw","type":"int","value":16},{"name":"fh","type":"int","value":16},{"name":"solid","type":"bool","value":true}]},{"id":126,"name":"tree.grove#0","type":"prop","x":24.0,"y":464,"width":0,"height":0,"rotation":0,"visible":true,"point":true,"properties":[{"name":"kind","type":"string","value":"tree.grove"},{"name":"fw","type":"int","value":48},{"name":"fh","type":"int","value":16},{"name":"solid","type":"bool","value":true}]},{"id":127,"name":"tree.pine#0","type":"prop","x":424.0,"y":480,"width":0,"height":0,"rotation":0,"visible":true,"point":true,"properties":[{"name":"kind","type":"string","value":"tree.pine"},{"name":"fw","type":"int","value":16},{"name":"fh","type":"int","value":16},{"name":"solid","type":"bool","value":true}]},{"id":128,"name":"tree.grove#1","type":"prop","x":616.0,"y":240,"width":0,"height":0,"rotation":0,"visible":true,"point":true,"properties":[{"name":"kind","type":"string","value":"tree.grove"},{"name":"fw","type":"int","value":48},{"name":"fh","type":"int","value":16},{"name":"solid","type":"bool","value":true}]},{"id":129,"name":"tree.pine#0","type":"prop","x":616.0,"y":32,"width":0,"height":0,"rotation":0,"visible":true,"point":true,"properties":[{"name":"kind","type":"string","value":"tree.pine"},{"name":"fw","type":"int","value":16},{"name":"fh","type":"int","value":16},{"name":"solid","type":"bool","value":true}]},{"id":130,"name":"tree.pine#0","type":"prop","x":632.0,"y":80,"width":0,"height":0,"rotation":0,"visible":true,"point":true,"properties":[{"name":"kind","type":"string","value":"tree.pine"},{"name":"fw","type":"int","value":16},{"name":"fh","type":"int","value":16},{"name":"solid","type":"bool","value":true}]},{"id":131,"name":"tree.pine#0","type":"prop","x":424.0,"y":464,"width":0,"height":0,"rotation":0,"visible":true,"point":true,"properties":[{"name":"kind","type":"string","value":"tree.pine"},{"name":"fw","type":"int","value":16},{"name":"fh","type":"int","value":16},{"name":"solid","type":"bool","value":true}]},{"id":132,"name":"tree.grove#0","type":"prop","x":24.0,"y":480,"width":0,"height":0,"rotation":0,"visible":true,"point":true,"properties":[{"name":"kind","type":"string","value":"tree.grove"},{"name":"fw","type":"int","value":48},{"name":"fh","type":"int","value":16},{"name":"solid","type":"bool","value":true}]},{"id":133,"name":"tree.pine#0","type":"prop","x":632.0,"y":288,"width":0,"height":0,"rotation":0,"visible":true,"point":true,"properties":[{"name":"kind","type":"string","value":"tree.pine"},{"name":"fw","type":"int","value":16},{"name":"fh","type":"int","value":16},{"name":"solid","type":"bool","value":true}]},{"id":134,"name":"tree.pine#0","type":"prop","x":616.0,"y":400,"width":0,"height":0,"rotation":0,"visible":true,"point":true,"properties":[{"name":"kind","type":"string","value":"tree.pine"},{"name":"fw","type":"int","value":16},{"name":"fh","type":"int","value":16},{"name":"solid","type":"bool","value":true}]},{"id":135,"name":"tree.pine#0","type":"prop","x":24.0,"y":336,"width":0,"height":0,"rotation":0,"visible":true,"point":true,"properties":[{"name":"kind","type":"string","value":"tree.pine"},{"name":"fw","type":"int","value":16},{"name":"fh","type":"int","value":16},{"name":"solid","type":"bool","value":true}]},{"id":136,"name":"tree.pine#0","type":"prop","x":632.0,"y":448,"width":0,"height":0,"rotation":0,"visible":true,"point":true,"properties":[{"name":"kind","type":"string","value":"tree.pine"},{"name":"fw","type":"int","value":16},{"name":"fh","type":"int","value":16},{"name":"solid","type":"bool","value":true}]},{"id":137,"name":"tree.pine#0","type":"prop","x":360.0,"y":16,"width":0,"height":0,"rotation":0,"visible":true,"point":true,"properties":[{"name":"kind","type":"string","value":"tree.pine"},{"name":"fw","type":"int","value":16},{"name":"fh","type":"int","value":16},{"name":"solid","type":"bool","value":true}]},{"id":138,"name":"tree.pine#0","type":"prop","x":632.0,"y":400,"width":0,"height":0,"rotation":0,"visible":true,"point":true,"properties":[{"name":"kind","type":"string","value":"tree.pine"},{"name":"fw","type":"int","value":16},{"name":"fh","type":"int","value":16},{"name":"solid","type":"bool","value":true}]},{"id":139,"name":"tree.pine#0","type":"prop","x":8.0,"y":32,"width":0,"height":0,"rotation":0,"visible":true,"point":true,"properties":[{"name":"kind","type":"string","value":"tree.pine"},{"name":"fw","type":"int","value":16},{"name":"fh","type":"int","value":16},{"name":"solid","type":"bool","value":true}]},{"id":140,"name":"tree.pine#0","type":"prop","x":136.0,"y":464,"width":0,"height":0,"rotation":0,"visible":true,"point":true,"properties":[{"name":"kind","type":"string","value":"tree.pine"},{"name":"fw","type":"int","value":16},{"name":"fh","type":"int","value":16},{"name":"solid","type":"bool","value":true}]},{"id":141,"name":"tree.grove#0","type":"prop","x":616.0,"y":304,"width":0,"height":0,"rotation":0,"visible":true,"point":true,"properties":[{"name":"kind","type":"string","value":"tree.grove"},{"name":"fw","type":"int","value":48},{"name":"fh","type":"int","value":16},{"name":"solid","type":"bool","value":true}]},{"id":142,"name":"tree.grove#1","type":"prop","x":616.0,"y":272,"width":0,"height":0,"rotation":0,"visible":true,"point":true,"properties":[{"name":"kind","type":"string","value":"tree.grove"},{"name":"fw","type":"int","value":48},{"name":"fh","type":"int","value":16},{"name":"solid","type":"bool","value":true}]},{"id":143,"name":"tree.pine#0","type":"prop","x":440.0,"y":480,"width":0,"height":0,"rotation":0,"visible":true,"point":true,"properties":[{"name":"kind","type":"string","value":"tree.pine"},{"name":"fw","type":"int","value":16},{"name":"fh","type":"int","value":16},{"name":"solid","type":"bool","value":true}]},{"id":144,"name":"tree.pine#0","type":"prop","x":312.0,"y":16,"width":0,"height":0,"rotation":0,"visible":true,"point":true,"properties":[{"name":"kind","type":"string","value":"tree.pine"},{"name":"fw","type":"int","value":16},{"name":"fh","type":"int","value":16},{"name":"solid","type":"bool","value":true}]},{"id":145,"name":"tree.grove#1","type":"prop","x":40.0,"y":352,"width":0,"height":0,"rotation":0,"visible":true,"point":true,"properties":[{"name":"kind","type":"string","value":"tree.grove"},{"name":"fw","type":"int","value":48},{"name":"fh","type":"int","value":16},{"name":"solid","type":"bool","value":true}]},{"id":146,"name":"tree.pine#0","type":"prop","x":616.0,"y":112,"width":0,"height":0,"rotation":0,"visible":true,"point":true,"properties":[{"name":"kind","type":"string","value":"tree.pine"},{"name":"fw","type":"int","value":16},{"name":"fh","type":"int","value":16},{"name":"solid","type":"bool","value":true}]},{"id":147,"name":"tree.pine#0","type":"prop","x":632.0,"y":208,"width":0,"height":0,"rotation":0,"visible":true,"point":true,"properties":[{"name":"kind","type":"string","value":"tree.pine"},{"name":"fw","type":"int","value":16},{"name":"fh","type":"int","value":16},{"name":"solid","type":"bool","value":true}]},{"id":148,"name":"tree.grove#0","type":"prop","x":168.0,"y":480,"width":0,"height":0,"rotation":0,"visible":true,"point":true,"properties":[{"name":"kind","type":"string","value":"tree.grove"},{"name":"fw","type":"int","value":48},{"name":"fh","type":"int","value":16},{"name":"solid","type":"bool","value":true}]},{"id":149,"name":"tree.grove#1","type":"prop","x":472.0,"y":464,"width":0,"height":0,"rotation":0,"visible":true,"point":true,"properties":[{"name":"kind","type":"string","value":"tree.grove"},{"name":"fw","type":"int","value":48},{"name":"fh","type":"int","value":16},{"name":"solid","type":"bool","value":true}]},{"id":150,"name":"tree.grove#1","type":"prop","x":40.0,"y":80,"width":0,"height":0,"rotation":0,"visible":true,"point":true,"properties":[{"name":"kind","type":"string","value":"tree.grove"},{"name":"fw","type":"int","value":48},{"name":"fh","type":"int","value":16},{"name":"solid","type":"bool","value":true}]},{"id":151,"name":"tree.pine#0","type":"prop","x":8.0,"y":144,"width":0,"height":0,"rotation":0,"visible":true,"point":true,"properties":[{"name":"kind","type":"string","value":"tree.pine"},{"name":"fw","type":"int","value":16},{"name":"fh","type":"int","value":16},{"name":"solid","type":"bool","value":true}]},{"id":152,"name":"tree.pine#0","type":"prop","x":504.0,"y":464,"width":0,"height":0,"rotation":0,"visible":true,"point":true,"properties":[{"name":"kind","type":"string","value":"tree.pine"},{"name":"fw","type":"int","value":16},{"name":"fh","type":"int","value":16},{"name":"solid","type":"bool","value":true}]},{"id":153,"name":"tree.grove#0","type":"prop","x":72.0,"y":32,"width":0,"height":0,"rotation":0,"visible":true,"point":true,"properties":[{"name":"kind","type":"string","value":"tree.grove"},{"name":"fw","type":"int","value":48},{"name":"fh","type":"int","value":16},{"name":"solid","type":"bool","value":true}]},{"id":154,"name":"tree.grove#0","type":"prop","x":40.0,"y":64,"width":0,"height":0,"rotation":0,"visible":true,"point":true,"properties":[{"name":"kind","type":"string","value":"tree.grove"},{"name":"fw","type":"int","value":48},{"name":"fh","type":"int","value":16},{"name":"solid","type":"bool","value":true}]},{"id":155,"name":"tree.pine#0","type":"prop","x":120.0,"y":464,"width":0,"height":0,"rotation":0,"visible":true,"point":true,"properties":[{"name":"kind","type":"string","value":"tree.pine"},{"name":"fw","type":"int","value":16},{"name":"fh","type":"int","value":16},{"name":"solid","type":"bool","value":true}]},{"id":156,"name":"tree.pine#0","type":"prop","x":584.0,"y":32,"width":0,"height":0,"rotation":0,"visible":true,"point":true,"properties":[{"name":"kind","type":"string","value":"tree.pine"},{"name":"fw","type":"int","value":16},{"name":"fh","type":"int","value":16},{"name":"solid","type":"bool","value":true}]},{"id":157,"name":"tree.pine#0","type":"prop","x":456.0,"y":480,"width":0,"height":0,"rotation":0,"visible":true,"point":true,"properties":[{"name":"kind","type":"string","value":"tree.pine"},{"name":"fw","type":"int","value":16},{"name":"fh","type":"int","value":16},{"name":"solid","type":"bool","value":true}]},{"id":158,"name":"tree.grove#0","type":"prop","x":40.0,"y":448,"width":0,"height":0,"rotation":0,"visible":true,"point":true,"properties":[{"name":"kind","type":"string","value":"tree.grove"},{"name":"fw","type":"int","value":48},{"name":"fh","type":"int","value":16},{"name":"solid","type":"bool","value":true}]},{"id":159,"name":"tree.pine#0","type":"prop","x":616.0,"y":64,"width":0,"height":0,"rotation":0,"visible":true,"point":true,"properties":[{"name":"kind","type":"string","value":"tree.pine"},{"name":"fw","type":"int","value":16},{"name":"fh","type":"int","value":16},{"name":"solid","type":"bool","value":true}]},{"id":160,"name":"tree.grove#1","type":"prop","x":40.0,"y":128,"width":0,"height":0,"rotation":0,"visible":true,"point":true,"properties":[{"name":"kind","type":"string","value":"tree.grove"},{"name":"fw","type":"int","value":48},{"name":"fh","type":"int","value":16},{"name":"solid","type":"bool","value":true}]},{"id":161,"name":"tree.pine#0","type":"prop","x":8.0,"y":208,"width":0,"height":0,"rotation":0,"visible":true,"point":true,"properties":[{"name":"kind","type":"string","value":"tree.pine"},{"name":"fw","type":"int","value":16},{"name":"fh","type":"int","value":16},{"name":"solid","type":"bool","value":true}]},{"id":162,"name":"tree.pine#0","type":"prop","x":8.0,"y":400,"width":0,"height":0,"rotation":0,"visible":true,"point":true,"properties":[{"name":"kind","type":"string","value":"tree.pine"},{"name":"fw","type":"int","value":16},{"name":"fh","type":"int","value":16},{"name":"solid","type":"bool","value":true}]},{"id":163,"name":"tree.grove#1","type":"prop","x":40.0,"y":96,"width":0,"height":0,"rotation":0,"visible":true,"point":true,"properties":[{"name":"kind","type":"string","value":"tree.grove"},{"name":"fw","type":"int","value":48},{"name":"fh","type":"int","value":16},{"name":"solid","type":"bool","value":true}]},{"id":164,"name":"tree.pine#0","type":"prop","x":8.0,"y":448,"width":0,"height":0,"rotation":0,"visible":true,"point":true,"properties":[{"name":"kind","type":"string","value":"tree.pine"},{"name":"fw","type":"int","value":16},{"name":"fh","type":"int","value":16},{"name":"solid","type":"bool","value":true}]},{"id":165,"name":"tree.grove#0","type":"prop","x":40.0,"y":144,"width":0,"height":0,"rotation":0,"visible":true,"point":true,"properties":[{"name":"kind","type":"string","value":"tree.grove"},{"name":"fw","type":"int","value":48},{"name":"fh","type":"int","value":16},{"name":"solid","type":"bool","value":true}]},{"id":166,"name":"tree.pine#0","type":"prop","x":40.0,"y":32,"width":0,"height":0,"rotation":0,"visible":true,"point":true,"properties":[{"name":"kind","type":"string","value":"tree.pine"},{"name":"fw","type":"int","value":16},{"name":"fh","type":"int","value":16},{"name":"solid","type":"bool","value":true}]},{"id":167,"name":"tree.pine#0","type":"prop","x":104.0,"y":464,"width":0,"height":0,"rotation":0,"visible":true,"point":true,"properties":[{"name":"kind","type":"string","value":"tree.pine"},{"name":"fw","type":"int","value":16},{"name":"fh","type":"int","value":16},{"name":"solid","type":"bool","value":true}]},{"id":168,"name":"tree.pine#0","type":"prop","x":8.0,"y":80,"width":0,"height":0,"rotation":0,"visible":true,"point":true,"properties":[{"name":"kind","type":"string","value":"tree.pine"},{"name":"fw","type":"int","value":16},{"name":"fh","type":"int","value":16},{"name":"solid","type":"bool","value":true}]},{"id":169,"name":"tree.pine#0","type":"prop","x":632.0,"y":336,"width":0,"height":0,"rotation":0,"visible":true,"point":true,"properties":[{"name":"kind","type":"string","value":"tree.pine"},{"name":"fw","type":"int","value":16},{"name":"fh","type":"int","value":16},{"name":"solid","type":"bool","value":true}]},{"id":170,"name":"tree.pine#0","type":"prop","x":600.0,"y":32,"width":0,"height":0,"rotation":0,"visible":true,"point":true,"properties":[{"name":"kind","type":"string","value":"tree.pine"},{"name":"fw","type":"int","value":16},{"name":"fh","type":"int","value":16},{"name":"solid","type":"bool","value":true}]},{"id":171,"name":"tree.pine#0","type":"prop","x":424.0,"y":32,"width":0,"height":0,"rotation":0,"visible":true,"point":true,"properties":[{"name":"kind","type":"string","value":"tree.pine"},{"name":"fw","type":"int","value":16},{"name":"fh","type":"int","value":16},{"name":"solid","type":"bool","value":true}]},{"id":172,"name":"tree.pine#0","type":"prop","x":632.0,"y":112,"width":0,"height":0,"rotation":0,"visible":true,"point":true,"properties":[{"name":"kind","type":"string","value":"tree.pine"},{"name":"fw","type":"int","value":16},{"name":"fh","type":"int","value":16},{"name":"solid","type":"bool","value":true}]},{"id":173,"name":"tree.pine#0","type":"prop","x":616.0,"y":464,"width":0,"height":0,"rotation":0,"visible":true,"point":true,"properties":[{"name":"kind","type":"string","value":"tree.pine"},{"name":"fw","type":"int","value":16},{"name":"fh","type":"int","value":16},{"name":"solid","type":"bool","value":true}]},{"id":174,"name":"tree.pine#0","type":"prop","x":616.0,"y":288,"width":0,"height":0,"rotation":0,"visible":true,"point":true,"properties":[{"name":"kind","type":"string","value":"tree.pine"},{"name":"fw","type":"int","value":16},{"name":"fh","type":"int","value":16},{"name":"solid","type":"bool","value":true}]},{"id":175,"name":"plant.bush#1","type":"prop","x":504.0,"y":112,"width":0,"height":0,"rotation":0,"visible":true,"point":true,"properties":[{"name":"kind","type":"string","value":"plant.bush"},{"name":"fw","type":"int","value":16},{"name":"fh","type":"int","value":16},{"name":"solid","type":"bool","value":false}]},{"id":176,"name":"plant.bush#1","type":"prop","x":264.0,"y":432,"width":0,"height":0,"rotation":0,"visible":true,"point":true,"properties":[{"name":"kind","type":"string","value":"plant.bush"},{"name":"fw","type":"int","value":16},{"name":"fh","type":"int","value":16},{"name":"solid","type":"bool","value":false}]},{"id":177,"name":"plant.bush#1","type":"prop","x":216.0,"y":432,"width":0,"height":0,"rotation":0,"visible":true,"point":true,"properties":[{"name":"kind","type":"string","value":"plant.bush"},{"name":"fw","type":"int","value":16},{"name":"fh","type":"int","value":16},{"name":"solid","type":"bool","value":false}]},{"id":178,"name":"plant.bush#1","type":"prop","x":168.0,"y":416,"width":0,"height":0,"rotation":0,"visible":true,"point":true,"properties":[{"name":"kind","type":"string","value":"plant.bush"},{"name":"fw","type":"int","value":16},{"name":"fh","type":"int","value":16},{"name":"solid","type":"bool","value":false}]},{"id":179,"name":"plant.bush#1","type":"prop","x":520.0,"y":240,"width":0,"height":0,"rotation":0,"visible":true,"point":true,"properties":[{"name":"kind","type":"string","value":"plant.bush"},{"name":"fw","type":"int","value":16},{"name":"fh","type":"int","value":16},{"name":"solid","type":"bool","value":false}]},{"id":180,"name":"plant.bush#1","type":"prop","x":136.0,"y":144,"width":0,"height":0,"rotation":0,"visible":true,"point":true,"properties":[{"name":"kind","type":"string","value":"plant.bush"},{"name":"fw","type":"int","value":16},{"name":"fh","type":"int","value":16},{"name":"solid","type":"bool","value":false}]},{"id":181,"name":"plant.bush#0","type":"prop","x":600.0,"y":160,"width":0,"height":0,"rotation":0,"visible":true,"point":true,"properties":[{"name":"kind","type":"string","value":"plant.bush"},{"name":"fw","type":"int","value":16},{"name":"fh","type":"int","value":16},{"name":"solid","type":"bool","value":false}]},{"id":182,"name":"plant.bush#0","type":"prop","x":120.0,"y":320,"width":0,"height":0,"rotation":0,"visible":true,"point":true,"properties":[{"name":"kind","type":"string","value":"plant.bush"},{"name":"fw","type":"int","value":16},{"name":"fh","type":"int","value":16},{"name":"solid","type":"bool","value":false}]},{"id":183,"name":"plant.bush#0","type":"prop","x":200.0,"y":160,"width":0,"height":0,"rotation":0,"visible":true,"point":true,"properties":[{"name":"kind","type":"string","value":"plant.bush"},{"name":"fw","type":"int","value":16},{"name":"fh","type":"int","value":16},{"name":"solid","type":"bool","value":false}]},{"id":184,"name":"plant.grass#0","type":"prop","x":376.0,"y":368,"width":0,"height":0,"rotation":0,"visible":true,"point":true,"properties":[{"name":"kind","type":"string","value":"plant.grass"},{"name":"fw","type":"int","value":16},{"name":"fh","type":"int","value":16},{"name":"solid","type":"bool","value":false}]},{"id":185,"name":"plant.grass#0","type":"prop","x":520.0,"y":288,"width":0,"height":0,"rotation":0,"visible":true,"point":true,"properties":[{"name":"kind","type":"string","value":"plant.grass"},{"name":"fw","type":"int","value":16},{"name":"fh","type":"int","value":16},{"name":"solid","type":"bool","value":false}]},{"id":186,"name":"plant.grass#0","type":"prop","x":536.0,"y":224,"width":0,"height":0,"rotation":0,"visible":true,"point":true,"properties":[{"name":"kind","type":"string","value":"plant.grass"},{"name":"fw","type":"int","value":16},{"name":"fh","type":"int","value":16},{"name":"solid","type":"bool","value":false}]},{"id":187,"name":"plant.grass#0","type":"prop","x":424.0,"y":112,"width":0,"height":0,"rotation":0,"visible":true,"point":true,"properties":[{"name":"kind","type":"string","value":"plant.grass"},{"name":"fw","type":"int","value":16},{"name":"fh","type":"int","value":16},{"name":"solid","type":"bool","value":false}]},{"id":188,"name":"plant.grass#0","type":"prop","x":152.0,"y":48,"width":0,"height":0,"rotation":0,"visible":true,"point":true,"properties":[{"name":"kind","type":"string","value":"plant.grass"},{"name":"fw","type":"int","value":16},{"name":"fh","type":"int","value":16},{"name":"solid","type":"bool","value":false}]},{"id":189,"name":"plant.grass#0","type":"prop","x":104.0,"y":112,"width":0,"height":0,"rotation":0,"visible":true,"point":true,"properties":[{"name":"kind","type":"string","value":"plant.grass"},{"name":"fw","type":"int","value":16},{"name":"fh","type":"int","value":16},{"name":"solid","type":"bool","value":false}]},{"id":190,"name":"plant.grass#0","type":"prop","x":232.0,"y":96,"width":0,"height":0,"rotation":0,"visible":true,"point":true,"properties":[{"name":"kind","type":"string","value":"plant.grass"},{"name":"fw","type":"int","value":16},{"name":"fh","type":"int","value":16},{"name":"solid","type":"bool","value":false}]},{"id":191,"name":"plant.grass#0","type":"prop","x":488.0,"y":352,"width":0,"height":0,"rotation":0,"visible":true,"point":true,"properties":[{"name":"kind","type":"string","value":"plant.grass"},{"name":"fw","type":"int","value":16},{"name":"fh","type":"int","value":16},{"name":"solid","type":"bool","value":false}]},{"id":192,"name":"plant.grass#0","type":"prop","x":88.0,"y":224,"width":0,"height":0,"rotation":0,"visible":true,"point":true,"properties":[{"name":"kind","type":"string","value":"plant.grass"},{"name":"fw","type":"int","value":16},{"name":"fh","type":"int","value":16},{"name":"solid","type":"bool","value":false}]},{"id":193,"name":"plant.grass#0","type":"prop","x":72.0,"y":64,"width":0,"height":0,"rotation":0,"visible":true,"point":true,"properties":[{"name":"kind","type":"string","value":"plant.grass"},{"name":"fw","type":"int","value":16},{"name":"fh","type":"int","value":16},{"name":"solid","type":"bool","value":false}]},{"id":194,"name":"plant.grass#0","type":"prop","x":520.0,"y":144,"width":0,"height":0,"rotation":0,"visible":true,"point":true,"properties":[{"name":"kind","type":"string","value":"plant.grass"},{"name":"fw","type":"int","value":16},{"name":"fh","type":"int","value":16},{"name":"solid","type":"bool","value":false}]},{"id":195,"name":"plant.grass#0","type":"prop","x":392.0,"y":80,"width":0,"height":0,"rotation":0,"visible":true,"point":true,"properties":[{"name":"kind","type":"string","value":"plant.grass"},{"name":"fw","type":"int","value":16},{"name":"fh","type":"int","value":16},{"name":"solid","type":"bool","value":false}]},{"id":196,"name":"lamp.post#0","type":"prop","x":568.0,"y":144,"width":0,"height":0,"rotation":0,"visible":true,"point":true,"properties":[{"name":"kind","type":"string","value":"lamp.post"},{"name":"fw","type":"int","value":16},{"name":"fh","type":"int","value":16},{"name":"solid","type":"bool","value":true}]},{"id":197,"name":"lamp.post#0","type":"prop","x":328.0,"y":368,"width":0,"height":0,"rotation":0,"visible":true,"point":true,"properties":[{"name":"kind","type":"string","value":"lamp.post"},{"name":"fw","type":"int","value":16},{"name":"fh","type":"int","value":16},{"name":"solid","type":"bool","value":true}]},{"id":198,"name":"tree.small#0","type":"prop","x":120.0,"y":400,"width":0,"height":0,"rotation":0,"visible":true,"point":true,"properties":[{"name":"kind","type":"string","value":"tree.small"},{"name":"fw","type":"int","value":16},{"name":"fh","type":"int","value":16},{"name":"solid","type":"bool","value":true}]},{"id":199,"name":"tree.small#0","type":"prop","x":440.0,"y":336,"width":0,"height":0,"rotation":0,"visible":true,"point":true,"properties":[{"name":"kind","type":"string","value":"tree.small"},{"name":"fw","type":"int","value":16},{"name":"fh","type":"int","value":16},{"name":"solid","type":"bool","value":true}]},{"id":200,"name":"tree.small#0","type":"prop","x":392.0,"y":400,"width":0,"height":0,"rotation":0,"visible":true,"point":true,"properties":[{"name":"kind","type":"string","value":"tree.small"},{"name":"fw","type":"int","value":16},{"name":"fh","type":"int","value":16},{"name":"solid","type":"bool","value":true}]},{"id":201,"name":"gate","type":"spot","x":272,"y":219.2,"width":0,"height":0,"rotation":0,"visible":true,"point":true,"properties":[{"name":"node","type":"string","value":"2-d4"},{"name":"label","type":"string","value":"The Beiye Gate"},{"name":"label_zh","type":"string","value":"北掖门"}]},{"id":202,"name":"market","type":"spot","x":376.0,"y":315.2,"width":0,"height":0,"rotation":0,"visible":true,"point":true,"properties":[{"name":"node","type":"string","value":"2-d5"},{"name":"label","type":"string","value":"The market square"},{"name":"label_zh","type":"string","value":"市集广场"}]},{"id":203,"name":"tower","type":"spot","x":336,"y":219.2,"width":0,"height":0,"rotation":0,"visible":true,"point":true,"properties":[{"name":"node","type":"string","value":"2-d6"},{"name":"label","type":"string","value":"The gate tower"},{"name":"label_zh","type":"string","value":"宣平门楼"}]},{"id":204,"name":"npc-1","type":"npc","x":312.0,"y":270.4,"width":0,"height":0,"rotation":0,"visible":true,"point":true,"properties":[{"name":"kind","type":"string","value":"folk.villager"},{"name":"sprite","type":"string","value":"f_farmer"},{"name":"wander","type":"bool","value":true},{"name":"drawn","type":"bool","value":true},{"name":"say","type":"string","value":"[[\"n\", \"“They say the Chancellor is dead. They say it, but quietly.”\", \"“听说丞相死了。大家只敢小声说。”\", \"f2869d2a1430\"]]"}]},{"id":205,"name":"exit-fengyi-pavilion","type":"exit","x":0,"y":240,"width":16,"height":32,"rotation":0,"visible":true,"properties":[{"name":"to","type":"string","value":"fengyi-pavilion"},{"name":"side","type":"string","value":"W"}]},{"id":206,"name":"exit-changan--market","type":"exit","x":369.6,"y":301.6,"width":12.8,"height":7.2,"rotation":0,"visible":true,"properties":[{"name":"to","type":"string","value":"changan--market"},{"name":"side","type":"string","value":"N"}]},{"id":207,"name":"exit-changan--hall-1","type":"exit","x":265.6,"y":173.6,"width":12.8,"height":7.2,"rotation":0,"visible":true,"properties":[{"name":"to","type":"string","value":"changan--hall-1"},{"name":"side","type":"string","value":"N"}]},{"id":208,"name":"exit-changan--house-1","type":"exit","x":185.6,"y":237.6,"width":12.8,"height":7.2,"rotation":0,"visible":true,"properties":[{"name":"to","type":"string","value":"changan--house-1"},{"name":"side","type":"string","value":"N"}]},{"id":209,"name":"exit-changan--house-2","type":"exit","x":105.6,"y":205.6,"width":12.8,"height":7.2,"rotation":0,"visible":true,"properties":[{"name":"to","type":"string","value":"changan--house-2"},{"name":"side","type":"string","value":"N"}]},{"id":210,"name":"exit-changan--inn-1","type":"exit","x":265.6,"y":125.6,"width":12.8,"height":7.2,"rotation":0,"visible":true,"properties":[{"name":"to","type":"string","value":"changan--inn-1"},{"name":"side","type":"string","value":"N"}]},{"id":211,"name":"exit-changan--shop-1","type":"exit","x":337.6,"y":141.6,"width":12.8,"height":7.2,"rotation":0,"visible":true,"properties":[{"name":"to","type":"string","value":"changan--shop-1"},{"name":"side","type":"string","value":"N"}]},{"id":212,"name":"exit-changan--house-3","type":"exit","x":185.6,"y":333.6,"width":12.8,"height":7.2,"rotation":0,"visible":true,"properties":[{"name":"to","type":"string","value":"changan--house-3"},{"name":"side","type":"string","value":"N"}]},{"id":213,"name":"exit-changan--shop-2","type":"exit","x":273.6,"y":77.6,"width":12.8,"height":7.2,"rotation":0,"visible":true,"properties":[{"name":"to","type":"string","value":"changan--shop-2"},{"name":"side","type":"string","value":"N"}]},{"id":214,"name":"exit-changan--house-4","type":"exit","x":185.6,"y":189.6,"width":12.8,"height":7.2,"rotation":0,"visible":true,"properties":[{"name":"to","type":"string","value":"changan--house-4"},{"name":"side","type":"string","value":"N"}]},{"id":215,"name":"entry-fengyi-pavilion","type":"entry","x":40.0,"y":270.4,"width":0,"height":0,"rotation":0,"visible":true,"point":true,"properties":[{"name":"from","type":"string","value":"fengyi-pavilion"}]},{"id":216,"name":"entry","type":"entry","x":40.0,"y":270.4,"width":0,"height":0,"rotation":0,"visible":true,"point":true},{"id":217,"name":"entry-changan--market","type":"entry","x":376.0,"y":318.4,"width":0,"height":0,"rotation":0,"visible":true,"point":true,"properties":[{"name":"from","type":"string","value":"changan--market"}]},{"id":218,"name":"entry-changan--hall-1","type":"entry","x":280.0,"y":190.4,"width":0,"height":0,"rotation":0,"visible":true,"point":true,"properties":[{"name":"from","type":"string","value":"changan--hall-1"}]},{"id":219,"name":"entry-changan--house-1","type":"entry","x":200.0,"y":254.4,"width":0,"height":0,"rotation":0,"visible":true,"point":true,"properties":[{"name":"from","type":"string","value":"changan--house-1"}]},{"id":220,"name":"entry-changan--house-2","type":"entry","x":120.0,"y":222.4,"width":0,"height":0,"rotation":0,"visible":true,"point":true,"properties":[{"name":"from","type":"string","value":"changan--house-2"}]},{"id":221,"name":"entry-changan--inn-1","type":"entry","x":280.0,"y":142.4,"width":0,"height":0,"rotation":0,"visible":true,"point":true,"properties":[{"name":"from","type":"string","value":"changan--inn-1"}]},{"id":222,"name":"entry-changan--shop-1","type":"entry","x":344.0,"y":158.4,"width":0,"height":0,"rotation":0,"visible":true,"point":true,"properties":[{"name":"from","type":"string","value":"changan--shop-1"}]},{"id":223,"name":"entry-changan--house-3","type":"entry","x":200.0,"y":350.4,"width":0,"height":0,"rotation":0,"visible":true,"point":true,"properties":[{"name":"from","type":"string","value":"changan--house-3"}]},{"id":224,"name":"entry-changan--shop-2","type":"entry","x":280.0,"y":94.4,"width":0,"height":0,"rotation":0,"visible":true,"point":true,"properties":[{"name":"from","type":"string","value":"changan--shop-2"}]},{"id":225,"name":"entry-changan--house-4","type":"entry","x":200.0,"y":206.4,"width":0,"height":0,"rotation":0,"visible":true,"point":true,"properties":[{"name":"from","type":"string","value":"changan--house-4"}]}]}]}