{"type":"map","version":"1.10","tiledversion":"1.10.2","orientation":"orthogonal","renderorder":"right-down","width":24,"height":14,"tilewidth":16,"tileheight":16,"infinite":false,"nextlayerid":4,"nextobjectid":59,"properties":[{"name":"kit","type":"string","value":"genshin"},{"name":"source","type":"string","value":"changan--wy-rearhall.map.json"}],"tilesets":[{"firstgid":1,"name":"_swatch","tilewidth":16,"tileheight":16,"columns":64,"tilecount":64,"margin":0,"spacing":0,"image":"swatch.png","imagewidth":1024,"imageheight":16},{"firstgid":65,"name":"drawn_b2_tiles","tilewidth":16,"tileheight":16,"columns":2,"tilecount":22,"margin":0,"spacing":0,"image":"../../../../assets/tk/drawn_b2_tiles.png","imagewidth":32,"imageheight":176},{"firstgid":87,"name":"n_wall_in","tilewidth":16,"tileheight":16,"columns":10,"tilecount":110,"margin":0,"spacing":0,"image":"../../../../assets/tk/ninja/wall_in.png","imagewidth":160,"imageheight":176}],"layers":[{"id":1,"name":"ground","type":"tilelayer","width":24,"height":14,"x":0,"y":0,"opacity":1,"visible":true,"data":[1,1,1,1,1,1,1,1,1,1,1,1,1,1,1,1,1,1,1,1,1,1,1,1,1,1,1,1,1,1,1,1,1,1,1,1,1,1,1,1,1,1,1,1,1,1,1,1,1,85,86,86,85,85,85,85,86,86,86,85,86,86,85,85,86,86,86,85,86,86,1,1,1,86,86,85,86,85,85,85,86,86,86,85,86,85,85,85,85,86,86,85,85,86,1,1,1,1,85,86,86,85,86,86,86,86,86,85,85,85,86,86,86,85,86,86,86,85,1,1,1,1,86,85,86,85,86,85,86,86,85,86,85,86,85,86,85,86,85,86,85,86,1,1,1,1,85,85,85,85,85,85,85,85,86,85,86,85,86,85,85,85,86,85,86,85,1,1,1,1,85,85,86,85,86,85,86,85,85,86,85,85,85,85,85,85,85,86,85,86,1,1,1,1,85,86,85,86,86,85,85,85,86,85,86,86,85,85,85,85,85,85,85,86,1,1,1,1,86,85,86,85,85,86,86,86,85,85,86,86,86,85,86,86,86,85,85,85,1,1,1,1,86,85,86,86,86,85,86,85,86,85,86,86,86,86,86,86,85,86,86,86,1,1,1,1,85,86,86,85,85,85,86,86,86,85,86,86,85,86,85,85,86,86,85,85,1,1,1,1,1,1,1,1,1,1,1,1,1,1,85,86,1,1,1,1,1,1,1,1,1,1,1,1,1,1,1,1,1,1,1,1,1,1,1,1,1,1,1,1,1,1,1,1,1,1]},{"id":2,"name":"wall","type":"tilelayer","width":24,"height":14,"x":0,"y":0,"opacity":1,"visible":true,"data":[0,0,0,0,0,0,0,0,0,0,0,0,0,0,0,0,0,0,0,0,0,0,0,0,0,88,88,88,88,88,88,88,88,88,88,88,88,88,88,88,88,88,88,88,88,88,91,0,0,0,0,0,0,0,0,0,0,0,0,0,0,0,0,0,0,0,0,0,0,0,101,0,0,0,0,0,0,0,0,0,0,0,0,0,0,0,0,0,0,0,0,0,0,0,101,0,0,128,0,0,0,0,0,0,0,0,0,0,0,0,0,0,0,0,0,0,0,0,101,0,0,97,0,0,0,0,0,0,0,0,0,0,0,0,0,0,0,0,0,0,0,0,101,0,0,97,0,0,0,0,0,0,0,0,0,0,0,0,0,0,0,0,0,0,0,0,101,0,0,97,0,0,0,0,0,0,0,0,0,0,0,0,0,0,0,0,0,0,0,0,101,0,0,97,0,0,0,0,0,0,0,0,0,0,0,0,0,0,0,0,0,0,0,0,101,0,0,97,0,0,0,0,0,0,0,0,0,0,0,0,0,0,0,0,0,0,0,0,101,0,0,97,0,0,0,0,0,0,0,0,0,0,0,0,0,0,0,0,0,0,0,0,101,0,0,97,0,0,0,0,0,0,0,0,0,0,0,0,0,0,0,0,0,0,0,0,101,0,0,127,128,128,128,128,128,128,128,128,128,128,0,0,128,128,128,128,128,128,128,128,131,0,0,0,0,0,0,0,0,0,0,0,0,0,0,0,0,0,0,0,0,0,0,0,0,0]},{"id":3,"name":"objects","type":"objectgroup","draworder":"topdown","x":0,"y":0,"opacity":1,"visible":true,"objects":[{"id":1,"name":"furn.screen#0","type":"prop","x":40.0,"y":112,"width":0,"height":0,"rotation":0,"visible":true,"point":true,"properties":[{"name":"kind","type":"string","value":"furn.screen"},{"name":"fw","type":"int","value":16},{"name":"fh","type":"int","value":48},{"name":"solid","type":"bool","value":true},{"name":"ref","type":"string","value":"screen"}]},{"id":2,"name":"furn.chest#1","type":"prop","x":328.0,"y":48,"width":0,"height":0,"rotation":0,"visible":true,"point":true,"properties":[{"name":"kind","type":"string","value":"furn.chest"},{"name":"fw","type":"int","value":16},{"name":"fh","type":"int","value":16},{"name":"solid","type":"bool","value":true},{"name":"ref","type":"string","value":"chest"}]},{"id":3,"name":"furn.table#1","type":"prop","x":160.0,"y":80,"width":0,"height":0,"rotation":0,"visible":true,"point":true,"properties":[{"name":"kind","type":"string","value":"furn.table"},{"name":"fw","type":"int","value":32},{"name":"fh","type":"int","value":16},{"name":"solid","type":"bool","value":true},{"name":"ref","type":"string","value":"table-1"}]},{"id":4,"name":"furn.table#1","type":"prop","x":256.0,"y":80,"width":0,"height":0,"rotation":0,"visible":true,"point":true,"properties":[{"name":"kind","type":"string","value":"furn.table"},{"name":"fw","type":"int","value":32},{"name":"fh","type":"int","value":16},{"name":"solid","type":"bool","value":true},{"name":"ref","type":"string","value":"table-2"}]},{"id":5,"name":"","type":"prop","x":192.0,"y":32,"width":0,"height":0,"rotation":0,"visible":true,"point":true,"properties":[{"name":"kind","type":"string","value":"wall"},{"name":"fw","type":"int","value":352},{"name":"fh","type":"int","value":16},{"name":"solid","type":"bool","value":true}]},{"id":6,"name":"","type":"prop","x":360.0,"y":48,"width":0,"height":0,"rotation":0,"visible":true,"point":true,"properties":[{"name":"kind","type":"string","value":"wall"},{"name":"fw","type":"int","value":16},{"name":"fh","type":"int","value":16},{"name":"solid","type":"bool","value":true}]},{"id":7,"name":"","type":"prop","x":360.0,"y":64,"width":0,"height":0,"rotation":0,"visible":true,"point":true,"properties":[{"name":"kind","type":"string","value":"wall"},{"name":"fw","type":"int","value":16},{"name":"fh","type":"int","value":16},{"name":"solid","type":"bool","value":true}]},{"id":8,"name":"","type":"prop","x":24.0,"y":80,"width":0,"height":0,"rotation":0,"visible":true,"point":true,"properties":[{"name":"kind","type":"string","value":"wall"},{"name":"fw","type":"int","value":16},{"name":"fh","type":"int","value":16},{"name":"solid","type":"bool","value":true}]},{"id":9,"name":"","type":"prop","x":360.0,"y":80,"width":0,"height":0,"rotation":0,"visible":true,"point":true,"properties":[{"name":"kind","type":"string","value":"wall"},{"name":"fw","type":"int","value":16},{"name":"fh","type":"int","value":16},{"name":"solid","type":"bool","value":true}]},{"id":10,"name":"","type":"prop","x":24.0,"y":96,"width":0,"height":0,"rotation":0,"visible":true,"point":true,"properties":[{"name":"kind","type":"string","value":"wall"},{"name":"fw","type":"int","value":16},{"name":"fh","type":"int","value":16},{"name":"solid","type":"bool","value":true}]},{"id":11,"name":"","type":"prop","x":360.0,"y":96,"width":0,"height":0,"rotation":0,"visible":true,"point":true,"properties":[{"name":"kind","type":"string","value":"wall"},{"name":"fw","type":"int","value":16},{"name":"fh","type":"int","value":16},{"name":"solid","type":"bool","value":true}]},{"id":12,"name":"","type":"prop","x":24.0,"y":112,"width":0,"height":0,"rotation":0,"visible":true,"point":true,"properties":[{"name":"kind","type":"string","value":"wall"},{"name":"fw","type":"int","value":16},{"name":"fh","type":"int","value":16},{"name":"solid","type":"bool","value":true}]},{"id":13,"name":"","type":"prop","x":360.0,"y":112,"width":0,"height":0,"rotation":0,"visible":true,"point":true,"properties":[{"name":"kind","type":"string","value":"wall"},{"name":"fw","type":"int","value":16},{"name":"fh","type":"int","value":16},{"name":"solid","type":"bool","value":true}]},{"id":14,"name":"","type":"prop","x":24.0,"y":128,"width":0,"height":0,"rotation":0,"visible":true,"point":true,"properties":[{"name":"kind","type":"string","value":"wall"},{"name":"fw","type":"int","value":16},{"name":"fh","type":"int","value":16},{"name":"solid","type":"bool","value":true}]},{"id":15,"name":"","type":"prop","x":360.0,"y":128,"width":0,"height":0,"rotation":0,"visible":true,"point":true,"properties":[{"name":"kind","type":"string","value":"wall"},{"name":"fw","type":"int","value":16},{"name":"fh","type":"int","value":16},{"name":"solid","type":"bool","value":true}]},{"id":16,"name":"","type":"prop","x":24.0,"y":144,"width":0,"height":0,"rotation":0,"visible":true,"point":true,"properties":[{"name":"kind","type":"string","value":"wall"},{"name":"fw","type":"int","value":16},{"name":"fh","type":"int","value":16},{"name":"solid","type":"bool","value":true}]},{"id":17,"name":"","type":"prop","x":360.0,"y":144,"width":0,"height":0,"rotation":0,"visible":true,"point":true,"properties":[{"name":"kind","type":"string","value":"wall"},{"name":"fw","type":"int","value":16},{"name":"fh","type":"int","value":16},{"name":"solid","type":"bool","value":true}]},{"id":18,"name":"","type":"prop","x":24.0,"y":160,"width":0,"height":0,"rotation":0,"visible":true,"point":true,"properties":[{"name":"kind","type":"string","value":"wall"},{"name":"fw","type":"int","value":16},{"name":"fh","type":"int","value":16},{"name":"solid","type":"bool","value":true}]},{"id":19,"name":"","type":"prop","x":360.0,"y":160,"width":0,"height":0,"rotation":0,"visible":true,"point":true,"properties":[{"name":"kind","type":"string","value":"wall"},{"name":"fw","type":"int","value":16},{"name":"fh","type":"int","value":16},{"name":"solid","type":"bool","value":true}]},{"id":20,"name":"","type":"prop","x":24.0,"y":176,"width":0,"height":0,"rotation":0,"visible":true,"point":true,"properties":[{"name":"kind","type":"string","value":"wall"},{"name":"fw","type":"int","value":16},{"name":"fh","type":"int","value":16},{"name":"solid","type":"bool","value":true}]},{"id":21,"name":"","type":"prop","x":360.0,"y":176,"width":0,"height":0,"rotation":0,"visible":true,"point":true,"properties":[{"name":"kind","type":"string","value":"wall"},{"name":"fw","type":"int","value":16},{"name":"fh","type":"int","value":16},{"name":"solid","type":"bool","value":true}]},{"id":22,"name":"","type":"prop","x":24.0,"y":192,"width":0,"height":0,"rotation":0,"visible":true,"point":true,"properties":[{"name":"kind","type":"string","value":"wall"},{"name":"fw","type":"int","value":16},{"name":"fh","type":"int","value":16},{"name":"solid","type":"bool","value":true}]},{"id":23,"name":"","type":"prop","x":360.0,"y":192,"width":0,"height":0,"rotation":0,"visible":true,"point":true,"properties":[{"name":"kind","type":"string","value":"wall"},{"name":"fw","type":"int","value":16},{"name":"fh","type":"int","value":16},{"name":"solid","type":"bool","value":true}]},{"id":24,"name":"","type":"prop","x":104.0,"y":208,"width":0,"height":0,"rotation":0,"visible":true,"point":true,"properties":[{"name":"kind","type":"string","value":"wall"},{"name":"fw","type":"int","value":176},{"name":"fh","type":"int","value":16},{"name":"solid","type":"bool","value":true}]},{"id":25,"name":"","type":"prop","x":296.0,"y":208,"width":0,"height":0,"rotation":0,"visible":true,"point":true,"properties":[{"name":"kind","type":"string","value":"wall"},{"name":"fw","type":"int","value":144},{"name":"fh","type":"int","value":16},{"name":"solid","type":"bool","value":true}]},{"id":26,"name":"","type":"prop","x":192.0,"y":16,"width":0,"height":0,"rotation":0,"visible":true,"point":true,"properties":[{"name":"kind","type":"string","value":"wall"},{"name":"fw","type":"int","value":384},{"name":"fh","type":"int","value":16},{"name":"solid","type":"bool","value":true}]},{"id":27,"name":"","type":"prop","x":8.0,"y":32,"width":0,"height":0,"rotation":0,"visible":true,"point":true,"properties":[{"name":"kind","type":"string","value":"wall"},{"name":"fw","type":"int","value":16},{"name":"fh","type":"int","value":16},{"name":"solid","type":"bool","value":true}]},{"id":28,"name":"","type":"prop","x":376.0,"y":32,"width":0,"height":0,"rotation":0,"visible":true,"point":true,"properties":[{"name":"kind","type":"string","value":"wall"},{"name":"fw","type":"int","value":16},{"name":"fh","type":"int","value":16},{"name":"solid","type":"bool","value":true}]},{"id":29,"name":"","type":"prop","x":8.0,"y":48,"width":0,"height":0,"rotation":0,"visible":true,"point":true,"properties":[{"name":"kind","type":"string","value":"wall"},{"name":"fw","type":"int","value":16},{"name":"fh","type":"int","value":16},{"name":"solid","type":"bool","value":true}]},{"id":30,"name":"","type":"prop","x":376.0,"y":48,"width":0,"height":0,"rotation":0,"visible":true,"point":true,"properties":[{"name":"kind","type":"string","value":"wall"},{"name":"fw","type":"int","value":16},{"name":"fh","type":"int","value":16},{"name":"solid","type":"bool","value":true}]},{"id":31,"name":"","type":"prop","x":8.0,"y":64,"width":0,"height":0,"rotation":0,"visible":true,"point":true,"properties":[{"name":"kind","type":"string","value":"wall"},{"name":"fw","type":"int","value":16},{"name":"fh","type":"int","value":16},{"name":"solid","type":"bool","value":true}]},{"id":32,"name":"","type":"prop","x":376.0,"y":64,"width":0,"height":0,"rotation":0,"visible":true,"point":true,"properties":[{"name":"kind","type":"string","value":"wall"},{"name":"fw","type":"int","value":16},{"name":"fh","type":"int","value":16},{"name":"solid","type":"bool","value":true}]},{"id":33,"name":"","type":"prop","x":8.0,"y":80,"width":0,"height":0,"rotation":0,"visible":true,"point":true,"properties":[{"name":"kind","type":"string","value":"wall"},{"name":"fw","type":"int","value":16},{"name":"fh","type":"int","value":16},{"name":"solid","type":"bool","value":true}]},{"id":34,"name":"","type":"prop","x":376.0,"y":80,"width":0,"height":0,"rotation":0,"visible":true,"point":true,"properties":[{"name":"kind","type":"string","value":"wall"},{"name":"fw","type":"int","value":16},{"name":"fh","type":"int","value":16},{"name":"solid","type":"bool","value":true}]},{"id":35,"name":"","type":"prop","x":8.0,"y":96,"width":0,"height":0,"rotation":0,"visible":true,"point":true,"properties":[{"name":"kind","type":"string","value":"wall"},{"name":"fw","type":"int","value":16},{"name":"fh","type":"int","value":16},{"name":"solid","type":"bool","value":true}]},{"id":36,"name":"","type":"prop","x":376.0,"y":96,"width":0,"height":0,"rotation":0,"visible":true,"point":true,"properties":[{"name":"kind","type":"string","value":"wall"},{"name":"fw","type":"int","value":16},{"name":"fh","type":"int","value":16},{"name":"solid","type":"bool","value":true}]},{"id":37,"name":"","type":"prop","x":8.0,"y":112,"width":0,"height":0,"rotation":0,"visible":true,"point":true,"properties":[{"name":"kind","type":"string","value":"wall"},{"name":"fw","type":"int","value":16},{"name":"fh","type":"int","value":16},{"name":"solid","type":"bool","value":true}]},{"id":38,"name":"","type":"prop","x":376.0,"y":112,"width":0,"height":0,"rotation":0,"visible":true,"point":true,"properties":[{"name":"kind","type":"string","value":"wall"},{"name":"fw","type":"int","value":16},{"name":"fh","type":"int","value":16},{"name":"solid","type":"bool","value":true}]},{"id":39,"name":"","type":"prop","x":8.0,"y":128,"width":0,"height":0,"rotation":0,"visible":true,"point":true,"properties":[{"name":"kind","type":"string","value":"wall"},{"name":"fw","type":"int","value":16},{"name":"fh","type":"int","value":16},{"name":"solid","type":"bool","value":true}]},{"id":40,"name":"","type":"prop","x":376.0,"y":128,"width":0,"height":0,"rotation":0,"visible":true,"point":true,"properties":[{"name":"kind","type":"string","value":"wall"},{"name":"fw","type":"int","value":16},{"name":"fh","type":"int","value":16},{"name":"solid","type":"bool","value":true}]},{"id":41,"name":"","type":"prop","x":8.0,"y":144,"width":0,"height":0,"rotation":0,"visible":true,"point":true,"properties":[{"name":"kind","type":"string","value":"wall"},{"name":"fw","type":"int","value":16},{"name":"fh","type":"int","value":16},{"name":"solid","type":"bool","value":true}]},{"id":42,"name":"","type":"prop","x":376.0,"y":144,"width":0,"height":0,"rotation":0,"visible":true,"point":true,"properties":[{"name":"kind","type":"string","value":"wall"},{"name":"fw","type":"int","value":16},{"name":"fh","type":"int","value":16},{"name":"solid","type":"bool","value":true}]},{"id":43,"name":"","type":"prop","x":8.0,"y":160,"width":0,"height":0,"rotation":0,"visible":true,"point":true,"properties":[{"name":"kind","type":"string","value":"wall"},{"name":"fw","type":"int","value":16},{"name":"fh","type":"int","value":16},{"name":"solid","type":"bool","value":true}]},{"id":44,"name":"","type":"prop","x":376.0,"y":160,"width":0,"height":0,"rotation":0,"visible":true,"point":true,"properties":[{"name":"kind","type":"string","value":"wall"},{"name":"fw","type":"int","value":16},{"name":"fh","type":"int","value":16},{"name":"solid","type":"bool","value":true}]},{"id":45,"name":"","type":"prop","x":8.0,"y":176,"width":0,"height":0,"rotation":0,"visible":true,"point":true,"properties":[{"name":"kind","type":"string","value":"wall"},{"name":"fw","type":"int","value":16},{"name":"fh","type":"int","value":16},{"name":"solid","type":"bool","value":true}]},{"id":46,"name":"","type":"prop","x":376.0,"y":176,"width":0,"height":0,"rotation":0,"visible":true,"point":true,"properties":[{"name":"kind","type":"string","value":"wall"},{"name":"fw","type":"int","value":16},{"name":"fh","type":"int","value":16},{"name":"solid","type":"bool","value":true}]},{"id":47,"name":"","type":"prop","x":8.0,"y":192,"width":0,"height":0,"rotation":0,"visible":true,"point":true,"properties":[{"name":"kind","type":"string","value":"wall"},{"name":"fw","type":"int","value":16},{"name":"fh","type":"int","value":16},{"name":"solid","type":"bool","value":true}]},{"id":48,"name":"","type":"prop","x":376.0,"y":192,"width":0,"height":0,"rotation":0,"visible":true,"point":true,"properties":[{"name":"kind","type":"string","value":"wall"},{"name":"fw","type":"int","value":16},{"name":"fh","type":"int","value":16},{"name":"solid","type":"bool","value":true}]},{"id":49,"name":"","type":"prop","x":8.0,"y":208,"width":0,"height":0,"rotation":0,"visible":true,"point":true,"properties":[{"name":"kind","type":"string","value":"wall"},{"name":"fw","type":"int","value":16},{"name":"fh","type":"int","value":16},{"name":"solid","type":"bool","value":true}]},{"id":50,"name":"","type":"prop","x":376.0,"y":208,"width":0,"height":0,"rotation":0,"visible":true,"point":true,"properties":[{"name":"kind","type":"string","value":"wall"},{"name":"fw","type":"int","value":16},{"name":"fh","type":"int","value":16},{"name":"solid","type":"bool","value":true}]},{"id":51,"name":"","type":"prop","x":192.0,"y":224,"width":0,"height":0,"rotation":0,"visible":true,"point":true,"properties":[{"name":"kind","type":"string","value":"wall"},{"name":"fw","type":"int","value":384},{"name":"fh","type":"int","value":16},{"name":"solid","type":"bool","value":true}]},{"id":52,"name":"a4","type":"spot","x":200.0,"y":139.2,"width":0,"height":0,"rotation":0,"visible":true,"point":true,"properties":[{"name":"node","type":"string","value":"12-a4"},{"name":"label","type":"string","value":"The first banquet"},{"name":"label_zh","type":"string","value":"初次宴会"}]},{"id":53,"name":"npc-1","type":"npc","x":296.0,"y":78.4,"width":0,"height":0,"rotation":0,"visible":true,"point":true,"properties":[{"name":"kind","type":"string","value":"folk.elder"},{"name":"sprite","type":"string","value":"f_elder2"},{"name":"wander","type":"bool","value":false},{"name":"drawn","type":"bool","value":true},{"name":"say","type":"string","value":"[[\"n\", \"“The master hasn't slept. He walks the garden and sighs.”\", \"“老爷一夜没睡，在园里走来走去，只是叹气。”\", \"a2935347458d\"]]"},{"name":"face","type":"string","value":"up"},{"name":"gives","type":"string","value":"pearls"},{"name":"gives_when","type":"string","value":"node:a2"},{"name":"give","type":"string","value":"[[\"n\", \"The old steward unlocks the family chest. “The pearls your father kept, master. Whatever you need them for, I never saw.”\", \"老管家打开家中宝箱。“这是老太爷留下的明珠，老爷。不管您拿去做什么，老奴什么也没看见。”\", \"7915c6afce6f\"]]"},{"name":"given","type":"string","value":"[[\"n\", \"“The chest is locked again, master. No one will know.”\", \"“箱子又锁好了，老爷。没人会知道。”\", \"6ec791821427\"]]"}]},{"id":54,"name":"exit-changan--wy-secret","type":"exit","x":16,"y":32,"width":16,"height":32,"rotation":0,"visible":true,"properties":[{"name":"to","type":"string","value":"changan--wy-secret"},{"name":"side","type":"string","value":"W"}]},{"id":55,"name":"exit-changan--wangyun","type":"exit","x":192,"y":192,"width":32,"height":16,"rotation":0,"visible":true,"properties":[{"name":"to","type":"string","value":"changan--wangyun"},{"name":"side","type":"string","value":"S"}]},{"id":56,"name":"entry-changan--wy-secret","type":"entry","x":40.0,"y":46.4,"width":0,"height":0,"rotation":0,"visible":true,"point":true,"properties":[{"name":"from","type":"string","value":"changan--wy-secret"}]},{"id":57,"name":"entry-changan--wangyun","type":"entry","x":200.0,"y":190.4,"width":0,"height":0,"rotation":0,"visible":true,"point":true,"properties":[{"name":"from","type":"string","value":"changan--wangyun"}]},{"id":58,"name":"entry","type":"entry","x":200.0,"y":190.4,"width":0,"height":0,"rotation":0,"visible":true,"point":true}]}]}