{"type":"map","version":"1.10","tiledversion":"1.10.2","orientation":"orthogonal","renderorder":"right-down","width":28,"height":24,"tilewidth":16,"tileheight":16,"infinite":false,"nextlayerid":5,"nextobjectid":55,"properties":[{"name":"kit","type":"string","value":"xianxia"},{"name":"source","type":"string","value":"xiapi--lb-residence.map.json"},{"name":"paths","type":"string","value":"0000000000000000000000000000|0000000000000000000000000000|0000000000000000000000000000|0000000000000000000000000000|0000000000000000000000000000|0000000000000000000000000000|0000000000000000000000000000|0000000000000000000000000000|0000000000000000000000000000|0000000000000000000000000000|0011111111111111111111111100|0011111111111111111111111100|0011111111111111111111111100|0011111111111111111111111100|0011111111111111111111111100|0011111111111111111111111100|0011111111111111111111111100|0011111111111111111111111100|0011111111111111111111111100|0011111111111111111111111100|0011111111111111111111111100|0011111111111111111111111100|0000000000001100000000000000|0000000000000000000000000000"}],"tilesets":[{"firstgid":1,"name":"x_tiles","tilewidth":16,"tileheight":16,"columns":4,"tilecount":20,"margin":0,"spacing":0,"image":"../../../../assets/tk/xianxia/tiles.png","imagewidth":64,"imageheight":80},{"firstgid":21,"name":"_swatch","tilewidth":16,"tileheight":16,"columns":64,"tilecount":64,"margin":0,"spacing":0,"image":"swatch.png","imagewidth":1024,"imageheight":16},{"firstgid":85,"name":"n_floor_in","tilewidth":16,"tileheight":16,"columns":22,"tilecount":374,"margin":0,"spacing":0,"image":"../../../../assets/tk/ninja/floor_in.png","imagewidth":352,"imageheight":272},{"firstgid":459,"name":"n_wall_in","tilewidth":16,"tileheight":16,"columns":10,"tilecount":110,"margin":0,"spacing":0,"image":"../../../../assets/tk/ninja/wall_in.png","imagewidth":160,"imageheight":176}],"layers":[{"id":1,"name":"ground","type":"tilelayer","width":28,"height":24,"x":0,"y":0,"opacity":1,"visible":true,"data":[3,1,4,1,4,4,1,1,1,1,2,3,4,1,2,2,3,1,4,3,3,1,3,1,2,1,1,2,2,21,21,21,21,21,21,21,21,21,21,21,21,21,21,21,21,21,21,21,21,21,21,21,21,21,21,2,3,21,1,1,4,2,4,1,3,4,3,1,3,3,1,2,4,4,1,1,1,1,1,1,4,3,21,4,1,21,1,3,3,1,4,3,2,3,1,2,1,4,4,2,1,1,1,2,4,1,1,3,4,1,21,3,1,21,2,2,3,1,3,1,4,1,3,1,4,1,2,1,1,2,1,1,2,2,1,1,1,1,21,2,1,21,4,1,4,1,1,4,1,1,4,3,3,1,4,1,1,4,4,1,2,1,1,1,4,2,21,1,2,21,4,1,3,3,1,4,3,1,2,1,3,1,2,1,2,1,4,2,4,4,1,1,4,1,21,1,1,21,3,1,4,1,1,3,1,1,4,3,1,1,4,2,3,1,1,3,1,1,1,3,1,1,21,1,2,21,1,1,1,1,1,2,1,1,1,3,3,1,3,3,3,1,2,1,1,1,1,2,1,1,21,1,2,21,1,1,2,4,3,1,1,1,1,4,1,3,3,1,3,4,3,1,3,1,1,1,1,2,21,3,1,21,374,374,374,374,374,374,374,374,374,374,374,374,374,374,374,374,374,374,374,374,374,374,374,374,21,1,1,21,374,374,374,374,374,374,374,374,374,374,374,374,374,374,374,374,374,374,374,374,374,374,374,374,21,2,1,21,374,374,374,374,374,374,374,374,374,374,374,374,374,374,374,374,374,374,374,374,374,374,374,374,21,1,2,21,374,374,374,374,374,374,374,374,374,374,374,374,374,374,374,374,374,374,374,374,374,374,374,374,21,1,1,21,374,374,374,374,374,374,374,374,374,374,374,374,374,374,374,374,374,374,374,374,374,374,374,374,21,1,1,21,374,374,374,374,374,374,374,374,374,374,374,374,374,374,374,374,374,374,374,374,374,374,374,374,21,1,1,21,374,374,374,374,374,374,374,374,374,374,374,374,374,374,374,374,374,374,374,374,374,374,374,374,21,1,2,21,374,374,374,374,374,374,374,374,374,374,374,374,374,374,374,374,374,374,374,374,374,374,374,374,21,1,1,21,374,374,374,374,374,374,374,374,374,374,374,374,374,374,374,374,374,374,374,374,374,374,374,374,21,4,1,21,374,374,374,374,374,374,374,374,374,374,374,374,374,374,374,374,374,374,374,374,374,374,374,374,21,2,3,21,374,374,374,374,374,374,374,374,374,374,374,374,374,374,374,374,374,374,374,374,374,374,374,374,21,3,2,21,374,374,374,374,374,374,374,374,374,374,374,374,374,374,374,374,374,374,374,374,374,374,374,374,21,1,1,21,21,21,21,21,21,21,21,21,21,21,374,374,21,21,21,21,21,21,21,21,21,21,21,21,21,4,2,3,2,1,1,1,4,1,1,1,2,4,4,3,1,2,4,4,1,2,4,1,3,1,2,1,1,1]},{"id":2,"name":"detail","type":"tilelayer","width":28,"height":24,"x":0,"y":0,"opacity":1,"visible":true,"data":[0,0,0,0,0,0,0,17,17,0,0,18,0,0,0,0,18,0,0,0,0,0,0,0,0,0,0,0,0,0,0,0,0,0,0,0,0,0,0,0,0,0,0,0,0,0,0,0,0,0,0,0,0,0,0,0,0,0,0,17,0,0,0,0,0,0,0,0,0,0,0,17,0,0,0,0,0,18,0,0,0,17,0,0,18,0,0,0,0,0,0,0,0,0,0,0,0,0,0,0,18,0,18,0,0,17,0,0,0,0,0,0,0,0,0,0,0,0,0,0,0,0,0,0,0,0,0,0,0,0,0,0,0,0,0,0,0,0,0,0,0,0,0,0,0,0,0,0,0,0,0,0,0,0,0,0,0,17,0,0,0,0,0,0,0,0,0,0,0,0,0,0,0,0,0,0,0,0,0,0,0,0,0,0,0,0,0,0,0,0,0,0,0,0,0,0,0,0,0,0,0,0,0,0,0,0,0,0,0,0,0,18,0,0,0,0,0,0,0,0,0,0,0,0,0,0,0,0,0,17,0,0,0,0,0,0,0,0,0,0,0,0,0,0,0,0,0,0,0,0,0,17,0,0,0,0,0,0,18,0,0,0,0,0,0,0,0,0,0,0,0,0,18,0,0,0,0,0,0,0,0,0,0,0,0,0,0,0,0,0,0,0,0,0,0,0,0,0,0,0,0,0,0,0,0,0,0,0,0,0,0,0,0,0,0,0,0,0,0,0,0,0,0,0,0,0,0,0,0,0,0,0,0,0,0,0,0,0,0,0,0,0,0,0,0,0,0,0,0,0,0,0,0,0,0,0,0,0,0,0,0,0,0,0,0,0,0,0,0,0,0,0,0,0,0,0,0,0,0,0,0,0,0,0,0,0,0,0,0,0,0,0,0,0,0,0,0,0,0,0,0,0,0,0,0,0,0,0,0,0,0,0,0,0,0,0,0,0,0,0,0,0,0,0,0,0,0,0,0,0,0,0,0,0,0,0,0,0,0,0,0,0,0,0,0,0,0,0,0,0,0,0,0,0,0,0,0,0,0,0,0,0,0,0,0,0,0,0,0,0,0,0,0,0,0,0,0,0,0,0,0,0,0,0,0,0,0,0,0,0,0,0,0,0,0,0,0,0,0,0,0,0,0,0,0,0,0,0,0,0,0,0,0,0,0,0,0,0,0,0,0,0,0,0,0,0,0,0,0,0,0,0,17,0,0,0,0,0,0,0,0,0,0,0,0,0,0,0,0,0,0,0,0,0,0,0,0,0,0,18,0,0,0,0,0,0,0,0,0,0,0,0,0,0,0,0,0,0,0,0,0,0,0,0,0,0,0,0,0,0,0,0,0,0,0,0,0,0,0,0,0,0,0,0,0,0,0,0,0,0,0,0,0,0,0,0,0,0,0,0,0,0,0,0,0,0,0,0,0,0,0,0,0,0,0,0,0,0,0,0,0,0,0,18,0,0,0,0,0,0,0,0,0,0,0,0,0,0,0,0,0,18,0,0,0,0,0,0,0,0,0,0]},{"id":3,"name":"wall","type":"tilelayer","width":28,"height":24,"x":0,"y":0,"opacity":1,"visible":true,"data":[0,0,0,0,0,0,0,0,0,0,0,0,0,0,0,0,0,0,0,0,0,0,0,0,0,0,0,0,0,500,460,460,460,460,460,460,460,460,460,460,460,460,460,460,460,460,460,460,460,460,460,460,460,460,500,0,0,469,0,0,0,0,0,0,0,0,0,0,0,0,0,0,0,0,0,0,0,0,0,0,0,0,469,0,0,469,0,0,0,0,0,0,0,0,0,0,0,0,0,0,0,0,0,0,0,0,0,0,0,0,469,0,0,469,0,0,0,0,0,0,0,0,0,0,0,0,0,0,0,0,0,0,0,0,0,0,0,0,469,0,0,469,0,0,0,0,0,0,0,0,0,0,0,0,0,0,0,0,0,0,0,0,0,0,0,0,469,0,0,469,0,0,0,0,0,0,0,0,0,0,0,0,0,0,0,0,0,0,0,0,0,0,0,0,469,0,0,469,0,0,0,0,0,0,0,0,0,0,0,0,0,0,0,0,0,0,0,0,0,0,0,0,469,0,0,469,0,0,0,0,0,0,0,0,0,0,0,0,0,0,0,0,0,0,0,0,0,0,0,0,469,0,0,469,0,0,0,0,0,0,0,0,0,0,0,0,0,0,0,0,0,0,0,0,0,0,0,0,469,0,0,469,0,0,0,0,0,0,0,0,0,0,0,0,0,0,0,0,0,0,0,0,0,0,0,0,469,0,0,469,0,0,0,0,0,0,0,0,0,0,0,0,0,0,0,0,0,0,0,0,0,0,0,0,469,0,0,469,0,0,0,0,0,0,0,0,0,0,0,0,0,0,0,0,0,0,0,0,0,0,0,0,469,0,0,469,0,0,0,0,0,0,0,0,0,0,0,0,0,0,0,0,0,0,0,0,0,0,0,0,469,0,0,469,0,0,0,0,0,0,0,0,0,0,0,0,0,0,0,0,0,0,0,0,0,0,0,0,469,0,0,469,0,0,0,0,0,0,0,0,0,0,0,0,0,0,0,0,0,0,0,0,0,0,0,0,469,0,0,469,0,0,0,0,0,0,0,0,0,0,0,0,0,0,0,0,0,0,0,0,0,0,0,0,469,0,0,469,0,0,0,0,0,0,0,0,0,0,0,0,0,0,0,0,0,0,0,0,0,0,0,0,469,0,0,469,0,0,0,0,0,0,0,0,0,0,0,0,0,0,0,0,0,0,0,0,0,0,0,0,469,0,0,469,0,0,0,0,0,0,0,0,0,0,0,0,0,0,0,0,0,0,0,0,0,0,0,0,469,0,0,469,0,0,0,0,0,0,0,0,0,0,0,0,0,0,0,0,0,0,0,0,0,0,0,0,469,0,0,469,0,0,0,0,0,0,0,0,0,0,0,0,0,0,0,0,0,0,0,0,0,0,0,0,469,0,0,460,460,460,460,460,460,460,460,460,460,460,0,0,460,460,460,460,460,460,460,460,460,460,460,460,460,0,0,0,0,0,0,0,0,0,0,0,0,0,0,0,0,0,0,0,0,0,0,0,0,0,0,0,0,0]},{"id":4,"name":"objects","type":"objectgroup","draworder":"topdown","x":0,"y":0,"opacity":1,"visible":true,"objects":[{"id":1,"name":"building.gate#0","type":"prop","x":208.0,"y":368,"width":0,"height":0,"rotation":0,"visible":true,"point":true,"properties":[{"name":"kind","type":"string","value":"building.gatehouse"},{"name":"fw","type":"int","value":32},{"name":"fh","type":"int","value":16},{"name":"solid","type":"bool","value":false},{"name":"ref","type":"string","value":"gate"}]},{"id":2,"name":"building.hall#0","type":"prop","x":144.0,"y":128,"width":0,"height":0,"rotation":0,"visible":true,"point":true,"properties":[{"name":"kind","type":"string","value":"building.hall_grand"},{"name":"fw","type":"int","value":64},{"name":"fh","type":"int","value":32},{"name":"solid","type":"bool","value":true},{"name":"ref","type":"string","value":"hall"}]},{"id":3,"name":"building.lodge#0","type":"prop","x":352.0,"y":128,"width":0,"height":0,"rotation":0,"visible":true,"point":true,"properties":[{"name":"kind","type":"string","value":"building.wing"},{"name":"fw","type":"int","value":64},{"name":"fh","type":"int","value":32},{"name":"solid","type":"bool","value":true},{"name":"ref","type":"string","value":"yan"}]},{"id":4,"name":"furn.rack#0","type":"prop","x":48.0,"y":272,"width":0,"height":0,"rotation":0,"visible":true,"point":true,"properties":[{"name":"kind","type":"string","value":"furn.rack"},{"name":"fw","type":"int","value":32},{"name":"fh","type":"int","value":16},{"name":"solid","type":"bool","value":true},{"name":"ref","type":"string","value":"rack"}]},{"id":5,"name":"","type":"prop","x":224.0,"y":32,"width":0,"height":0,"rotation":0,"visible":true,"point":true,"properties":[{"name":"kind","type":"string","value":"wall"},{"name":"fw","type":"int","value":416},{"name":"fh","type":"int","value":16},{"name":"solid","type":"bool","value":true}]},{"id":6,"name":"","type":"prop","x":24.0,"y":48,"width":0,"height":0,"rotation":0,"visible":true,"point":true,"properties":[{"name":"kind","type":"string","value":"wall"},{"name":"fw","type":"int","value":16},{"name":"fh","type":"int","value":16},{"name":"solid","type":"bool","value":true}]},{"id":7,"name":"","type":"prop","x":424.0,"y":48,"width":0,"height":0,"rotation":0,"visible":true,"point":true,"properties":[{"name":"kind","type":"string","value":"wall"},{"name":"fw","type":"int","value":16},{"name":"fh","type":"int","value":16},{"name":"solid","type":"bool","value":true}]},{"id":8,"name":"","type":"prop","x":24.0,"y":64,"width":0,"height":0,"rotation":0,"visible":true,"point":true,"properties":[{"name":"kind","type":"string","value":"wall"},{"name":"fw","type":"int","value":16},{"name":"fh","type":"int","value":16},{"name":"solid","type":"bool","value":true}]},{"id":9,"name":"","type":"prop","x":424.0,"y":64,"width":0,"height":0,"rotation":0,"visible":true,"point":true,"properties":[{"name":"kind","type":"string","value":"wall"},{"name":"fw","type":"int","value":16},{"name":"fh","type":"int","value":16},{"name":"solid","type":"bool","value":true}]},{"id":10,"name":"","type":"prop","x":24.0,"y":80,"width":0,"height":0,"rotation":0,"visible":true,"point":true,"properties":[{"name":"kind","type":"string","value":"wall"},{"name":"fw","type":"int","value":16},{"name":"fh","type":"int","value":16},{"name":"solid","type":"bool","value":true}]},{"id":11,"name":"","type":"prop","x":424.0,"y":80,"width":0,"height":0,"rotation":0,"visible":true,"point":true,"properties":[{"name":"kind","type":"string","value":"wall"},{"name":"fw","type":"int","value":16},{"name":"fh","type":"int","value":16},{"name":"solid","type":"bool","value":true}]},{"id":12,"name":"","type":"prop","x":24.0,"y":96,"width":0,"height":0,"rotation":0,"visible":true,"point":true,"properties":[{"name":"kind","type":"string","value":"wall"},{"name":"fw","type":"int","value":16},{"name":"fh","type":"int","value":16},{"name":"solid","type":"bool","value":true}]},{"id":13,"name":"","type":"prop","x":424.0,"y":96,"width":0,"height":0,"rotation":0,"visible":true,"point":true,"properties":[{"name":"kind","type":"string","value":"wall"},{"name":"fw","type":"int","value":16},{"name":"fh","type":"int","value":16},{"name":"solid","type":"bool","value":true}]},{"id":14,"name":"","type":"prop","x":24.0,"y":112,"width":0,"height":0,"rotation":0,"visible":true,"point":true,"properties":[{"name":"kind","type":"string","value":"wall"},{"name":"fw","type":"int","value":16},{"name":"fh","type":"int","value":16},{"name":"solid","type":"bool","value":true}]},{"id":15,"name":"","type":"prop","x":424.0,"y":112,"width":0,"height":0,"rotation":0,"visible":true,"point":true,"properties":[{"name":"kind","type":"string","value":"wall"},{"name":"fw","type":"int","value":16},{"name":"fh","type":"int","value":16},{"name":"solid","type":"bool","value":true}]},{"id":16,"name":"","type":"prop","x":24.0,"y":128,"width":0,"height":0,"rotation":0,"visible":true,"point":true,"properties":[{"name":"kind","type":"string","value":"wall"},{"name":"fw","type":"int","value":16},{"name":"fh","type":"int","value":16},{"name":"solid","type":"bool","value":true}]},{"id":17,"name":"","type":"prop","x":424.0,"y":128,"width":0,"height":0,"rotation":0,"visible":true,"point":true,"properties":[{"name":"kind","type":"string","value":"wall"},{"name":"fw","type":"int","value":16},{"name":"fh","type":"int","value":16},{"name":"solid","type":"bool","value":true}]},{"id":18,"name":"","type":"prop","x":24.0,"y":144,"width":0,"height":0,"rotation":0,"visible":true,"point":true,"properties":[{"name":"kind","type":"string","value":"wall"},{"name":"fw","type":"int","value":16},{"name":"fh","type":"int","value":16},{"name":"solid","type":"bool","value":true}]},{"id":19,"name":"","type":"prop","x":424.0,"y":144,"width":0,"height":0,"rotation":0,"visible":true,"point":true,"properties":[{"name":"kind","type":"string","value":"wall"},{"name":"fw","type":"int","value":16},{"name":"fh","type":"int","value":16},{"name":"solid","type":"bool","value":true}]},{"id":20,"name":"","type":"prop","x":24.0,"y":160,"width":0,"height":0,"rotation":0,"visible":true,"point":true,"properties":[{"name":"kind","type":"string","value":"wall"},{"name":"fw","type":"int","value":16},{"name":"fh","type":"int","value":16},{"name":"solid","type":"bool","value":true}]},{"id":21,"name":"","type":"prop","x":424.0,"y":160,"width":0,"height":0,"rotation":0,"visible":true,"point":true,"properties":[{"name":"kind","type":"string","value":"wall"},{"name":"fw","type":"int","value":16},{"name":"fh","type":"int","value":16},{"name":"solid","type":"bool","value":true}]},{"id":22,"name":"","type":"prop","x":24.0,"y":176,"width":0,"height":0,"rotation":0,"visible":true,"point":true,"properties":[{"name":"kind","type":"string","value":"wall"},{"name":"fw","type":"int","value":16},{"name":"fh","type":"int","value":16},{"name":"solid","type":"bool","value":true}]},{"id":23,"name":"","type":"prop","x":424.0,"y":176,"width":0,"height":0,"rotation":0,"visible":true,"point":true,"properties":[{"name":"kind","type":"string","value":"wall"},{"name":"fw","type":"int","value":16},{"name":"fh","type":"int","value":16},{"name":"solid","type":"bool","value":true}]},{"id":24,"name":"","type":"prop","x":24.0,"y":192,"width":0,"height":0,"rotation":0,"visible":true,"point":true,"properties":[{"name":"kind","type":"string","value":"wall"},{"name":"fw","type":"int","value":16},{"name":"fh","type":"int","value":16},{"name":"solid","type":"bool","value":true}]},{"id":25,"name":"","type":"prop","x":424.0,"y":192,"width":0,"height":0,"rotation":0,"visible":true,"point":true,"properties":[{"name":"kind","type":"string","value":"wall"},{"name":"fw","type":"int","value":16},{"name":"fh","type":"int","value":16},{"name":"solid","type":"bool","value":true}]},{"id":26,"name":"","type":"prop","x":24.0,"y":208,"width":0,"height":0,"rotation":0,"visible":true,"point":true,"properties":[{"name":"kind","type":"string","value":"wall"},{"name":"fw","type":"int","value":16},{"name":"fh","type":"int","value":16},{"name":"solid","type":"bool","value":true}]},{"id":27,"name":"","type":"prop","x":424.0,"y":208,"width":0,"height":0,"rotation":0,"visible":true,"point":true,"properties":[{"name":"kind","type":"string","value":"wall"},{"name":"fw","type":"int","value":16},{"name":"fh","type":"int","value":16},{"name":"solid","type":"bool","value":true}]},{"id":28,"name":"","type":"prop","x":24.0,"y":224,"width":0,"height":0,"rotation":0,"visible":true,"point":true,"properties":[{"name":"kind","type":"string","value":"wall"},{"name":"fw","type":"int","value":16},{"name":"fh","type":"int","value":16},{"name":"solid","type":"bool","value":true}]},{"id":29,"name":"","type":"prop","x":424.0,"y":224,"width":0,"height":0,"rotation":0,"visible":true,"point":true,"properties":[{"name":"kind","type":"string","value":"wall"},{"name":"fw","type":"int","value":16},{"name":"fh","type":"int","value":16},{"name":"solid","type":"bool","value":true}]},{"id":30,"name":"","type":"prop","x":24.0,"y":240,"width":0,"height":0,"rotation":0,"visible":true,"point":true,"properties":[{"name":"kind","type":"string","value":"wall"},{"name":"fw","type":"int","value":16},{"name":"fh","type":"int","value":16},{"name":"solid","type":"bool","value":true}]},{"id":31,"name":"","type":"prop","x":424.0,"y":240,"width":0,"height":0,"rotation":0,"visible":true,"point":true,"properties":[{"name":"kind","type":"string","value":"wall"},{"name":"fw","type":"int","value":16},{"name":"fh","type":"int","value":16},{"name":"solid","type":"bool","value":true}]},{"id":32,"name":"","type":"prop","x":24.0,"y":256,"width":0,"height":0,"rotation":0,"visible":true,"point":true,"properties":[{"name":"kind","type":"string","value":"wall"},{"name":"fw","type":"int","value":16},{"name":"fh","type":"int","value":16},{"name":"solid","type":"bool","value":true}]},{"id":33,"name":"","type":"prop","x":424.0,"y":256,"width":0,"height":0,"rotation":0,"visible":true,"point":true,"properties":[{"name":"kind","type":"string","value":"wall"},{"name":"fw","type":"int","value":16},{"name":"fh","type":"int","value":16},{"name":"solid","type":"bool","value":true}]},{"id":34,"name":"","type":"prop","x":24.0,"y":272,"width":0,"height":0,"rotation":0,"visible":true,"point":true,"properties":[{"name":"kind","type":"string","value":"wall"},{"name":"fw","type":"int","value":16},{"name":"fh","type":"int","value":16},{"name":"solid","type":"bool","value":true}]},{"id":35,"name":"","type":"prop","x":424.0,"y":272,"width":0,"height":0,"rotation":0,"visible":true,"point":true,"properties":[{"name":"kind","type":"string","value":"wall"},{"name":"fw","type":"int","value":16},{"name":"fh","type":"int","value":16},{"name":"solid","type":"bool","value":true}]},{"id":36,"name":"","type":"prop","x":24.0,"y":288,"width":0,"height":0,"rotation":0,"visible":true,"point":true,"properties":[{"name":"kind","type":"string","value":"wall"},{"name":"fw","type":"int","value":16},{"name":"fh","type":"int","value":16},{"name":"solid","type":"bool","value":true}]},{"id":37,"name":"","type":"prop","x":424.0,"y":288,"width":0,"height":0,"rotation":0,"visible":true,"point":true,"properties":[{"name":"kind","type":"string","value":"wall"},{"name":"fw","type":"int","value":16},{"name":"fh","type":"int","value":16},{"name":"solid","type":"bool","value":true}]},{"id":38,"name":"","type":"prop","x":24.0,"y":304,"width":0,"height":0,"rotation":0,"visible":true,"point":true,"properties":[{"name":"kind","type":"string","value":"wall"},{"name":"fw","type":"int","value":16},{"name":"fh","type":"int","value":16},{"name":"solid","type":"bool","value":true}]},{"id":39,"name":"","type":"prop","x":424.0,"y":304,"width":0,"height":0,"rotation":0,"visible":true,"point":true,"properties":[{"name":"kind","type":"string","value":"wall"},{"name":"fw","type":"int","value":16},{"name":"fh","type":"int","value":16},{"name":"solid","type":"bool","value":true}]},{"id":40,"name":"","type":"prop","x":24.0,"y":320,"width":0,"height":0,"rotation":0,"visible":true,"point":true,"properties":[{"name":"kind","type":"string","value":"wall"},{"name":"fw","type":"int","value":16},{"name":"fh","type":"int","value":16},{"name":"solid","type":"bool","value":true}]},{"id":41,"name":"","type":"prop","x":424.0,"y":320,"width":0,"height":0,"rotation":0,"visible":true,"point":true,"properties":[{"name":"kind","type":"string","value":"wall"},{"name":"fw","type":"int","value":16},{"name":"fh","type":"int","value":16},{"name":"solid","type":"bool","value":true}]},{"id":42,"name":"","type":"prop","x":24.0,"y":336,"width":0,"height":0,"rotation":0,"visible":true,"point":true,"properties":[{"name":"kind","type":"string","value":"wall"},{"name":"fw","type":"int","value":16},{"name":"fh","type":"int","value":16},{"name":"solid","type":"bool","value":true}]},{"id":43,"name":"","type":"prop","x":424.0,"y":336,"width":0,"height":0,"rotation":0,"visible":true,"point":true,"properties":[{"name":"kind","type":"string","value":"wall"},{"name":"fw","type":"int","value":16},{"name":"fh","type":"int","value":16},{"name":"solid","type":"bool","value":true}]},{"id":44,"name":"","type":"prop","x":24.0,"y":352,"width":0,"height":0,"rotation":0,"visible":true,"point":true,"properties":[{"name":"kind","type":"string","value":"wall"},{"name":"fw","type":"int","value":16},{"name":"fh","type":"int","value":16},{"name":"solid","type":"bool","value":true}]},{"id":45,"name":"","type":"prop","x":424.0,"y":352,"width":0,"height":0,"rotation":0,"visible":true,"point":true,"properties":[{"name":"kind","type":"string","value":"wall"},{"name":"fw","type":"int","value":16},{"name":"fh","type":"int","value":16},{"name":"solid","type":"bool","value":true}]},{"id":46,"name":"","type":"prop","x":104.0,"y":368,"width":0,"height":0,"rotation":0,"visible":true,"point":true,"properties":[{"name":"kind","type":"string","value":"wall"},{"name":"fw","type":"int","value":176},{"name":"fh","type":"int","value":16},{"name":"solid","type":"bool","value":true}]},{"id":47,"name":"","type":"prop","x":328.0,"y":368,"width":0,"height":0,"rotation":0,"visible":true,"point":true,"properties":[{"name":"kind","type":"string","value":"wall"},{"name":"fw","type":"int","value":208},{"name":"fh","type":"int","value":16},{"name":"solid","type":"bool","value":true}]},{"id":48,"name":"exit-xiapi--lb-fu","type":"exit","x":137.6,"y":125.6,"width":12.8,"height":7.2,"rotation":0,"visible":true,"properties":[{"name":"to","type":"string","value":"xiapi--lb-fu"},{"name":"side","type":"string","value":"N"}]},{"id":49,"name":"exit-xiapi--yan-room","type":"exit","x":345.6,"y":125.6,"width":12.8,"height":7.2,"rotation":0,"visible":true,"properties":[{"name":"to","type":"string","value":"xiapi--yan-room"},{"name":"side","type":"string","value":"N"}]},{"id":50,"name":"exit-xiapi","type":"exit","x":192,"y":352,"width":32,"height":16,"rotation":0,"visible":true,"properties":[{"name":"to","type":"string","value":"xiapi"},{"name":"side","type":"string","value":"S"}]},{"id":51,"name":"entry-xiapi--lb-fu","type":"entry","x":152.0,"y":142.4,"width":0,"height":0,"rotation":0,"visible":true,"point":true,"properties":[{"name":"from","type":"string","value":"xiapi--lb-fu"}]},{"id":52,"name":"entry-xiapi--yan-room","type":"entry","x":360.0,"y":142.4,"width":0,"height":0,"rotation":0,"visible":true,"point":true,"properties":[{"name":"from","type":"string","value":"xiapi--yan-room"}]},{"id":53,"name":"entry-xiapi","type":"entry","x":200.0,"y":350.4,"width":0,"height":0,"rotation":0,"visible":true,"point":true,"properties":[{"name":"from","type":"string","value":"xiapi"}]},{"id":54,"name":"entry","type":"entry","x":152.0,"y":142.4,"width":0,"height":0,"rotation":0,"visible":true,"point":true}]}]}