{"type":"map","version":"1.10","tiledversion":"1.10.2","orientation":"orthogonal","renderorder":"right-down","width":42,"height":30,"tilewidth":16,"tileheight":16,"infinite":false,"nextlayerid":5,"nextobjectid":250,"properties":[{"name":"kit","type":"string","value":"xianxia"},{"name":"source","type":"string","value":"xiaopei.map.json"},{"name":"paths","type":"string","value":"000000000000000000000000000000000000000000|000000000000000000000000000000000000000000|000000000000000000000000000000000000000000|000000000000000000000000000000000000000000|000000000000000000000000000000000000000000|000000000000000000000000000000000000000000|000000000000000000000000000000000000000000|000000000000000000000000000000000000000000|000000000000000000000000000000000000000000|000000000000000000000000000010000000000000|000000000000000000000000000010000000000000|000000000000000000000101111111111111111111|000000000000000000000101111111111111111111|000000000000000000011111111000000000000000|111111111111111111111111111000000000000000|111111111111111111111111111000000000000000|000000000000000000011111111010000000000000|000000000000000000011111111010000000000000|000000000000000000000001111111111111111111|000000000000000000000101111111111111111111|000000000000000000000101110000000000000000|000000000000001111111111110000000000000000|000000000000000011111111110000000000000000|000000000000000011000000110000000000000000|000000000000000011000000111100000000000000|000000000000000011000011110000000000000000|000000000000000011000000110000000000000000|000000000000000011000000110000000000000000|000000000000000011000000110000000000000000|000000000000000011000000110000000000000000"}],"tilesets":[{"firstgid":1,"name":"x_tiles","tilewidth":16,"tileheight":16,"columns":4,"tilecount":20,"margin":0,"spacing":0,"image":"../../../../assets/tk/xianxia/tiles.png","imagewidth":64,"imageheight":80},{"firstgid":21,"name":"x_edges","tilewidth":16,"tileheight":16,"columns":30,"tilecount":300,"margin":0,"spacing":0,"image":"../../../../assets/tk/xianxia/edges.png","imagewidth":480,"imageheight":160}],"layers":[{"id":1,"name":"ground","type":"tilelayer","width":42,"height":30,"x":0,"y":0,"opacity":1,"visible":true,"data":[3,2,1,1,3,1,4,1,1,1,1,1,1,4,2,3,3,1,1,3,1,2,4,1,1,1,1,2,1,1,1,1,4,3,2,2,1,1,1,3,1,2,1,1,4,1,3,3,1,3,1,1,1,4,1,1,2,1,3,1,4,4,1,1,1,3,4,1,1,4,1,3,4,2,1,1,1,3,4,1,2,1,4,4,1,4,1,4,4,1,4,4,1,4,1,1,1,3,1,1,1,2,1,1,1,2,1,4,1,1,1,3,4,3,1,1,4,1,1,2,1,2,1,1,1,1,1,1,1,1,2,1,1,3,4,2,1,1,1,2,1,1,3,1,1,1,3,3,4,1,1,3,3,4,1,4,3,4,1,1,1,2,3,4,2,1,4,1,1,1,4,1,1,3,1,4,3,1,3,3,1,1,3,1,2,1,1,3,1,2,2,4,1,4,1,1,1,1,2,2,1,1,2,4,1,1,4,1,1,1,3,4,1,4,1,3,4,1,4,2,4,1,2,3,1,4,3,1,1,3,4,1,1,1,3,1,1,1,1,2,1,4,3,3,4,3,3,1,1,1,4,3,3,1,4,1,1,2,1,1,1,2,4,3,1,1,1,1,3,3,1,3,1,1,1,2,3,1,4,1,3,1,4,2,3,4,1,2,1,2,2,1,2,3,1,1,1,4,1,1,1,1,1,4,1,3,4,2,1,2,1,4,1,4,1,1,1,1,2,4,3,2,4,1,4,4,1,1,1,1,4,2,2,1,1,1,4,1,3,3,1,1,4,1,1,2,1,4,1,3,1,2,2,1,4,2,1,4,1,2,2,3,4,4,1,3,3,2,2,4,2,4,3,3,3,2,2,2,1,1,4,1,1,3,1,3,3,2,4,3,2,1,3,1,4,1,3,2,4,1,1,1,3,1,2,1,3,4,3,1,1,3,3,3,1,1,1,2,3,2,4,1,1,4,1,1,1,1,1,1,1,2,3,2,4,1,2,1,4,2,1,1,2,1,1,3,1,1,2,1,1,1,2,1,1,1,1,3,1,1,4,4,1,1,1,1,2,4,2,1,2,1,1,2,2,1,4,3,1,3,1,1,1,1,4,4,1,1,4,2,1,2,2,2,1,1,3,1,1,1,2,1,1,4,2,3,3,4,4,1,2,4,4,2,3,1,1,4,2,2,1,1,1,1,3,1,3,2,1,2,1,4,3,1,1,1,1,1,2,2,1,1,1,2,1,4,1,2,3,1,4,2,1,3,1,3,3,1,1,1,1,3,3,1,4,1,4,3,3,2,1,3,1,4,1,2,1,3,1,1,1,2,4,3,1,2,4,3,2,3,2,1,1,4,2,2,1,1,2,1,2,1,1,4,1,1,1,2,4,1,3,1,1,2,1,1,4,4,1,1,3,1,1,1,4,4,2,2,3,2,4,1,1,1,1,1,1,1,4,2,1,4,2,2,4,2,1,3,1,4,2,4,1,2,2,1,1,4,1,1,1,1,1,3,1,4,1,1,1,1,1,1,1,1,1,1,1,1,1,1,3,1,4,1,1,2,1,1,2,2,1,1,1,4,3,3,1,1,3,2,1,1,4,1,4,1,3,3,1,4,4,3,4,1,3,1,1,2,3,2,4,1,2,1,1,2,1,1,1,1,1,4,3,1,1,3,4,1,2,4,1,1,1,1,1,1,2,4,1,2,1,2,3,1,2,2,4,3,1,3,3,2,4,3,1,2,1,1,3,4,3,3,3,1,1,1,3,1,3,3,2,1,1,1,3,3,1,1,1,1,1,4,1,1,4,2,1,3,1,1,4,2,4,2,1,1,4,3,1,4,4,4,2,3,3,2,4,2,2,1,3,3,2,1,1,3,1,3,3,3,1,2,1,1,4,1,4,3,1,1,1,1,1,1,1,1,2,1,1,2,2,1,2,1,3,4,3,3,4,1,4,4,1,2,1,1,1,4,3,4,2,2,1,1,2,4,1,3,1,2,4,2,2,2,1,3,1,1,1,1,4,1,2,1,4,1,2,1,1,1,4,3,2,4,2,3,4,1,3,1,3,1,1,4,1,1,4,1,1,4,1,4,1,2,3,1,2,1,1,1,1,4,4,3,1,2,1,1,1,1,1,3,1,4,1,1,1,4,3,2,1,1,2,1,2,1,1,2,1,4,1,3,3,1,2,1,3,2,1,4,1,3,1,1,1,3,1,1,4,4,1,4,1,1,1,4,2,1,4,3,1,3,3,1,3,3,3,3,2,1,1,3,1,1,1,3,1,3,1,1,4,1,2,2,3,1,2,4,3,1,1,1,1,1,3,1,3,4,1,2,4,2,1,1,1,3,4,1,1,3,2,2,1,2,1,1,1,1,1,1,4,2,2,1,4,3,1,2,1,1,3,1,2,4,4,2,1,1,1,3,1,2,1,3,1,2,1,1,1,1,1,1,4,3,1,1,3,1,2,1,1,1,2,2,1,4,3,2,1,1,1,4,1,2,3,3,2,4,1,4,1,3,4,2,2,1,1,1,3,3,2,4,3,3,1,1,3,4,1,1,1,3,1,4,1,4,1,1,4,2,4,2,2,1,3,1,3,1,1,3,2,1,1,2,1,1,3,3,2,1,4,1,4,1,3,2,3,3,1,2,2,1,3,1,4,1,1,1,4,4,1,4,1,3,2,3,3,1,2,2,3,3,4,1,2,1,3,1,1,3,2,1,1,1,4,1,4,1,1,1,1,1,3,1,1,4,1,3,1,1,1,4,3,3,3,4,1,1,1,4,1,1,1,1,4,2,1,4,2,1,1,1,1,2,1,1,1,3,1,4,3,3,1,3,2,1,3,1,2,4]},{"id":2,"name":"dirt","type":"tilelayer","width":42,"height":30,"x":0,"y":0,"opacity":1,"visible":true,"data":[0,0,0,0,0,0,0,0,0,0,0,0,0,0,0,0,0,0,0,0,0,0,0,0,0,0,0,0,0,0,0,0,0,0,0,0,0,0,0,0,0,0,0,0,0,0,0,0,0,0,0,0,0,0,0,0,0,0,0,0,0,0,0,0,0,0,0,0,0,0,0,0,0,0,0,0,0,0,0,0,0,0,0,0,0,0,0,0,0,0,0,0,0,0,0,0,0,0,0,0,0,0,0,0,0,0,0,0,0,0,0,0,0,0,0,0,0,0,0,0,0,0,0,0,0,0,0,0,0,0,0,0,0,0,0,0,0,0,0,0,0,0,0,0,0,0,0,0,0,0,0,0,0,0,0,0,0,0,0,0,0,0,0,0,0,0,0,0,0,0,0,0,0,0,0,0,0,0,0,0,0,0,0,0,0,0,0,0,0,0,0,0,0,0,0,0,0,0,0,0,0,0,0,0,0,0,0,0,0,0,0,0,0,0,0,0,0,0,0,0,0,0,0,0,0,0,0,0,0,0,0,0,0,0,0,0,0,0,0,0,0,0,0,0,0,0,0,0,0,0,0,0,0,0,0,0,0,0,0,0,0,0,0,0,0,0,0,0,0,0,0,0,0,0,0,0,0,0,0,0,0,0,0,0,0,0,0,0,0,0,0,0,0,0,0,0,0,0,0,0,0,0,0,0,0,0,0,0,0,0,0,0,0,0,0,0,0,0,0,0,0,0,0,0,0,0,0,0,0,0,0,0,0,0,0,0,0,0,0,0,0,0,0,0,0,0,0,0,0,0,0,0,0,0,0,0,0,0,0,0,0,0,0,0,0,0,0,0,0,0,0,0,0,0,0,0,0,0,0,0,0,0,0,0,0,0,0,0,0,0,0,0,0,0,0,0,0,0,0,0,0,0,0,0,0,0,27,0,0,0,0,0,0,0,0,0,0,0,0,0,0,0,0,0,0,0,0,0,0,0,0,0,0,0,0,0,0,0,0,0,0,0,0,0,0,0,0,0,57,0,0,0,0,0,0,0,0,0,0,0,0,0,0,0,0,0,0,0,0,0,0,0,0,0,0,0,0,0,0,0,0,0,0,28,0,90,209,210,209,209,264,209,210,210,210,210,210,210,209,210,210,210,210,209,0,0,0,0,0,0,0,0,0,0,0,0,0,0,0,0,0,0,0,0,0,58,0,179,293,293,267,178,177,177,178,177,178,177,177,178,177,177,178,178,177,178,0,0,0,0,0,0,0,0,0,0,0,0,0,0,0,0,0,0,0,90,209,264,209,270,293,293,231,0,0,0,0,0,0,0,0,0,0,0,0,0,0,0,210,209,209,209,209,209,210,209,210,209,209,209,210,210,210,210,210,210,209,269,293,293,293,293,293,293,232,0,0,0,0,0,0,0,0,0,0,0,0,0,0,0,177,177,178,178,178,177,177,177,178,178,177,178,177,178,178,177,177,178,178,265,293,293,293,293,293,293,232,0,0,0,0,0,0,0,0,0,0,0,0,0,0,0,0,0,0,0,0,0,0,0,0,0,0,0,0,0,0,0,0,0,0,179,293,293,293,293,293,293,232,0,27,0,0,0,0,0,0,0,0,0,0,0,0,0,0,0,0,0,0,0,0,0,0,0,0,0,0,0,0,0,0,0,0,83,178,178,177,265,293,293,231,0,57,0,0,0,0,0,0,0,0,0,0,0,0,0,0,0,0,0,0,0,0,0,0,0,0,0,0,0,0,0,0,0,0,0,0,0,0,179,293,293,291,210,264,209,209,209,210,209,209,210,210,210,209,209,210,209,0,0,0,0,0,0,0,0,0,0,0,0,0,0,0,0,0,0,0,0,0,28,0,180,293,268,177,177,177,177,178,177,178,177,178,177,177,178,178,177,178,178,0,0,0,0,0,0,0,0,0,0,0,0,0,0,0,0,0,0,0,0,0,58,0,179,293,232,0,0,0,0,0,0,0,0,0,0,0,0,0,0,0,0,0,0,0,0,0,0,0,0,0,0,0,0,0,0,23,56,150,209,209,210,209,264,209,270,293,231,0,0,0,0,0,0,0,0,0,0,0,0,0,0,0,0,0,0,0,0,0,0,0,0,0,0,0,0,0,0,0,0,179,268,177,177,178,177,177,178,266,232,0,0,0,0,0,0,0,0,0,0,0,0,0,0,0,0,0,0,0,0,0,0,0,0,0,0,0,0,0,0,0,0,179,231,0,0,0,0,0,0,179,231,0,0,0,0,0,0,0,0,0,0,0,0,0,0,0,0,0,0,0,0,0,0,0,0,0,0,0,0,0,0,0,0,180,232,0,0,0,0,0,0,179,261,56,29,0,0,0,0,0,0,0,0,0,0,0,0,0,0,0,0,0,0,0,0,0,0,0,0,0,0,0,0,0,0,180,232,0,0,0,0,23,55,235,232,0,0,0,0,0,0,0,0,0,0,0,0,0,0,0,0,0,0,0,0,0,0,0,0,0,0,0,0,0,0,0,0,179,231,0,0,0,0,0,0,180,231,0,0,0,0,0,0,0,0,0,0,0,0,0,0,0,0,0,0,0,0,0,0,0,0,0,0,0,0,0,0,0,0,180,231,0,0,0,0,0,0,180,231,0,0,0,0,0,0,0,0,0,0,0,0,0,0,0,0,0,0,0,0,0,0,0,0,0,0,0,0,0,0,0,0,179,231,0,0,0,0,0,0,180,231,0,0,0,0,0,0,0,0,0,0,0,0,0,0,0,0,0,0,0,0,0,0,0,0,0,0,0,0,0,0,0,0,179,231,0,0,0,0,0,0,180,232,0,0,0,0,0,0,0,0,0,0,0,0,0,0,0,0]},{"id":3,"name":"detail","type":"tilelayer","width":42,"height":30,"x":0,"y":0,"opacity":1,"visible":true,"data":[0,0,0,0,0,0,0,0,0,0,0,0,0,0,0,0,0,0,0,0,0,0,0,0,0,0,0,0,0,0,0,0,0,0,17,0,0,0,0,0,0,0,0,0,0,0,0,0,0,0,0,0,0,0,0,0,0,0,0,0,0,0,0,0,0,0,0,0,0,0,0,18,0,0,0,0,0,0,0,0,0,0,0,0,0,0,0,0,0,17,0,0,0,0,0,0,0,0,0,17,0,0,0,0,0,0,18,0,0,17,0,0,0,0,0,0,0,17,0,0,0,0,0,0,0,0,0,0,0,0,0,0,0,0,0,0,18,0,0,0,0,17,0,0,0,0,0,0,0,0,0,0,0,0,0,0,0,0,0,0,0,0,0,0,0,0,0,0,0,0,0,0,0,0,0,18,0,0,0,0,0,0,0,0,0,17,0,0,0,0,0,17,0,0,0,0,0,0,0,0,18,0,0,0,0,0,18,0,0,0,0,0,0,0,0,17,0,0,0,0,0,0,0,18,0,0,0,0,0,0,17,0,0,0,17,0,0,0,18,0,0,0,0,0,0,17,0,0,0,0,0,17,0,0,0,0,0,0,0,0,0,0,0,0,0,18,0,0,0,0,0,0,18,0,0,0,0,0,18,0,0,0,0,0,0,0,0,0,0,0,0,0,0,0,0,0,0,0,0,0,0,0,0,0,0,0,0,0,0,0,0,0,0,18,18,0,0,0,0,0,0,0,0,0,0,0,0,0,0,0,17,18,0,0,0,0,0,0,0,0,0,0,0,0,0,0,0,0,0,17,0,0,0,0,0,0,0,17,0,0,0,0,0,0,0,0,0,0,0,0,0,17,0,0,0,18,0,0,0,0,0,0,0,0,0,0,0,17,0,0,0,0,0,0,0,0,0,0,0,0,0,0,17,0,0,0,0,0,0,0,0,0,0,0,0,0,0,0,0,0,0,0,0,0,0,0,0,0,0,0,0,0,0,0,0,17,0,0,0,0,0,0,0,17,0,0,0,0,0,0,0,0,0,0,0,17,0,0,0,0,0,17,0,0,0,0,18,0,0,0,0,0,0,0,0,0,0,17,0,0,0,0,0,0,0,0,0,0,0,0,0,0,0,0,0,0,0,0,0,0,0,0,0,0,0,0,0,0,0,0,0,0,0,0,0,0,0,0,0,0,0,0,0,17,0,0,0,0,0,0,0,0,0,0,0,0,0,0,0,0,0,0,0,0,0,0,0,0,0,17,0,0,0,0,0,0,0,0,0,0,0,0,0,0,0,0,0,0,0,0,0,0,0,0,0,0,0,0,0,0,0,0,0,0,0,0,0,0,0,0,0,0,0,0,0,0,0,0,0,0,0,0,0,0,0,0,0,0,0,0,0,0,0,0,0,0,0,0,0,0,0,0,0,0,0,0,18,0,0,0,0,0,0,0,0,0,0,0,0,0,0,0,0,0,0,0,0,0,0,0,0,0,0,0,0,0,0,0,0,0,17,0,0,0,0,0,0,0,0,0,0,0,18,0,0,0,17,0,0,0,0,0,0,0,0,0,18,0,0,0,0,0,0,0,0,0,0,0,0,0,0,0,0,0,0,0,0,0,18,0,0,0,0,0,0,0,0,0,0,0,0,0,0,0,0,0,0,0,0,0,0,17,0,0,0,0,0,0,0,0,0,0,0,0,0,18,0,0,0,0,0,0,0,0,0,0,0,0,0,0,0,0,0,0,0,0,0,18,0,0,17,0,0,0,0,0,0,0,18,0,0,0,0,0,0,0,0,0,0,0,0,0,0,0,0,0,0,0,0,0,0,0,17,0,0,0,0,0,0,0,0,0,0,0,0,0,0,0,0,0,0,0,0,0,0,0,0,0,0,0,0,0,0,0,0,0,0,0,0,0,0,0,0,0,0,0,0,18,0,0,0,0,0,0,0,0,0,0,0,0,0,0,17,0,0,0,0,0,0,18,0,0,0,0,0,0,0,17,0,0,0,18,0,0,0,0,0,0,0,18,0,0,0,0,0,0,0,0,0,0,0,0,0,0,0,0,0,0,0,0,0,0,0,0,0,0,0,0,17,0,0,0,0,0,0,0,0,0,0,0,0,0,0,0,0,0,0,0,0,0,0,0,0,0,0,0,0,0,0,0,0,0,0,0,0,17,0,0,0,0,0,0,18,0,0,0,0,0,0,0,0,0,0,17,0,18,0,0,0,17,0,0,0,0,0,0,0,0,0,0,0,0,0,0,0,0,0,0,18,0,0,0,0,0,0,0,0,0,0,0,0,17,0,0,0,0,0,0,0,0,0,0,0,0,0,0,0,0,0,0,0,0,0,0,0,0,0,0,0,0,0,0,0,0,0,0,0,0,0,0,0,0,0,17,0,0,0,18,0,18,0,0,0,0,0,0,0,0,18,18,17,18,0,0,0,0,18,0,0,17,0,0,0,0,0,0,0,0,0,0,0,0,0,0,0,0,0,18,0,0,17,18,0,18,0,0,0,0,0,0,0,0,0,0,0,0,0,0,0,0,17,0,0,0,0,0,0,0,0,0,0,0,0,0,0,0,0,0,0,0,0,0,0,0,18,0,0,0,0,18,0,0,0,18,17,0,17,17,0,0,0,0,0,0,0,0,0,0,17,0,0,0,17,18,0,0,0,0,0,0,0,0,0,0,0,0,0,0,0,0,0,18,0,0,17,0,0,0,0,0,0,0,0,0,0,0,0,0,0,0,0,0,0,0,0,0,0,0,0,0,0,0,0,0,0,0,0,0,0,0,0,0,0,0,0,0,18,0,0,0,0,0,0,0,0,0,0,0,0,0,0,0,0,0,0,0,18,0,0,0]},{"id":4,"name":"objects","type":"objectgroup","draworder":"topdown","x":0,"y":0,"opacity":1,"visible":true,"objects":[{"id":1,"name":"building.tent#0","type":"prop","x":344.0,"y":176,"width":0,"height":0,"rotation":0,"visible":true,"point":true,"properties":[{"name":"kind","type":"string","value":"building.tent"},{"name":"fw","type":"int","value":48},{"name":"fh","type":"int","value":32},{"name":"solid","type":"bool","value":true},{"name":"ref","type":"string","value":"lvbucamp"},{"name":"cl","type":"float","value":21.0},{"name":"cr","type":"float","value":21.0}]},{"id":2,"name":"building.gate#0","type":"prop","x":448.0,"y":256,"width":0,"height":0,"rotation":0,"visible":true,"point":true,"properties":[{"name":"kind","type":"string","value":"building.gate"},{"name":"fw","type":"int","value":32},{"name":"fh","type":"int","value":16},{"name":"solid","type":"bool","value":false},{"name":"ref","type":"string","value":"northgate"}]},{"id":3,"name":"building.gate#0","type":"prop","x":336.0,"y":304,"width":0,"height":0,"rotation":0,"visible":true,"point":true,"properties":[{"name":"kind","type":"string","value":"building.gate"},{"name":"fw","type":"int","value":32},{"name":"fh","type":"int","value":16},{"name":"solid","type":"bool","value":false},{"name":"ref","type":"string","value":"westgate"}]},{"id":4,"name":"landmark.shrine#0","type":"prop","x":288.0,"y":208,"width":0,"height":0,"rotation":0,"visible":true,"point":true,"properties":[{"name":"kind","type":"string","value":"landmark.shrine"},{"name":"fw","type":"int","value":32},{"name":"fh","type":"int","value":16},{"name":"solid","type":"bool","value":true},{"name":"ref","type":"string","value":"shrine"}]},{"id":5,"name":"building.house#1","type":"prop","x":448.0,"y":144,"width":0,"height":0,"rotation":0,"visible":true,"point":true,"properties":[{"name":"kind","type":"string","value":"building.house"},{"name":"fw","type":"int","value":64},{"name":"fh","type":"int","value":32},{"name":"solid","type":"bool","value":true},{"name":"ref","type":"string","value":"house-1"},{"name":"cl","type":"float","value":23.5},{"name":"cr","type":"float","value":23.5}]},{"id":6,"name":"building.house#0","type":"prop","x":352.0,"y":400,"width":0,"height":0,"rotation":0,"visible":true,"point":true,"properties":[{"name":"kind","type":"string","value":"building.house"},{"name":"fw","type":"int","value":64},{"name":"fh","type":"int","value":32},{"name":"solid","type":"bool","value":true},{"name":"ref","type":"string","value":"house-2"},{"name":"cl","type":"float","value":23.0},{"name":"cr","type":"float","value":23.0}]},{"id":7,"name":"building.house#0","type":"prop","x":224.0,"y":336,"width":0,"height":0,"rotation":0,"visible":true,"point":true,"properties":[{"name":"kind","type":"string","value":"building.house"},{"name":"fw","type":"int","value":64},{"name":"fh","type":"int","value":32},{"name":"solid","type":"bool","value":true},{"name":"ref","type":"string","value":"house-3"},{"name":"cl","type":"float","value":23.0},{"name":"cr","type":"float","value":23.0}]},{"id":8,"name":"building.shop#0","type":"prop","x":440.0,"y":384,"width":0,"height":0,"rotation":0,"visible":true,"point":true,"properties":[{"name":"kind","type":"string","value":"building.shop"},{"name":"fw","type":"int","value":48},{"name":"fh","type":"int","value":32},{"name":"solid","type":"bool","value":true},{"name":"ref","type":"string","value":"shop-1"},{"name":"cl","type":"float","value":17.5},{"name":"cr","type":"float","value":17.5}]},{"id":9,"name":"tree.grove#1","type":"prop","x":120.0,"y":400,"width":0,"height":0,"rotation":0,"visible":true,"point":true,"properties":[{"name":"kind","type":"string","value":"tree.grove"},{"name":"fw","type":"int","value":48},{"name":"fh","type":"int","value":16},{"name":"solid","type":"bool","value":true}]},{"id":10,"name":"tree.small#2","type":"prop","x":152.0,"y":400,"width":0,"height":0,"rotation":0,"visible":true,"point":true,"properties":[{"name":"kind","type":"string","value":"tree.small"},{"name":"fw","type":"int","value":16},{"name":"fh","type":"int","value":16},{"name":"solid","type":"bool","value":true}]},{"id":11,"name":"tree.small#0","type":"prop","x":152.0,"y":368,"width":0,"height":0,"rotation":0,"visible":true,"point":true,"properties":[{"name":"kind","type":"string","value":"tree.small"},{"name":"fw","type":"int","value":16},{"name":"fh","type":"int","value":16},{"name":"solid","type":"bool","value":true}]},{"id":12,"name":"tree.small#2","type":"prop","x":88.0,"y":416,"width":0,"height":0,"rotation":0,"visible":true,"point":true,"properties":[{"name":"kind","type":"string","value":"tree.small"},{"name":"fw","type":"int","value":16},{"name":"fh","type":"int","value":16},{"name":"solid","type":"bool","value":true}]},{"id":13,"name":"plant.bush#0","type":"prop","x":168.0,"y":368,"width":0,"height":0,"rotation":0,"visible":true,"point":true,"properties":[{"name":"kind","type":"string","value":"plant.bush"},{"name":"fw","type":"int","value":16},{"name":"fh","type":"int","value":16},{"name":"solid","type":"bool","value":false}]},{"id":14,"name":"plant.bush#1","type":"prop","x":184.0,"y":368,"width":0,"height":0,"rotation":0,"visible":true,"point":true,"properties":[{"name":"kind","type":"string","value":"plant.bush"},{"name":"fw","type":"int","value":16},{"name":"fh","type":"int","value":16},{"name":"solid","type":"bool","value":false}]},{"id":15,"name":"tree.grove#1","type":"prop","x":584.0,"y":112,"width":0,"height":0,"rotation":0,"visible":true,"point":true,"properties":[{"name":"kind","type":"string","value":"tree.grove"},{"name":"fw","type":"int","value":48},{"name":"fh","type":"int","value":16},{"name":"solid","type":"bool","value":true}]},{"id":16,"name":"tree.grove#0","type":"prop","x":536.0,"y":112,"width":0,"height":0,"rotation":0,"visible":true,"point":true,"properties":[{"name":"kind","type":"string","value":"tree.grove"},{"name":"fw","type":"int","value":48},{"name":"fh","type":"int","value":16},{"name":"solid","type":"bool","value":true}]},{"id":17,"name":"tree.grove#1","type":"prop","x":584.0,"y":80,"width":0,"height":0,"rotation":0,"visible":true,"point":true,"properties":[{"name":"kind","type":"string","value":"tree.grove"},{"name":"fw","type":"int","value":48},{"name":"fh","type":"int","value":16},{"name":"solid","type":"bool","value":true}]},{"id":18,"name":"plant.bush#1","type":"prop","x":536.0,"y":96,"width":0,"height":0,"rotation":0,"visible":true,"point":true,"properties":[{"name":"kind","type":"string","value":"plant.bush"},{"name":"fw","type":"int","value":16},{"name":"fh","type":"int","value":16},{"name":"solid","type":"bool","value":false}]},{"id":19,"name":"tree.grove#0","type":"prop","x":552.0,"y":64,"width":0,"height":0,"rotation":0,"visible":true,"point":true,"properties":[{"name":"kind","type":"string","value":"tree.grove"},{"name":"fw","type":"int","value":48},{"name":"fh","type":"int","value":16},{"name":"solid","type":"bool","value":true}]},{"id":20,"name":"tree.small#2","type":"prop","x":584.0,"y":64,"width":0,"height":0,"rotation":0,"visible":true,"point":true,"properties":[{"name":"kind","type":"string","value":"tree.small"},{"name":"fw","type":"int","value":16},{"name":"fh","type":"int","value":16},{"name":"solid","type":"bool","value":true}]},{"id":21,"name":"tree.small#0","type":"prop","x":552.0,"y":96,"width":0,"height":0,"rotation":0,"visible":true,"point":true,"properties":[{"name":"kind","type":"string","value":"tree.small"},{"name":"fw","type":"int","value":16},{"name":"fh","type":"int","value":16},{"name":"solid","type":"bool","value":true}]},{"id":22,"name":"tree.grove#0","type":"prop","x":184.0,"y":144,"width":0,"height":0,"rotation":0,"visible":true,"point":true,"properties":[{"name":"kind","type":"string","value":"tree.grove"},{"name":"fw","type":"int","value":48},{"name":"fh","type":"int","value":16},{"name":"solid","type":"bool","value":true}]},{"id":23,"name":"plant.bush#1","type":"prop","x":232.0,"y":128,"width":0,"height":0,"rotation":0,"visible":true,"point":true,"properties":[{"name":"kind","type":"string","value":"plant.bush"},{"name":"fw","type":"int","value":16},{"name":"fh","type":"int","value":16},{"name":"solid","type":"bool","value":false}]},{"id":24,"name":"tree.grove#1","type":"prop","x":248.0,"y":112,"width":0,"height":0,"rotation":0,"visible":true,"point":true,"properties":[{"name":"kind","type":"string","value":"tree.grove"},{"name":"fw","type":"int","value":48},{"name":"fh","type":"int","value":16},{"name":"solid","type":"bool","value":true}]},{"id":25,"name":"tree.grove#0","type":"prop","x":168.0,"y":96,"width":0,"height":0,"rotation":0,"visible":true,"point":true,"properties":[{"name":"kind","type":"string","value":"tree.grove"},{"name":"fw","type":"int","value":48},{"name":"fh","type":"int","value":16},{"name":"solid","type":"bool","value":true}]},{"id":26,"name":"tree.grove#0","type":"prop","x":648.0,"y":48,"width":0,"height":0,"rotation":0,"visible":true,"point":true,"properties":[{"name":"kind","type":"string","value":"tree.grove"},{"name":"fw","type":"int","value":48},{"name":"fh","type":"int","value":16},{"name":"solid","type":"bool","value":true}]},{"id":27,"name":"tree.small#0","type":"prop","x":24.0,"y":96,"width":0,"height":0,"rotation":0,"visible":true,"point":true,"properties":[{"name":"kind","type":"string","value":"tree.small"},{"name":"fw","type":"int","value":16},{"name":"fh","type":"int","value":16},{"name":"solid","type":"bool","value":true}]},{"id":28,"name":"tree.pine#2","type":"prop","x":344.0,"y":32,"width":0,"height":0,"rotation":0,"visible":true,"point":true,"properties":[{"name":"kind","type":"string","value":"tree.pine"},{"name":"fw","type":"int","value":16},{"name":"fh","type":"int","value":16},{"name":"solid","type":"bool","value":true}]},{"id":29,"name":"tree.pine#0","type":"prop","x":184.0,"y":480,"width":0,"height":0,"rotation":0,"visible":true,"point":true,"properties":[{"name":"kind","type":"string","value":"tree.pine"},{"name":"fw","type":"int","value":16},{"name":"fh","type":"int","value":16},{"name":"solid","type":"bool","value":true}]},{"id":30,"name":"tree.pine#0","type":"prop","x":104.0,"y":480,"width":0,"height":0,"rotation":0,"visible":true,"point":true,"properties":[{"name":"kind","type":"string","value":"tree.pine"},{"name":"fw","type":"int","value":16},{"name":"fh","type":"int","value":16},{"name":"solid","type":"bool","value":true}]},{"id":31,"name":"tree.grove#0","type":"prop","x":648.0,"y":32,"width":0,"height":0,"rotation":0,"visible":true,"point":true,"properties":[{"name":"kind","type":"string","value":"tree.grove"},{"name":"fw","type":"int","value":48},{"name":"fh","type":"int","value":16},{"name":"solid","type":"bool","value":true}]},{"id":32,"name":"tree.pine#1","type":"prop","x":568.0,"y":464,"width":0,"height":0,"rotation":0,"visible":true,"point":true,"properties":[{"name":"kind","type":"string","value":"tree.pine"},{"name":"fw","type":"int","value":16},{"name":"fh","type":"int","value":16},{"name":"solid","type":"bool","value":true}]},{"id":33,"name":"tree.pine#2","type":"prop","x":104.0,"y":464,"width":0,"height":0,"rotation":0,"visible":true,"point":true,"properties":[{"name":"kind","type":"string","value":"tree.pine"},{"name":"fw","type":"int","value":16},{"name":"fh","type":"int","value":16},{"name":"solid","type":"bool","value":true}]},{"id":34,"name":"tree.pine#2","type":"prop","x":216.0,"y":32,"width":0,"height":0,"rotation":0,"visible":true,"point":true,"properties":[{"name":"kind","type":"string","value":"tree.pine"},{"name":"fw","type":"int","value":16},{"name":"fh","type":"int","value":16},{"name":"solid","type":"bool","value":true}]},{"id":35,"name":"tree.grove#0","type":"prop","x":280.0,"y":16,"width":0,"height":0,"rotation":0,"visible":true,"point":true,"properties":[{"name":"kind","type":"string","value":"tree.grove"},{"name":"fw","type":"int","value":48},{"name":"fh","type":"int","value":16},{"name":"solid","type":"bool","value":true}]},{"id":36,"name":"tree.grove#1","type":"prop","x":104.0,"y":32,"width":0,"height":0,"rotation":0,"visible":true,"point":true,"properties":[{"name":"kind","type":"string","value":"tree.grove"},{"name":"fw","type":"int","value":48},{"name":"fh","type":"int","value":16},{"name":"solid","type":"bool","value":true}]},{"id":37,"name":"tree.small#2","type":"prop","x":120.0,"y":480,"width":0,"height":0,"rotation":0,"visible":true,"point":true,"properties":[{"name":"kind","type":"string","value":"tree.small"},{"name":"fw","type":"int","value":16},{"name":"fh","type":"int","value":16},{"name":"solid","type":"bool","value":true}]},{"id":38,"name":"tree.grove#1","type":"prop","x":456.0,"y":16,"width":0,"height":0,"rotation":0,"visible":true,"point":true,"properties":[{"name":"kind","type":"string","value":"tree.grove"},{"name":"fw","type":"int","value":48},{"name":"fh","type":"int","value":16},{"name":"solid","type":"bool","value":true}]},{"id":39,"name":"tree.pine#1","type":"prop","x":344.0,"y":464,"width":0,"height":0,"rotation":0,"visible":true,"point":true,"properties":[{"name":"kind","type":"string","value":"tree.pine"},{"name":"fw","type":"int","value":16},{"name":"fh","type":"int","value":16},{"name":"solid","type":"bool","value":true}]},{"id":40,"name":"tree.grove#1","type":"prop","x":648.0,"y":432,"width":0,"height":0,"rotation":0,"visible":true,"point":true,"properties":[{"name":"kind","type":"string","value":"tree.grove"},{"name":"fw","type":"int","value":48},{"name":"fh","type":"int","value":16},{"name":"solid","type":"bool","value":true}]},{"id":41,"name":"tree.small#0","type":"prop","x":248.0,"y":32,"width":0,"height":0,"rotation":0,"visible":true,"point":true,"properties":[{"name":"kind","type":"string","value":"tree.small"},{"name":"fw","type":"int","value":16},{"name":"fh","type":"int","value":16},{"name":"solid","type":"bool","value":true}]},{"id":42,"name":"tree.small#1","type":"prop","x":664.0,"y":112,"width":0,"height":0,"rotation":0,"visible":true,"point":true,"properties":[{"name":"kind","type":"string","value":"tree.small"},{"name":"fw","type":"int","value":16},{"name":"fh","type":"int","value":16},{"name":"solid","type":"bool","value":true}]},{"id":43,"name":"tree.small#2","type":"prop","x":184.0,"y":464,"width":0,"height":0,"rotation":0,"visible":true,"point":true,"properties":[{"name":"kind","type":"string","value":"tree.small"},{"name":"fw","type":"int","value":16},{"name":"fh","type":"int","value":16},{"name":"solid","type":"bool","value":true}]},{"id":44,"name":"tree.pine#2","type":"prop","x":24.0,"y":48,"width":0,"height":0,"rotation":0,"visible":true,"point":true,"properties":[{"name":"kind","type":"string","value":"tree.pine"},{"name":"fw","type":"int","value":16},{"name":"fh","type":"int","value":16},{"name":"solid","type":"bool","value":true}]},{"id":45,"name":"tree.pine#0","type":"prop","x":24.0,"y":192,"width":0,"height":0,"rotation":0,"visible":true,"point":true,"properties":[{"name":"kind","type":"string","value":"tree.pine"},{"name":"fw","type":"int","value":16},{"name":"fh","type":"int","value":16},{"name":"solid","type":"bool","value":true}]},{"id":46,"name":"tree.small#1","type":"prop","x":24.0,"y":400,"width":0,"height":0,"rotation":0,"visible":true,"point":true,"properties":[{"name":"kind","type":"string","value":"tree.small"},{"name":"fw","type":"int","value":16},{"name":"fh","type":"int","value":16},{"name":"solid","type":"bool","value":true}]},{"id":47,"name":"tree.small#2","type":"prop","x":360.0,"y":16,"width":0,"height":0,"rotation":0,"visible":true,"point":true,"properties":[{"name":"kind","type":"string","value":"tree.small"},{"name":"fw","type":"int","value":16},{"name":"fh","type":"int","value":16},{"name":"solid","type":"bool","value":true}]},{"id":48,"name":"tree.pine#2","type":"prop","x":328.0,"y":464,"width":0,"height":0,"rotation":0,"visible":true,"point":true,"properties":[{"name":"kind","type":"string","value":"tree.pine"},{"name":"fw","type":"int","value":16},{"name":"fh","type":"int","value":16},{"name":"solid","type":"bool","value":true}]},{"id":49,"name":"tree.small#0","type":"prop","x":8.0,"y":304,"width":0,"height":0,"rotation":0,"visible":true,"point":true,"properties":[{"name":"kind","type":"string","value":"tree.small"},{"name":"fw","type":"int","value":16},{"name":"fh","type":"int","value":16},{"name":"solid","type":"bool","value":true}]},{"id":50,"name":"tree.pine#2","type":"prop","x":72.0,"y":32,"width":0,"height":0,"rotation":0,"visible":true,"point":true,"properties":[{"name":"kind","type":"string","value":"tree.pine"},{"name":"fw","type":"int","value":16},{"name":"fh","type":"int","value":16},{"name":"solid","type":"bool","value":true}]},{"id":51,"name":"tree.pine#1","type":"prop","x":664.0,"y":256,"width":0,"height":0,"rotation":0,"visible":true,"point":true,"properties":[{"name":"kind","type":"string","value":"tree.pine"},{"name":"fw","type":"int","value":16},{"name":"fh","type":"int","value":16},{"name":"solid","type":"bool","value":true}]},{"id":52,"name":"tree.grove#0","type":"prop","x":648.0,"y":16,"width":0,"height":0,"rotation":0,"visible":true,"point":true,"properties":[{"name":"kind","type":"string","value":"tree.grove"},{"name":"fw","type":"int","value":48},{"name":"fh","type":"int","value":16},{"name":"solid","type":"bool","value":true}]},{"id":53,"name":"tree.small#0","type":"prop","x":40.0,"y":32,"width":0,"height":0,"rotation":0,"visible":true,"point":true,"properties":[{"name":"kind","type":"string","value":"tree.small"},{"name":"fw","type":"int","value":16},{"name":"fh","type":"int","value":16},{"name":"solid","type":"bool","value":true}]},{"id":54,"name":"tree.small#1","type":"prop","x":552.0,"y":464,"width":0,"height":0,"rotation":0,"visible":true,"point":true,"properties":[{"name":"kind","type":"string","value":"tree.small"},{"name":"fw","type":"int","value":16},{"name":"fh","type":"int","value":16},{"name":"solid","type":"bool","value":true}]},{"id":55,"name":"tree.small#0","type":"prop","x":584.0,"y":464,"width":0,"height":0,"rotation":0,"visible":true,"point":true,"properties":[{"name":"kind","type":"string","value":"tree.small"},{"name":"fw","type":"int","value":16},{"name":"fh","type":"int","value":16},{"name":"solid","type":"bool","value":true}]},{"id":56,"name":"tree.small#2","type":"prop","x":328.0,"y":16,"width":0,"height":0,"rotation":0,"visible":true,"point":true,"properties":[{"name":"kind","type":"string","value":"tree.small"},{"name":"fw","type":"int","value":16},{"name":"fh","type":"int","value":16},{"name":"solid","type":"bool","value":true}]},{"id":57,"name":"tree.pine#1","type":"prop","x":168.0,"y":464,"width":0,"height":0,"rotation":0,"visible":true,"point":true,"properties":[{"name":"kind","type":"string","value":"tree.pine"},{"name":"fw","type":"int","value":16},{"name":"fh","type":"int","value":16},{"name":"solid","type":"bool","value":true}]},{"id":58,"name":"tree.small#2","type":"prop","x":168.0,"y":480,"width":0,"height":0,"rotation":0,"visible":true,"point":true,"properties":[{"name":"kind","type":"string","value":"tree.small"},{"name":"fw","type":"int","value":16},{"name":"fh","type":"int","value":16},{"name":"solid","type":"bool","value":true}]},{"id":59,"name":"tree.small#0","type":"prop","x":88.0,"y":480,"width":0,"height":0,"rotation":0,"visible":true,"point":true,"properties":[{"name":"kind","type":"string","value":"tree.small"},{"name":"fw","type":"int","value":16},{"name":"fh","type":"int","value":16},{"name":"solid","type":"bool","value":true}]},{"id":60,"name":"tree.small#0","type":"prop","x":152.0,"y":464,"width":0,"height":0,"rotation":0,"visible":true,"point":true,"properties":[{"name":"kind","type":"string","value":"tree.small"},{"name":"fw","type":"int","value":16},{"name":"fh","type":"int","value":16},{"name":"solid","type":"bool","value":true}]},{"id":61,"name":"tree.pine#1","type":"prop","x":664.0,"y":448,"width":0,"height":0,"rotation":0,"visible":true,"point":true,"properties":[{"name":"kind","type":"string","value":"tree.pine"},{"name":"fw","type":"int","value":16},{"name":"fh","type":"int","value":16},{"name":"solid","type":"bool","value":true}]},{"id":62,"name":"tree.small#2","type":"prop","x":664.0,"y":368,"width":0,"height":0,"rotation":0,"visible":true,"point":true,"properties":[{"name":"kind","type":"string","value":"tree.small"},{"name":"fw","type":"int","value":16},{"name":"fh","type":"int","value":16},{"name":"solid","type":"bool","value":true}]},{"id":63,"name":"tree.small#1","type":"prop","x":8.0,"y":128,"width":0,"height":0,"rotation":0,"visible":true,"point":true,"properties":[{"name":"kind","type":"string","value":"tree.small"},{"name":"fw","type":"int","value":16},{"name":"fh","type":"int","value":16},{"name":"solid","type":"bool","value":true}]},{"id":64,"name":"tree.grove#0","type":"prop","x":24.0,"y":368,"width":0,"height":0,"rotation":0,"visible":true,"point":true,"properties":[{"name":"kind","type":"string","value":"tree.grove"},{"name":"fw","type":"int","value":48},{"name":"fh","type":"int","value":16},{"name":"solid","type":"bool","value":true}]},{"id":65,"name":"tree.small#1","type":"prop","x":600.0,"y":464,"width":0,"height":0,"rotation":0,"visible":true,"point":true,"properties":[{"name":"kind","type":"string","value":"tree.small"},{"name":"fw","type":"int","value":16},{"name":"fh","type":"int","value":16},{"name":"solid","type":"bool","value":true}]},{"id":66,"name":"tree.small#1","type":"prop","x":392.0,"y":16,"width":0,"height":0,"rotation":0,"visible":true,"point":true,"properties":[{"name":"kind","type":"string","value":"tree.small"},{"name":"fw","type":"int","value":16},{"name":"fh","type":"int","value":16},{"name":"solid","type":"bool","value":true}]},{"id":67,"name":"tree.grove#1","type":"prop","x":600.0,"y":16,"width":0,"height":0,"rotation":0,"visible":true,"point":true,"properties":[{"name":"kind","type":"string","value":"tree.grove"},{"name":"fw","type":"int","value":48},{"name":"fh","type":"int","value":16},{"name":"solid","type":"bool","value":true}]},{"id":68,"name":"tree.small#1","type":"prop","x":504.0,"y":480,"width":0,"height":0,"rotation":0,"visible":true,"point":true,"properties":[{"name":"kind","type":"string","value":"tree.small"},{"name":"fw","type":"int","value":16},{"name":"fh","type":"int","value":16},{"name":"solid","type":"bool","value":true}]},{"id":69,"name":"tree.pine#2","type":"prop","x":40.0,"y":464,"width":0,"height":0,"rotation":0,"visible":true,"point":true,"properties":[{"name":"kind","type":"string","value":"tree.pine"},{"name":"fw","type":"int","value":16},{"name":"fh","type":"int","value":16},{"name":"solid","type":"bool","value":true}]},{"id":70,"name":"tree.grove#0","type":"prop","x":184.0,"y":32,"width":0,"height":0,"rotation":0,"visible":true,"point":true,"properties":[{"name":"kind","type":"string","value":"tree.grove"},{"name":"fw","type":"int","value":48},{"name":"fh","type":"int","value":16},{"name":"solid","type":"bool","value":true}]},{"id":71,"name":"tree.grove#1","type":"prop","x":536.0,"y":480,"width":0,"height":0,"rotation":0,"visible":true,"point":true,"properties":[{"name":"kind","type":"string","value":"tree.grove"},{"name":"fw","type":"int","value":48},{"name":"fh","type":"int","value":16},{"name":"solid","type":"bool","value":true}]},{"id":72,"name":"tree.small#1","type":"prop","x":648.0,"y":384,"width":0,"height":0,"rotation":0,"visible":true,"point":true,"properties":[{"name":"kind","type":"string","value":"tree.small"},{"name":"fw","type":"int","value":16},{"name":"fh","type":"int","value":16},{"name":"solid","type":"bool","value":true}]},{"id":73,"name":"tree.pine#2","type":"prop","x":200.0,"y":480,"width":0,"height":0,"rotation":0,"visible":true,"point":true,"properties":[{"name":"kind","type":"string","value":"tree.pine"},{"name":"fw","type":"int","value":16},{"name":"fh","type":"int","value":16},{"name":"solid","type":"bool","value":true}]},{"id":74,"name":"tree.pine#2","type":"prop","x":8.0,"y":352,"width":0,"height":0,"rotation":0,"visible":true,"point":true,"properties":[{"name":"kind","type":"string","value":"tree.pine"},{"name":"fw","type":"int","value":16},{"name":"fh","type":"int","value":16},{"name":"solid","type":"bool","value":true}]},{"id":75,"name":"tree.small#1","type":"prop","x":24.0,"y":128,"width":0,"height":0,"rotation":0,"visible":true,"point":true,"properties":[{"name":"kind","type":"string","value":"tree.small"},{"name":"fw","type":"int","value":16},{"name":"fh","type":"int","value":16},{"name":"solid","type":"bool","value":true}]},{"id":76,"name":"tree.small#1","type":"prop","x":536.0,"y":16,"width":0,"height":0,"rotation":0,"visible":true,"point":true,"properties":[{"name":"kind","type":"string","value":"tree.small"},{"name":"fw","type":"int","value":16},{"name":"fh","type":"int","value":16},{"name":"solid","type":"bool","value":true}]},{"id":77,"name":"tree.pine#2","type":"prop","x":8.0,"y":80,"width":0,"height":0,"rotation":0,"visible":true,"point":true,"properties":[{"name":"kind","type":"string","value":"tree.pine"},{"name":"fw","type":"int","value":16},{"name":"fh","type":"int","value":16},{"name":"solid","type":"bool","value":true}]},{"id":78,"name":"tree.small#1","type":"prop","x":344.0,"y":480,"width":0,"height":0,"rotation":0,"visible":true,"point":true,"properties":[{"name":"kind","type":"string","value":"tree.small"},{"name":"fw","type":"int","value":16},{"name":"fh","type":"int","value":16},{"name":"solid","type":"bool","value":true}]},{"id":79,"name":"tree.small#2","type":"prop","x":488.0,"y":32,"width":0,"height":0,"rotation":0,"visible":true,"point":true,"properties":[{"name":"kind","type":"string","value":"tree.small"},{"name":"fw","type":"int","value":16},{"name":"fh","type":"int","value":16},{"name":"solid","type":"bool","value":true}]},{"id":80,"name":"tree.small#1","type":"prop","x":120.0,"y":16,"width":0,"height":0,"rotation":0,"visible":true,"point":true,"properties":[{"name":"kind","type":"string","value":"tree.small"},{"name":"fw","type":"int","value":16},{"name":"fh","type":"int","value":16},{"name":"solid","type":"bool","value":true}]},{"id":81,"name":"tree.pine#2","type":"prop","x":120.0,"y":464,"width":0,"height":0,"rotation":0,"visible":true,"point":true,"properties":[{"name":"kind","type":"string","value":"tree.pine"},{"name":"fw","type":"int","value":16},{"name":"fh","type":"int","value":16},{"name":"solid","type":"bool","value":true}]},{"id":82,"name":"tree.grove#0","type":"prop","x":88.0,"y":16,"width":0,"height":0,"rotation":0,"visible":true,"point":true,"properties":[{"name":"kind","type":"string","value":"tree.grove"},{"name":"fw","type":"int","value":48},{"name":"fh","type":"int","value":16},{"name":"solid","type":"bool","value":true}]},{"id":83,"name":"tree.pine#1","type":"prop","x":664.0,"y":128,"width":0,"height":0,"rotation":0,"visible":true,"point":true,"properties":[{"name":"kind","type":"string","value":"tree.pine"},{"name":"fw","type":"int","value":16},{"name":"fh","type":"int","value":16},{"name":"solid","type":"bool","value":true}]},{"id":84,"name":"tree.small#0","type":"prop","x":488.0,"y":480,"width":0,"height":0,"rotation":0,"visible":true,"point":true,"properties":[{"name":"kind","type":"string","value":"tree.small"},{"name":"fw","type":"int","value":16},{"name":"fh","type":"int","value":16},{"name":"solid","type":"bool","value":true}]},{"id":85,"name":"tree.grove#1","type":"prop","x":648.0,"y":400,"width":0,"height":0,"rotation":0,"visible":true,"point":true,"properties":[{"name":"kind","type":"string","value":"tree.grove"},{"name":"fw","type":"int","value":48},{"name":"fh","type":"int","value":16},{"name":"solid","type":"bool","value":true}]},{"id":86,"name":"tree.small#0","type":"prop","x":216.0,"y":480,"width":0,"height":0,"rotation":0,"visible":true,"point":true,"properties":[{"name":"kind","type":"string","value":"tree.small"},{"name":"fw","type":"int","value":16},{"name":"fh","type":"int","value":16},{"name":"solid","type":"bool","value":true}]},{"id":87,"name":"tree.small#0","type":"prop","x":648.0,"y":144,"width":0,"height":0,"rotation":0,"visible":true,"point":true,"properties":[{"name":"kind","type":"string","value":"tree.small"},{"name":"fw","type":"int","value":16},{"name":"fh","type":"int","value":16},{"name":"solid","type":"bool","value":true}]},{"id":88,"name":"tree.small#2","type":"prop","x":664.0,"y":80,"width":0,"height":0,"rotation":0,"visible":true,"point":true,"properties":[{"name":"kind","type":"string","value":"tree.small"},{"name":"fw","type":"int","value":16},{"name":"fh","type":"int","value":16},{"name":"solid","type":"bool","value":true}]},{"id":89,"name":"tree.pine#2","type":"prop","x":408.0,"y":32,"width":0,"height":0,"rotation":0,"visible":true,"point":true,"properties":[{"name":"kind","type":"string","value":"tree.pine"},{"name":"fw","type":"int","value":16},{"name":"fh","type":"int","value":16},{"name":"solid","type":"bool","value":true}]},{"id":90,"name":"tree.grove#0","type":"prop","x":648.0,"y":480,"width":0,"height":0,"rotation":0,"visible":true,"point":true,"properties":[{"name":"kind","type":"string","value":"tree.grove"},{"name":"fw","type":"int","value":48},{"name":"fh","type":"int","value":16},{"name":"solid","type":"bool","value":true}]},{"id":91,"name":"tree.pine#0","type":"prop","x":136.0,"y":480,"width":0,"height":0,"rotation":0,"visible":true,"point":true,"properties":[{"name":"kind","type":"string","value":"tree.pine"},{"name":"fw","type":"int","value":16},{"name":"fh","type":"int","value":16},{"name":"solid","type":"bool","value":true}]},{"id":92,"name":"tree.pine#0","type":"prop","x":504.0,"y":32,"width":0,"height":0,"rotation":0,"visible":true,"point":true,"properties":[{"name":"kind","type":"string","value":"tree.pine"},{"name":"fw","type":"int","value":16},{"name":"fh","type":"int","value":16},{"name":"solid","type":"bool","value":true}]},{"id":93,"name":"tree.pine#0","type":"prop","x":456.0,"y":32,"width":0,"height":0,"rotation":0,"visible":true,"point":true,"properties":[{"name":"kind","type":"string","value":"tree.pine"},{"name":"fw","type":"int","value":16},{"name":"fh","type":"int","value":16},{"name":"solid","type":"bool","value":true}]},{"id":94,"name":"tree.pine#1","type":"prop","x":72.0,"y":464,"width":0,"height":0,"rotation":0,"visible":true,"point":true,"properties":[{"name":"kind","type":"string","value":"tree.pine"},{"name":"fw","type":"int","value":16},{"name":"fh","type":"int","value":16},{"name":"solid","type":"bool","value":true}]},{"id":95,"name":"tree.small#0","type":"prop","x":664.0,"y":384,"width":0,"height":0,"rotation":0,"visible":true,"point":true,"properties":[{"name":"kind","type":"string","value":"tree.small"},{"name":"fw","type":"int","value":16},{"name":"fh","type":"int","value":16},{"name":"solid","type":"bool","value":true}]},{"id":96,"name":"tree.grove#0","type":"prop","x":584.0,"y":32,"width":0,"height":0,"rotation":0,"visible":true,"point":true,"properties":[{"name":"kind","type":"string","value":"tree.grove"},{"name":"fw","type":"int","value":48},{"name":"fh","type":"int","value":16},{"name":"solid","type":"bool","value":true}]},{"id":97,"name":"tree.pine#0","type":"prop","x":56.0,"y":16,"width":0,"height":0,"rotation":0,"visible":true,"point":true,"properties":[{"name":"kind","type":"string","value":"tree.pine"},{"name":"fw","type":"int","value":16},{"name":"fh","type":"int","value":16},{"name":"solid","type":"bool","value":true}]},{"id":98,"name":"tree.pine#1","type":"prop","x":648.0,"y":96,"width":0,"height":0,"rotation":0,"visible":true,"point":true,"properties":[{"name":"kind","type":"string","value":"tree.pine"},{"name":"fw","type":"int","value":16},{"name":"fh","type":"int","value":16},{"name":"solid","type":"bool","value":true}]},{"id":99,"name":"tree.pine#2","type":"prop","x":648.0,"y":448,"width":0,"height":0,"rotation":0,"visible":true,"point":true,"properties":[{"name":"kind","type":"string","value":"tree.pine"},{"name":"fw","type":"int","value":16},{"name":"fh","type":"int","value":16},{"name":"solid","type":"bool","value":true}]},{"id":100,"name":"tree.small#2","type":"prop","x":472.0,"y":480,"width":0,"height":0,"rotation":0,"visible":true,"point":true,"properties":[{"name":"kind","type":"string","value":"tree.small"},{"name":"fw","type":"int","value":16},{"name":"fh","type":"int","value":16},{"name":"solid","type":"bool","value":true}]},{"id":101,"name":"tree.grove#0","type":"prop","x":40.0,"y":176,"width":0,"height":0,"rotation":0,"visible":true,"point":true,"properties":[{"name":"kind","type":"string","value":"tree.grove"},{"name":"fw","type":"int","value":48},{"name":"fh","type":"int","value":16},{"name":"solid","type":"bool","value":true}]},{"id":102,"name":"tree.grove#1","type":"prop","x":24.0,"y":432,"width":0,"height":0,"rotation":0,"visible":true,"point":true,"properties":[{"name":"kind","type":"string","value":"tree.grove"},{"name":"fw","type":"int","value":48},{"name":"fh","type":"int","value":16},{"name":"solid","type":"bool","value":true}]},{"id":103,"name":"tree.small#1","type":"prop","x":24.0,"y":32,"width":0,"height":0,"rotation":0,"visible":true,"point":true,"properties":[{"name":"kind","type":"string","value":"tree.small"},{"name":"fw","type":"int","value":16},{"name":"fh","type":"int","value":16},{"name":"solid","type":"bool","value":true}]},{"id":104,"name":"tree.pine#0","type":"prop","x":24.0,"y":480,"width":0,"height":0,"rotation":0,"visible":true,"point":true,"properties":[{"name":"kind","type":"string","value":"tree.pine"},{"name":"fw","type":"int","value":16},{"name":"fh","type":"int","value":16},{"name":"solid","type":"bool","value":true}]},{"id":105,"name":"tree.grove#1","type":"prop","x":40.0,"y":64,"width":0,"height":0,"rotation":0,"visible":true,"point":true,"properties":[{"name":"kind","type":"string","value":"tree.grove"},{"name":"fw","type":"int","value":48},{"name":"fh","type":"int","value":16},{"name":"solid","type":"bool","value":true}]},{"id":106,"name":"tree.small#1","type":"prop","x":536.0,"y":32,"width":0,"height":0,"rotation":0,"visible":true,"point":true,"properties":[{"name":"kind","type":"string","value":"tree.small"},{"name":"fw","type":"int","value":16},{"name":"fh","type":"int","value":16},{"name":"solid","type":"bool","value":true}]},{"id":107,"name":"tree.grove#0","type":"prop","x":40.0,"y":304,"width":0,"height":0,"rotation":0,"visible":true,"point":true,"properties":[{"name":"kind","type":"string","value":"tree.grove"},{"name":"fw","type":"int","value":48},{"name":"fh","type":"int","value":16},{"name":"solid","type":"bool","value":true}]},{"id":108,"name":"tree.pine#0","type":"prop","x":344.0,"y":16,"width":0,"height":0,"rotation":0,"visible":true,"point":true,"properties":[{"name":"kind","type":"string","value":"tree.pine"},{"name":"fw","type":"int","value":16},{"name":"fh","type":"int","value":16},{"name":"solid","type":"bool","value":true}]},{"id":109,"name":"tree.pine#2","type":"prop","x":568.0,"y":16,"width":0,"height":0,"rotation":0,"visible":true,"point":true,"properties":[{"name":"kind","type":"string","value":"tree.pine"},{"name":"fw","type":"int","value":16},{"name":"fh","type":"int","value":16},{"name":"solid","type":"bool","value":true}]},{"id":110,"name":"tree.pine#2","type":"prop","x":664.0,"y":464,"width":0,"height":0,"rotation":0,"visible":true,"point":true,"properties":[{"name":"kind","type":"string","value":"tree.pine"},{"name":"fw","type":"int","value":16},{"name":"fh","type":"int","value":16},{"name":"solid","type":"bool","value":true}]},{"id":111,"name":"tree.pine#0","type":"prop","x":248.0,"y":16,"width":0,"height":0,"rotation":0,"visible":true,"point":true,"properties":[{"name":"kind","type":"string","value":"tree.pine"},{"name":"fw","type":"int","value":16},{"name":"fh","type":"int","value":16},{"name":"solid","type":"bool","value":true}]},{"id":112,"name":"tree.pine#1","type":"prop","x":632.0,"y":464,"width":0,"height":0,"rotation":0,"visible":true,"point":true,"properties":[{"name":"kind","type":"string","value":"tree.pine"},{"name":"fw","type":"int","value":16},{"name":"fh","type":"int","value":16},{"name":"solid","type":"bool","value":true}]},{"id":113,"name":"tree.small#0","type":"prop","x":8.0,"y":160,"width":0,"height":0,"rotation":0,"visible":true,"point":true,"properties":[{"name":"kind","type":"string","value":"tree.small"},{"name":"fw","type":"int","value":16},{"name":"fh","type":"int","value":16},{"name":"solid","type":"bool","value":true}]},{"id":114,"name":"tree.small#2","type":"prop","x":24.0,"y":352,"width":0,"height":0,"rotation":0,"visible":true,"point":true,"properties":[{"name":"kind","type":"string","value":"tree.small"},{"name":"fw","type":"int","value":16},{"name":"fh","type":"int","value":16},{"name":"solid","type":"bool","value":true}]},{"id":115,"name":"tree.grove#0","type":"prop","x":40.0,"y":448,"width":0,"height":0,"rotation":0,"visible":true,"point":true,"properties":[{"name":"kind","type":"string","value":"tree.grove"},{"name":"fw","type":"int","value":48},{"name":"fh","type":"int","value":16},{"name":"solid","type":"bool","value":true}]},{"id":116,"name":"tree.small#1","type":"prop","x":488.0,"y":464,"width":0,"height":0,"rotation":0,"visible":true,"point":true,"properties":[{"name":"kind","type":"string","value":"tree.small"},{"name":"fw","type":"int","value":16},{"name":"fh","type":"int","value":16},{"name":"solid","type":"bool","value":true}]},{"id":117,"name":"tree.pine#1","type":"prop","x":552.0,"y":32,"width":0,"height":0,"rotation":0,"visible":true,"point":true,"properties":[{"name":"kind","type":"string","value":"tree.pine"},{"name":"fw","type":"int","value":16},{"name":"fh","type":"int","value":16},{"name":"solid","type":"bool","value":true}]},{"id":118,"name":"tree.pine#0","type":"prop","x":136.0,"y":32,"width":0,"height":0,"rotation":0,"visible":true,"point":true,"properties":[{"name":"kind","type":"string","value":"tree.pine"},{"name":"fw","type":"int","value":16},{"name":"fh","type":"int","value":16},{"name":"solid","type":"bool","value":true}]},{"id":119,"name":"tree.small#1","type":"prop","x":296.0,"y":32,"width":0,"height":0,"rotation":0,"visible":true,"point":true,"properties":[{"name":"kind","type":"string","value":"tree.small"},{"name":"fw","type":"int","value":16},{"name":"fh","type":"int","value":16},{"name":"solid","type":"bool","value":true}]},{"id":120,"name":"tree.pine#0","type":"prop","x":376.0,"y":32,"width":0,"height":0,"rotation":0,"visible":true,"point":true,"properties":[{"name":"kind","type":"string","value":"tree.pine"},{"name":"fw","type":"int","value":16},{"name":"fh","type":"int","value":16},{"name":"solid","type":"bool","value":true}]},{"id":121,"name":"tree.small#0","type":"prop","x":8.0,"y":32,"width":0,"height":0,"rotation":0,"visible":true,"point":true,"properties":[{"name":"kind","type":"string","value":"tree.small"},{"name":"fw","type":"int","value":16},{"name":"fh","type":"int","value":16},{"name":"solid","type":"bool","value":true}]},{"id":122,"name":"tree.grove#1","type":"prop","x":40.0,"y":336,"width":0,"height":0,"rotation":0,"visible":true,"point":true,"properties":[{"name":"kind","type":"string","value":"tree.grove"},{"name":"fw","type":"int","value":48},{"name":"fh","type":"int","value":16},{"name":"solid","type":"bool","value":true}]},{"id":123,"name":"tree.small#0","type":"prop","x":136.0,"y":16,"width":0,"height":0,"rotation":0,"visible":true,"point":true,"properties":[{"name":"kind","type":"string","value":"tree.small"},{"name":"fw","type":"int","value":16},{"name":"fh","type":"int","value":16},{"name":"solid","type":"bool","value":true}]},{"id":124,"name":"tree.small#0","type":"prop","x":312.0,"y":32,"width":0,"height":0,"rotation":0,"visible":true,"point":true,"properties":[{"name":"kind","type":"string","value":"tree.small"},{"name":"fw","type":"int","value":16},{"name":"fh","type":"int","value":16},{"name":"solid","type":"bool","value":true}]},{"id":125,"name":"tree.small#0","type":"prop","x":8.0,"y":320,"width":0,"height":0,"rotation":0,"visible":true,"point":true,"properties":[{"name":"kind","type":"string","value":"tree.small"},{"name":"fw","type":"int","value":16},{"name":"fh","type":"int","value":16},{"name":"solid","type":"bool","value":true}]},{"id":126,"name":"tree.small#1","type":"prop","x":8.0,"y":64,"width":0,"height":0,"rotation":0,"visible":true,"point":true,"properties":[{"name":"kind","type":"string","value":"tree.small"},{"name":"fw","type":"int","value":16},{"name":"fh","type":"int","value":16},{"name":"solid","type":"bool","value":true}]},{"id":127,"name":"tree.small#2","type":"prop","x":648.0,"y":80,"width":0,"height":0,"rotation":0,"visible":true,"point":true,"properties":[{"name":"kind","type":"string","value":"tree.small"},{"name":"fw","type":"int","value":16},{"name":"fh","type":"int","value":16},{"name":"solid","type":"bool","value":true}]},{"id":128,"name":"tree.small#1","type":"prop","x":8.0,"y":464,"width":0,"height":0,"rotation":0,"visible":true,"point":true,"properties":[{"name":"kind","type":"string","value":"tree.small"},{"name":"fw","type":"int","value":16},{"name":"fh","type":"int","value":16},{"name":"solid","type":"bool","value":true}]},{"id":129,"name":"tree.small#1","type":"prop","x":280.0,"y":32,"width":0,"height":0,"rotation":0,"visible":true,"point":true,"properties":[{"name":"kind","type":"string","value":"tree.small"},{"name":"fw","type":"int","value":16},{"name":"fh","type":"int","value":16},{"name":"solid","type":"bool","value":true}]},{"id":130,"name":"tree.pine#0","type":"prop","x":584.0,"y":480,"width":0,"height":0,"rotation":0,"visible":true,"point":true,"properties":[{"name":"kind","type":"string","value":"tree.pine"},{"name":"fw","type":"int","value":16},{"name":"fh","type":"int","value":16},{"name":"solid","type":"bool","value":true}]},{"id":131,"name":"tree.pine#0","type":"prop","x":360.0,"y":32,"width":0,"height":0,"rotation":0,"visible":true,"point":true,"properties":[{"name":"kind","type":"string","value":"tree.pine"},{"name":"fw","type":"int","value":16},{"name":"fh","type":"int","value":16},{"name":"solid","type":"bool","value":true}]},{"id":132,"name":"tree.pine#2","type":"prop","x":8.0,"y":112,"width":0,"height":0,"rotation":0,"visible":true,"point":true,"properties":[{"name":"kind","type":"string","value":"tree.pine"},{"name":"fw","type":"int","value":16},{"name":"fh","type":"int","value":16},{"name":"solid","type":"bool","value":true}]},{"id":133,"name":"tree.small#2","type":"prop","x":424.0,"y":16,"width":0,"height":0,"rotation":0,"visible":true,"point":true,"properties":[{"name":"kind","type":"string","value":"tree.small"},{"name":"fw","type":"int","value":16},{"name":"fh","type":"int","value":16},{"name":"solid","type":"bool","value":true}]},{"id":134,"name":"tree.small#1","type":"prop","x":8.0,"y":416,"width":0,"height":0,"rotation":0,"visible":true,"point":true,"properties":[{"name":"kind","type":"string","value":"tree.small"},{"name":"fw","type":"int","value":16},{"name":"fh","type":"int","value":16},{"name":"solid","type":"bool","value":true}]},{"id":135,"name":"tree.pine#2","type":"prop","x":664.0,"y":144,"width":0,"height":0,"rotation":0,"visible":true,"point":true,"properties":[{"name":"kind","type":"string","value":"tree.pine"},{"name":"fw","type":"int","value":16},{"name":"fh","type":"int","value":16},{"name":"solid","type":"bool","value":true}]},{"id":136,"name":"tree.grove#1","type":"prop","x":40.0,"y":160,"width":0,"height":0,"rotation":0,"visible":true,"point":true,"properties":[{"name":"kind","type":"string","value":"tree.grove"},{"name":"fw","type":"int","value":48},{"name":"fh","type":"int","value":16},{"name":"solid","type":"bool","value":true}]},{"id":137,"name":"tree.pine#2","type":"prop","x":152.0,"y":480,"width":0,"height":0,"rotation":0,"visible":true,"point":true,"properties":[{"name":"kind","type":"string","value":"tree.pine"},{"name":"fw","type":"int","value":16},{"name":"fh","type":"int","value":16},{"name":"solid","type":"bool","value":true}]},{"id":138,"name":"tree.small#1","type":"prop","x":8.0,"y":400,"width":0,"height":0,"rotation":0,"visible":true,"point":true,"properties":[{"name":"kind","type":"string","value":"tree.small"},{"name":"fw","type":"int","value":16},{"name":"fh","type":"int","value":16},{"name":"solid","type":"bool","value":true}]},{"id":139,"name":"tree.grove#1","type":"prop","x":40.0,"y":144,"width":0,"height":0,"rotation":0,"visible":true,"point":true,"properties":[{"name":"kind","type":"string","value":"tree.grove"},{"name":"fw","type":"int","value":48},{"name":"fh","type":"int","value":16},{"name":"solid","type":"bool","value":true}]},{"id":140,"name":"tree.grove#1","type":"prop","x":200.0,"y":16,"width":0,"height":0,"rotation":0,"visible":true,"point":true,"properties":[{"name":"kind","type":"string","value":"tree.grove"},{"name":"fw","type":"int","value":48},{"name":"fh","type":"int","value":16},{"name":"solid","type":"bool","value":true}]},{"id":141,"name":"tree.pine#0","type":"prop","x":24.0,"y":16,"width":0,"height":0,"rotation":0,"visible":true,"point":true,"properties":[{"name":"kind","type":"string","value":"tree.pine"},{"name":"fw","type":"int","value":16},{"name":"fh","type":"int","value":16},{"name":"solid","type":"bool","value":true}]},{"id":142,"name":"tree.pine#2","type":"prop","x":24.0,"y":464,"width":0,"height":0,"rotation":0,"visible":true,"point":true,"properties":[{"name":"kind","type":"string","value":"tree.pine"},{"name":"fw","type":"int","value":16},{"name":"fh","type":"int","value":16},{"name":"solid","type":"bool","value":true}]},{"id":143,"name":"tree.pine#0","type":"prop","x":24.0,"y":384,"width":0,"height":0,"rotation":0,"visible":true,"point":true,"properties":[{"name":"kind","type":"string","value":"tree.pine"},{"name":"fw","type":"int","value":16},{"name":"fh","type":"int","value":16},{"name":"solid","type":"bool","value":true}]},{"id":144,"name":"tree.pine#1","type":"prop","x":264.0,"y":32,"width":0,"height":0,"rotation":0,"visible":true,"point":true,"properties":[{"name":"kind","type":"string","value":"tree.pine"},{"name":"fw","type":"int","value":16},{"name":"fh","type":"int","value":16},{"name":"solid","type":"bool","value":true}]},{"id":145,"name":"tree.pine#0","type":"prop","x":8.0,"y":48,"width":0,"height":0,"rotation":0,"visible":true,"point":true,"properties":[{"name":"kind","type":"string","value":"tree.pine"},{"name":"fw","type":"int","value":16},{"name":"fh","type":"int","value":16},{"name":"solid","type":"bool","value":true}]},{"id":146,"name":"tree.pine#0","type":"prop","x":376.0,"y":16,"width":0,"height":0,"rotation":0,"visible":true,"point":true,"properties":[{"name":"kind","type":"string","value":"tree.pine"},{"name":"fw","type":"int","value":16},{"name":"fh","type":"int","value":16},{"name":"solid","type":"bool","value":true}]},{"id":147,"name":"tree.pine#1","type":"prop","x":456.0,"y":480,"width":0,"height":0,"rotation":0,"visible":true,"point":true,"properties":[{"name":"kind","type":"string","value":"tree.pine"},{"name":"fw","type":"int","value":16},{"name":"fh","type":"int","value":16},{"name":"solid","type":"bool","value":true}]},{"id":148,"name":"tree.small#0","type":"prop","x":648.0,"y":128,"width":0,"height":0,"rotation":0,"visible":true,"point":true,"properties":[{"name":"kind","type":"string","value":"tree.small"},{"name":"fw","type":"int","value":16},{"name":"fh","type":"int","value":16},{"name":"solid","type":"bool","value":true}]},{"id":149,"name":"tree.grove#0","type":"prop","x":40.0,"y":112,"width":0,"height":0,"rotation":0,"visible":true,"point":true,"properties":[{"name":"kind","type":"string","value":"tree.grove"},{"name":"fw","type":"int","value":48},{"name":"fh","type":"int","value":16},{"name":"solid","type":"bool","value":true}]},{"id":150,"name":"tree.pine#2","type":"prop","x":472.0,"y":464,"width":0,"height":0,"rotation":0,"visible":true,"point":true,"properties":[{"name":"kind","type":"string","value":"tree.pine"},{"name":"fw","type":"int","value":16},{"name":"fh","type":"int","value":16},{"name":"solid","type":"bool","value":true}]},{"id":151,"name":"tree.grove#1","type":"prop","x":520.0,"y":464,"width":0,"height":0,"rotation":0,"visible":true,"point":true,"properties":[{"name":"kind","type":"string","value":"tree.grove"},{"name":"fw","type":"int","value":48},{"name":"fh","type":"int","value":16},{"name":"solid","type":"bool","value":true}]},{"id":152,"name":"tree.pine#0","type":"prop","x":168.0,"y":16,"width":0,"height":0,"rotation":0,"visible":true,"point":true,"properties":[{"name":"kind","type":"string","value":"tree.pine"},{"name":"fw","type":"int","value":16},{"name":"fh","type":"int","value":16},{"name":"solid","type":"bool","value":true}]},{"id":153,"name":"tree.small#2","type":"prop","x":152.0,"y":32,"width":0,"height":0,"rotation":0,"visible":true,"point":true,"properties":[{"name":"kind","type":"string","value":"tree.small"},{"name":"fw","type":"int","value":16},{"name":"fh","type":"int","value":16},{"name":"solid","type":"bool","value":true}]},{"id":154,"name":"tree.pine#1","type":"prop","x":24.0,"y":80,"width":0,"height":0,"rotation":0,"visible":true,"point":true,"properties":[{"name":"kind","type":"string","value":"tree.pine"},{"name":"fw","type":"int","value":16},{"name":"fh","type":"int","value":16},{"name":"solid","type":"bool","value":true}]},{"id":155,"name":"tree.small#1","type":"prop","x":56.0,"y":480,"width":0,"height":0,"rotation":0,"visible":true,"point":true,"properties":[{"name":"kind","type":"string","value":"tree.small"},{"name":"fw","type":"int","value":16},{"name":"fh","type":"int","value":16},{"name":"solid","type":"bool","value":true}]},{"id":156,"name":"tree.small#0","type":"prop","x":8.0,"y":176,"width":0,"height":0,"rotation":0,"visible":true,"point":true,"properties":[{"name":"kind","type":"string","value":"tree.small"},{"name":"fw","type":"int","value":16},{"name":"fh","type":"int","value":16},{"name":"solid","type":"bool","value":true}]},{"id":157,"name":"tree.small#0","type":"prop","x":648.0,"y":464,"width":0,"height":0,"rotation":0,"visible":true,"point":true,"properties":[{"name":"kind","type":"string","value":"tree.small"},{"name":"fw","type":"int","value":16},{"name":"fh","type":"int","value":16},{"name":"solid","type":"bool","value":true}]},{"id":158,"name":"tree.pine#1","type":"prop","x":24.0,"y":416,"width":0,"height":0,"rotation":0,"visible":true,"point":true,"properties":[{"name":"kind","type":"string","value":"tree.pine"},{"name":"fw","type":"int","value":16},{"name":"fh","type":"int","value":16},{"name":"solid","type":"bool","value":true}]},{"id":159,"name":"tree.grove#1","type":"prop","x":648.0,"y":416,"width":0,"height":0,"rotation":0,"visible":true,"point":true,"properties":[{"name":"kind","type":"string","value":"tree.grove"},{"name":"fw","type":"int","value":48},{"name":"fh","type":"int","value":16},{"name":"solid","type":"bool","value":true}]},{"id":160,"name":"tree.small#2","type":"prop","x":440.0,"y":32,"width":0,"height":0,"rotation":0,"visible":true,"point":true,"properties":[{"name":"kind","type":"string","value":"tree.small"},{"name":"fw","type":"int","value":16},{"name":"fh","type":"int","value":16},{"name":"solid","type":"bool","value":true}]},{"id":161,"name":"tree.pine#1","type":"prop","x":408.0,"y":16,"width":0,"height":0,"rotation":0,"visible":true,"point":true,"properties":[{"name":"kind","type":"string","value":"tree.pine"},{"name":"fw","type":"int","value":16},{"name":"fh","type":"int","value":16},{"name":"solid","type":"bool","value":true}]},{"id":162,"name":"tree.pine#2","type":"prop","x":568.0,"y":480,"width":0,"height":0,"rotation":0,"visible":true,"point":true,"properties":[{"name":"kind","type":"string","value":"tree.pine"},{"name":"fw","type":"int","value":16},{"name":"fh","type":"int","value":16},{"name":"solid","type":"bool","value":true}]},{"id":163,"name":"tree.small#2","type":"prop","x":8.0,"y":384,"width":0,"height":0,"rotation":0,"visible":true,"point":true,"properties":[{"name":"kind","type":"string","value":"tree.small"},{"name":"fw","type":"int","value":16},{"name":"fh","type":"int","value":16},{"name":"solid","type":"bool","value":true}]},{"id":164,"name":"tree.small#0","type":"prop","x":664.0,"y":64,"width":0,"height":0,"rotation":0,"visible":true,"point":true,"properties":[{"name":"kind","type":"string","value":"tree.small"},{"name":"fw","type":"int","value":16},{"name":"fh","type":"int","value":16},{"name":"solid","type":"bool","value":true}]},{"id":165,"name":"tree.pine#2","type":"prop","x":40.0,"y":16,"width":0,"height":0,"rotation":0,"visible":true,"point":true,"properties":[{"name":"kind","type":"string","value":"tree.pine"},{"name":"fw","type":"int","value":16},{"name":"fh","type":"int","value":16},{"name":"solid","type":"bool","value":true}]},{"id":166,"name":"tree.pine#1","type":"prop","x":40.0,"y":480,"width":0,"height":0,"rotation":0,"visible":true,"point":true,"properties":[{"name":"kind","type":"string","value":"tree.pine"},{"name":"fw","type":"int","value":16},{"name":"fh","type":"int","value":16},{"name":"solid","type":"bool","value":true}]},{"id":167,"name":"tree.small#0","type":"prop","x":328.0,"y":480,"width":0,"height":0,"rotation":0,"visible":true,"point":true,"properties":[{"name":"kind","type":"string","value":"tree.small"},{"name":"fw","type":"int","value":16},{"name":"fh","type":"int","value":16},{"name":"solid","type":"bool","value":true}]},{"id":168,"name":"tree.pine#2","type":"prop","x":600.0,"y":480,"width":0,"height":0,"rotation":0,"visible":true,"point":true,"properties":[{"name":"kind","type":"string","value":"tree.pine"},{"name":"fw","type":"int","value":16},{"name":"fh","type":"int","value":16},{"name":"solid","type":"bool","value":true}]},{"id":169,"name":"tree.small#0","type":"prop","x":152.0,"y":16,"width":0,"height":0,"rotation":0,"visible":true,"point":true,"properties":[{"name":"kind","type":"string","value":"tree.small"},{"name":"fw","type":"int","value":16},{"name":"fh","type":"int","value":16},{"name":"solid","type":"bool","value":true}]},{"id":170,"name":"tree.pine#2","type":"prop","x":488.0,"y":16,"width":0,"height":0,"rotation":0,"visible":true,"point":true,"properties":[{"name":"kind","type":"string","value":"tree.pine"},{"name":"fw","type":"int","value":16},{"name":"fh","type":"int","value":16},{"name":"solid","type":"bool","value":true}]},{"id":171,"name":"tree.pine#2","type":"prop","x":648.0,"y":64,"width":0,"height":0,"rotation":0,"visible":true,"point":true,"properties":[{"name":"kind","type":"string","value":"tree.pine"},{"name":"fw","type":"int","value":16},{"name":"fh","type":"int","value":16},{"name":"solid","type":"bool","value":true}]},{"id":172,"name":"tree.pine#2","type":"prop","x":456.0,"y":464,"width":0,"height":0,"rotation":0,"visible":true,"point":true,"properties":[{"name":"kind","type":"string","value":"tree.pine"},{"name":"fw","type":"int","value":16},{"name":"fh","type":"int","value":16},{"name":"solid","type":"bool","value":true}]},{"id":173,"name":"tree.small#0","type":"prop","x":616.0,"y":464,"width":0,"height":0,"rotation":0,"visible":true,"point":true,"properties":[{"name":"kind","type":"string","value":"tree.small"},{"name":"fw","type":"int","value":16},{"name":"fh","type":"int","value":16},{"name":"solid","type":"bool","value":true}]},{"id":174,"name":"tree.pine#1","type":"prop","x":8.0,"y":480,"width":0,"height":0,"rotation":0,"visible":true,"point":true,"properties":[{"name":"kind","type":"string","value":"tree.pine"},{"name":"fw","type":"int","value":16},{"name":"fh","type":"int","value":16},{"name":"solid","type":"bool","value":true}]},{"id":175,"name":"tree.pine#2","type":"prop","x":232.0,"y":32,"width":0,"height":0,"rotation":0,"visible":true,"point":true,"properties":[{"name":"kind","type":"string","value":"tree.pine"},{"name":"fw","type":"int","value":16},{"name":"fh","type":"int","value":16},{"name":"solid","type":"bool","value":true}]},{"id":176,"name":"tree.small#0","type":"prop","x":24.0,"y":320,"width":0,"height":0,"rotation":0,"visible":true,"point":true,"properties":[{"name":"kind","type":"string","value":"tree.small"},{"name":"fw","type":"int","value":16},{"name":"fh","type":"int","value":16},{"name":"solid","type":"bool","value":true}]},{"id":177,"name":"plant.bush#1","type":"prop","x":232.0,"y":96,"width":0,"height":0,"rotation":0,"visible":true,"point":true,"properties":[{"name":"kind","type":"string","value":"plant.bush"},{"name":"fw","type":"int","value":16},{"name":"fh","type":"int","value":16},{"name":"solid","type":"bool","value":false}]},{"id":178,"name":"plant.bush#1","type":"prop","x":552.0,"y":160,"width":0,"height":0,"rotation":0,"visible":true,"point":true,"properties":[{"name":"kind","type":"string","value":"plant.bush"},{"name":"fw","type":"int","value":16},{"name":"fh","type":"int","value":16},{"name":"solid","type":"bool","value":false}]},{"id":179,"name":"plant.bush#0","type":"prop","x":120.0,"y":112,"width":0,"height":0,"rotation":0,"visible":true,"point":true,"properties":[{"name":"kind","type":"string","value":"plant.bush"},{"name":"fw","type":"int","value":16},{"name":"fh","type":"int","value":16},{"name":"solid","type":"bool","value":false}]},{"id":180,"name":"plant.bush#1","type":"prop","x":312.0,"y":304,"width":0,"height":0,"rotation":0,"visible":true,"point":true,"properties":[{"name":"kind","type":"string","value":"plant.bush"},{"name":"fw","type":"int","value":16},{"name":"fh","type":"int","value":16},{"name":"solid","type":"bool","value":false}]},{"id":181,"name":"plant.bush#0","type":"prop","x":312.0,"y":112,"width":0,"height":0,"rotation":0,"visible":true,"point":true,"properties":[{"name":"kind","type":"string","value":"plant.bush"},{"name":"fw","type":"int","value":16},{"name":"fh","type":"int","value":16},{"name":"solid","type":"bool","value":false}]},{"id":182,"name":"plant.bush#0","type":"prop","x":584.0,"y":336,"width":0,"height":0,"rotation":0,"visible":true,"point":true,"properties":[{"name":"kind","type":"string","value":"plant.bush"},{"name":"fw","type":"int","value":16},{"name":"fh","type":"int","value":16},{"name":"solid","type":"bool","value":false}]},{"id":183,"name":"plant.bush#1","type":"prop","x":248.0,"y":432,"width":0,"height":0,"rotation":0,"visible":true,"point":true,"properties":[{"name":"kind","type":"string","value":"plant.bush"},{"name":"fw","type":"int","value":16},{"name":"fh","type":"int","value":16},{"name":"solid","type":"bool","value":false}]},{"id":184,"name":"plant.bush#1","type":"prop","x":536.0,"y":128,"width":0,"height":0,"rotation":0,"visible":true,"point":true,"properties":[{"name":"kind","type":"string","value":"plant.bush"},{"name":"fw","type":"int","value":16},{"name":"fh","type":"int","value":16},{"name":"solid","type":"bool","value":false}]},{"id":185,"name":"plant.bush#0","type":"prop","x":616.0,"y":176,"width":0,"height":0,"rotation":0,"visible":true,"point":true,"properties":[{"name":"kind","type":"string","value":"plant.bush"},{"name":"fw","type":"int","value":16},{"name":"fh","type":"int","value":16},{"name":"solid","type":"bool","value":false}]},{"id":186,"name":"plant.bush#1","type":"prop","x":472.0,"y":400,"width":0,"height":0,"rotation":0,"visible":true,"point":true,"properties":[{"name":"kind","type":"string","value":"plant.bush"},{"name":"fw","type":"int","value":16},{"name":"fh","type":"int","value":16},{"name":"solid","type":"bool","value":false}]},{"id":187,"name":"plant.bush#1","type":"prop","x":520.0,"y":240,"width":0,"height":0,"rotation":0,"visible":true,"point":true,"properties":[{"name":"kind","type":"string","value":"plant.bush"},{"name":"fw","type":"int","value":16},{"name":"fh","type":"int","value":16},{"name":"solid","type":"bool","value":false}]},{"id":188,"name":"plant.bush#1","type":"prop","x":520.0,"y":272,"width":0,"height":0,"rotation":0,"visible":true,"point":true,"properties":[{"name":"kind","type":"string","value":"plant.bush"},{"name":"fw","type":"int","value":16},{"name":"fh","type":"int","value":16},{"name":"solid","type":"bool","value":false}]},{"id":189,"name":"plant.flower#0","type":"prop","x":200.0,"y":304,"width":0,"height":0,"rotation":0,"visible":true,"point":true,"properties":[{"name":"kind","type":"string","value":"plant.flower"},{"name":"fw","type":"int","value":16},{"name":"fh","type":"int","value":16},{"name":"solid","type":"bool","value":false}]},{"id":190,"name":"plant.flower#0","type":"prop","x":584.0,"y":288,"width":0,"height":0,"rotation":0,"visible":true,"point":true,"properties":[{"name":"kind","type":"string","value":"plant.flower"},{"name":"fw","type":"int","value":16},{"name":"fh","type":"int","value":16},{"name":"solid","type":"bool","value":false}]},{"id":191,"name":"plant.flower#0","type":"prop","x":616.0,"y":160,"width":0,"height":0,"rotation":0,"visible":true,"point":true,"properties":[{"name":"kind","type":"string","value":"plant.flower"},{"name":"fw","type":"int","value":16},{"name":"fh","type":"int","value":16},{"name":"solid","type":"bool","value":false}]},{"id":192,"name":"plant.flower#0","type":"prop","x":344.0,"y":448,"width":0,"height":0,"rotation":0,"visible":true,"point":true,"properties":[{"name":"kind","type":"string","value":"plant.flower"},{"name":"fw","type":"int","value":16},{"name":"fh","type":"int","value":16},{"name":"solid","type":"bool","value":false}]},{"id":193,"name":"plant.flower#0","type":"prop","x":568.0,"y":416,"width":0,"height":0,"rotation":0,"visible":true,"point":true,"properties":[{"name":"kind","type":"string","value":"plant.flower"},{"name":"fw","type":"int","value":16},{"name":"fh","type":"int","value":16},{"name":"solid","type":"bool","value":false}]},{"id":194,"name":"plant.flower#0","type":"prop","x":248.0,"y":416,"width":0,"height":0,"rotation":0,"visible":true,"point":true,"properties":[{"name":"kind","type":"string","value":"plant.flower"},{"name":"fw","type":"int","value":16},{"name":"fh","type":"int","value":16},{"name":"solid","type":"bool","value":false}]},{"id":195,"name":"plant.flower#0","type":"prop","x":120.0,"y":448,"width":0,"height":0,"rotation":0,"visible":true,"point":true,"properties":[{"name":"kind","type":"string","value":"plant.flower"},{"name":"fw","type":"int","value":16},{"name":"fh","type":"int","value":16},{"name":"solid","type":"bool","value":false}]},{"id":196,"name":"plant.flower#0","type":"prop","x":40.0,"y":128,"width":0,"height":0,"rotation":0,"visible":true,"point":true,"properties":[{"name":"kind","type":"string","value":"plant.flower"},{"name":"fw","type":"int","value":16},{"name":"fh","type":"int","value":16},{"name":"solid","type":"bool","value":false}]},{"id":197,"name":"plant.flower#0","type":"prop","x":312.0,"y":176,"width":0,"height":0,"rotation":0,"visible":true,"point":true,"properties":[{"name":"kind","type":"string","value":"plant.flower"},{"name":"fw","type":"int","value":16},{"name":"fh","type":"int","value":16},{"name":"solid","type":"bool","value":false}]},{"id":198,"name":"plant.flower#0","type":"prop","x":488.0,"y":368,"width":0,"height":0,"rotation":0,"visible":true,"point":true,"properties":[{"name":"kind","type":"string","value":"plant.flower"},{"name":"fw","type":"int","value":16},{"name":"fh","type":"int","value":16},{"name":"solid","type":"bool","value":false}]},{"id":199,"name":"plant.flower#0","type":"prop","x":136.0,"y":368,"width":0,"height":0,"rotation":0,"visible":true,"point":true,"properties":[{"name":"kind","type":"string","value":"plant.flower"},{"name":"fw","type":"int","value":16},{"name":"fh","type":"int","value":16},{"name":"solid","type":"bool","value":false}]},{"id":200,"name":"plant.flower#0","type":"prop","x":248.0,"y":272,"width":0,"height":0,"rotation":0,"visible":true,"point":true,"properties":[{"name":"kind","type":"string","value":"plant.flower"},{"name":"fw","type":"int","value":16},{"name":"fh","type":"int","value":16},{"name":"solid","type":"bool","value":false}]},{"id":201,"name":"plant.grass#0","type":"prop","x":232.0,"y":416,"width":0,"height":0,"rotation":0,"visible":true,"point":true,"properties":[{"name":"kind","type":"string","value":"plant.grass"},{"name":"fw","type":"int","value":16},{"name":"fh","type":"int","value":16},{"name":"solid","type":"bool","value":false}]},{"id":202,"name":"plant.grass#1","type":"prop","x":440.0,"y":352,"width":0,"height":0,"rotation":0,"visible":true,"point":true,"properties":[{"name":"kind","type":"string","value":"plant.grass"},{"name":"fw","type":"int","value":16},{"name":"fh","type":"int","value":16},{"name":"solid","type":"bool","value":false}]},{"id":203,"name":"plant.grass#0","type":"prop","x":568.0,"y":384,"width":0,"height":0,"rotation":0,"visible":true,"point":true,"properties":[{"name":"kind","type":"string","value":"plant.grass"},{"name":"fw","type":"int","value":16},{"name":"fh","type":"int","value":16},{"name":"solid","type":"bool","value":false}]},{"id":204,"name":"plant.grass#0","type":"prop","x":488.0,"y":288,"width":0,"height":0,"rotation":0,"visible":true,"point":true,"properties":[{"name":"kind","type":"string","value":"plant.grass"},{"name":"fw","type":"int","value":16},{"name":"fh","type":"int","value":16},{"name":"solid","type":"bool","value":false}]},{"id":205,"name":"plant.grass#0","type":"prop","x":584.0,"y":96,"width":0,"height":0,"rotation":0,"visible":true,"point":true,"properties":[{"name":"kind","type":"string","value":"plant.grass"},{"name":"fw","type":"int","value":16},{"name":"fh","type":"int","value":16},{"name":"solid","type":"bool","value":false}]},{"id":206,"name":"plant.grass#1","type":"prop","x":264.0,"y":208,"width":0,"height":0,"rotation":0,"visible":true,"point":true,"properties":[{"name":"kind","type":"string","value":"plant.grass"},{"name":"fw","type":"int","value":16},{"name":"fh","type":"int","value":16},{"name":"solid","type":"bool","value":false}]},{"id":207,"name":"plant.grass#1","type":"prop","x":56.0,"y":320,"width":0,"height":0,"rotation":0,"visible":true,"point":true,"properties":[{"name":"kind","type":"string","value":"plant.grass"},{"name":"fw","type":"int","value":16},{"name":"fh","type":"int","value":16},{"name":"solid","type":"bool","value":false}]},{"id":208,"name":"plant.grass#0","type":"prop","x":200.0,"y":160,"width":0,"height":0,"rotation":0,"visible":true,"point":true,"properties":[{"name":"kind","type":"string","value":"plant.grass"},{"name":"fw","type":"int","value":16},{"name":"fh","type":"int","value":16},{"name":"solid","type":"bool","value":false}]},{"id":209,"name":"plant.grass#0","type":"prop","x":520.0,"y":128,"width":0,"height":0,"rotation":0,"visible":true,"point":true,"properties":[{"name":"kind","type":"string","value":"plant.grass"},{"name":"fw","type":"int","value":16},{"name":"fh","type":"int","value":16},{"name":"solid","type":"bool","value":false}]},{"id":210,"name":"plant.grass#0","type":"prop","x":488.0,"y":80,"width":0,"height":0,"rotation":0,"visible":true,"point":true,"properties":[{"name":"kind","type":"string","value":"plant.grass"},{"name":"fw","type":"int","value":16},{"name":"fh","type":"int","value":16},{"name":"solid","type":"bool","value":false}]},{"id":211,"name":"plant.grass#1","type":"prop","x":376.0,"y":144,"width":0,"height":0,"rotation":0,"visible":true,"point":true,"properties":[{"name":"kind","type":"string","value":"plant.grass"},{"name":"fw","type":"int","value":16},{"name":"fh","type":"int","value":16},{"name":"solid","type":"bool","value":false}]},{"id":212,"name":"plant.grass#0","type":"prop","x":184.0,"y":208,"width":0,"height":0,"rotation":0,"visible":true,"point":true,"properties":[{"name":"kind","type":"string","value":"plant.grass"},{"name":"fw","type":"int","value":16},{"name":"fh","type":"int","value":16},{"name":"solid","type":"bool","value":false}]},{"id":213,"name":"plant.grass#1","type":"prop","x":40.0,"y":352,"width":0,"height":0,"rotation":0,"visible":true,"point":true,"properties":[{"name":"kind","type":"string","value":"plant.grass"},{"name":"fw","type":"int","value":16},{"name":"fh","type":"int","value":16},{"name":"solid","type":"bool","value":false}]},{"id":214,"name":"plant.grass#0","type":"prop","x":248.0,"y":128,"width":0,"height":0,"rotation":0,"visible":true,"point":true,"properties":[{"name":"kind","type":"string","value":"plant.grass"},{"name":"fw","type":"int","value":16},{"name":"fh","type":"int","value":16},{"name":"solid","type":"bool","value":false}]},{"id":215,"name":"plant.grass#1","type":"prop","x":152.0,"y":224,"width":0,"height":0,"rotation":0,"visible":true,"point":true,"properties":[{"name":"kind","type":"string","value":"plant.grass"},{"name":"fw","type":"int","value":16},{"name":"fh","type":"int","value":16},{"name":"solid","type":"bool","value":false}]},{"id":216,"name":"plant.grass#0","type":"prop","x":200.0,"y":176,"width":0,"height":0,"rotation":0,"visible":true,"point":true,"properties":[{"name":"kind","type":"string","value":"plant.grass"},{"name":"fw","type":"int","value":16},{"name":"fh","type":"int","value":16},{"name":"solid","type":"bool","value":false}]},{"id":217,"name":"plant.grass#0","type":"prop","x":600.0,"y":48,"width":0,"height":0,"rotation":0,"visible":true,"point":true,"properties":[{"name":"kind","type":"string","value":"plant.grass"},{"name":"fw","type":"int","value":16},{"name":"fh","type":"int","value":16},{"name":"solid","type":"bool","value":false}]},{"id":218,"name":"plant.grass#1","type":"prop","x":520.0,"y":144,"width":0,"height":0,"rotation":0,"visible":true,"point":true,"properties":[{"name":"kind","type":"string","value":"plant.grass"},{"name":"fw","type":"int","value":16},{"name":"fh","type":"int","value":16},{"name":"solid","type":"bool","value":false}]},{"id":219,"name":"tree.small#2","type":"prop","x":552.0,"y":240,"width":0,"height":0,"rotation":0,"visible":true,"point":true,"properties":[{"name":"kind","type":"string","value":"tree.small"},{"name":"fw","type":"int","value":16},{"name":"fh","type":"int","value":16},{"name":"solid","type":"bool","value":true}]},{"id":220,"name":"tree.small#2","type":"prop","x":232.0,"y":224,"width":0,"height":0,"rotation":0,"visible":true,"point":true,"properties":[{"name":"kind","type":"string","value":"tree.small"},{"name":"fw","type":"int","value":16},{"name":"fh","type":"int","value":16},{"name":"solid","type":"bool","value":true}]},{"id":221,"name":"tree.small#1","type":"prop","x":88.0,"y":176,"width":0,"height":0,"rotation":0,"visible":true,"point":true,"properties":[{"name":"kind","type":"string","value":"tree.small"},{"name":"fw","type":"int","value":16},{"name":"fh","type":"int","value":16},{"name":"solid","type":"bool","value":true}]},{"id":222,"name":"tree.small#0","type":"prop","x":584.0,"y":240,"width":0,"height":0,"rotation":0,"visible":true,"point":true,"properties":[{"name":"kind","type":"string","value":"tree.small"},{"name":"fw","type":"int","value":16},{"name":"fh","type":"int","value":16},{"name":"solid","type":"bool","value":true}]},{"id":223,"name":"tree.small#1","type":"prop","x":376.0,"y":96,"width":0,"height":0,"rotation":0,"visible":true,"point":true,"properties":[{"name":"kind","type":"string","value":"tree.small"},{"name":"fw","type":"int","value":16},{"name":"fh","type":"int","value":16},{"name":"solid","type":"bool","value":true}]},{"id":224,"name":"lamp.post#0","type":"prop","x":440.0,"y":96,"width":0,"height":0,"rotation":0,"visible":true,"point":true,"properties":[{"name":"kind","type":"string","value":"lamp.post"},{"name":"fw","type":"int","value":16},{"name":"fh","type":"int","value":16},{"name":"solid","type":"bool","value":true}]},{"id":225,"name":"lvbucamp","type":"spot","x":344.0,"y":187.2,"width":0,"height":0,"rotation":0,"visible":true,"point":true,"properties":[{"name":"node","type":"string","value":"3-m10"},{"name":"label","type":"string","value":"Lü Bu's camp"},{"name":"label_zh","type":"string","value":"吕布营寨"}]},{"id":226,"name":"northgate","type":"spot","x":448,"y":267.2,"width":0,"height":0,"rotation":0,"visible":true,"point":true,"properties":[{"name":"node","type":"string","value":"3-m11"},{"name":"label","type":"string","value":"The north gate"},{"name":"label_zh","type":"string","value":"北门"}]},{"id":227,"name":"westgate","type":"spot","x":336,"y":315.2,"width":0,"height":0,"rotation":0,"visible":true,"point":true,"properties":[{"name":"node","type":"string","value":"3-m12"},{"name":"label","type":"string","value":"The west gate"},{"name":"label_zh","type":"string","value":"西门"}]},{"id":228,"name":"npc-1","type":"npc","x":392.0,"y":270.4,"width":0,"height":0,"rotation":0,"visible":true,"point":true,"properties":[{"name":"kind","type":"string","value":"folk.villager"},{"name":"sprite","type":"string","value":"f_farmer"},{"name":"wander","type":"bool","value":true},{"name":"drawn","type":"bool","value":true},{"name":"say","type":"string","value":"[[\"n\", \"“We had Lü Bu here, then Lord Liu, then Lü Bu's men again. We just keep our heads down.”\", \"“先是吕布，又是刘使君，又是吕布的人。我们只管低着头过日子。”\", \"7e878e23cee9\"]]"}]},{"id":229,"name":"exit-xuyi","type":"exit","x":0,"y":224,"width":16,"height":32,"rotation":0,"visible":true,"properties":[{"name":"to","type":"string","value":"xuyi"},{"name":"side","type":"string","value":"W"}]},{"id":230,"name":"exit-xiapi","type":"exit","x":656,"y":176,"width":16,"height":32,"rotation":0,"visible":true,"properties":[{"name":"to","type":"string","value":"xiapi"},{"name":"side","type":"string","value":"E"}]},{"id":231,"name":"exit-the-road-to-xiaopei","type":"exit","x":656,"y":288,"width":16,"height":32,"rotation":0,"visible":true,"properties":[{"name":"to","type":"string","value":"the-road-to-xiaopei"},{"name":"side","type":"string","value":"E"}]},{"id":232,"name":"exit-jingxian","type":"exit","x":256,"y":464,"width":32,"height":16,"rotation":0,"visible":true,"properties":[{"name":"to","type":"string","value":"jingxian"},{"name":"side","type":"string","value":"S"}]},{"id":233,"name":"exit-wancheng","type":"exit","x":384,"y":464,"width":32,"height":16,"rotation":0,"visible":true,"properties":[{"name":"to","type":"string","value":"wancheng"},{"name":"side","type":"string","value":"S"}]},{"id":234,"name":"exit-xiaopei--lvbucamp","type":"exit","x":337.6,"y":173.6,"width":12.8,"height":7.2,"rotation":0,"visible":true,"properties":[{"name":"to","type":"string","value":"xiaopei--lvbucamp"},{"name":"side","type":"string","value":"N"}]},{"id":235,"name":"exit-xiaopei--house-1","type":"exit","x":441.6,"y":141.6,"width":12.8,"height":7.2,"rotation":0,"visible":true,"properties":[{"name":"to","type":"string","value":"xiaopei--house-1"},{"name":"side","type":"string","value":"N"}]},{"id":236,"name":"exit-xiaopei--house-2","type":"exit","x":345.6,"y":397.6,"width":12.8,"height":7.2,"rotation":0,"visible":true,"properties":[{"name":"to","type":"string","value":"xiaopei--house-2"},{"name":"side","type":"string","value":"N"}]},{"id":237,"name":"exit-xiaopei--house-3","type":"exit","x":217.6,"y":333.6,"width":12.8,"height":7.2,"rotation":0,"visible":true,"properties":[{"name":"to","type":"string","value":"xiaopei--house-3"},{"name":"side","type":"string","value":"N"}]},{"id":238,"name":"exit-xiaopei--shop-1","type":"exit","x":433.6,"y":381.6,"width":12.8,"height":7.2,"rotation":0,"visible":true,"properties":[{"name":"to","type":"string","value":"xiaopei--shop-1"},{"name":"side","type":"string","value":"N"}]},{"id":239,"name":"entry-xuyi","type":"entry","x":40.0,"y":254.4,"width":0,"height":0,"rotation":0,"visible":true,"point":true,"properties":[{"name":"from","type":"string","value":"xuyi"}]},{"id":240,"name":"entry-xiapi","type":"entry","x":632.0,"y":206.4,"width":0,"height":0,"rotation":0,"visible":true,"point":true,"properties":[{"name":"from","type":"string","value":"xiapi"}]},{"id":241,"name":"entry-the-road-to-xiaopei","type":"entry","x":632.0,"y":318.4,"width":0,"height":0,"rotation":0,"visible":true,"point":true,"properties":[{"name":"from","type":"string","value":"the-road-to-xiaopei"}]},{"id":242,"name":"entry-jingxian","type":"entry","x":280.0,"y":446.4,"width":0,"height":0,"rotation":0,"visible":true,"point":true,"properties":[{"name":"from","type":"string","value":"jingxian"}]},{"id":243,"name":"entry-wancheng","type":"entry","x":408.0,"y":446.4,"width":0,"height":0,"rotation":0,"visible":true,"point":true,"properties":[{"name":"from","type":"string","value":"wancheng"}]},{"id":244,"name":"entry","type":"entry","x":40.0,"y":254.4,"width":0,"height":0,"rotation":0,"visible":true,"point":true},{"id":245,"name":"entry-xiaopei--lvbucamp","type":"entry","x":344.0,"y":190.4,"width":0,"height":0,"rotation":0,"visible":true,"point":true,"properties":[{"name":"from","type":"string","value":"xiaopei--lvbucamp"}]},{"id":246,"name":"entry-xiaopei--house-1","type":"entry","x":456.0,"y":158.4,"width":0,"height":0,"rotation":0,"visible":true,"point":true,"properties":[{"name":"from","type":"string","value":"xiaopei--house-1"}]},{"id":247,"name":"entry-xiaopei--house-2","type":"entry","x":360.0,"y":414.4,"width":0,"height":0,"rotation":0,"visible":true,"point":true,"properties":[{"name":"from","type":"string","value":"xiaopei--house-2"}]},{"id":248,"name":"entry-xiaopei--house-3","type":"entry","x":232.0,"y":350.4,"width":0,"height":0,"rotation":0,"visible":true,"point":true,"properties":[{"name":"from","type":"string","value":"xiaopei--house-3"}]},{"id":249,"name":"entry-xiaopei--shop-1","type":"entry","x":440.0,"y":398.4,"width":0,"height":0,"rotation":0,"visible":true,"point":true,"properties":[{"name":"from","type":"string","value":"xiaopei--shop-1"}]}]}]}