{"type":"map","version":"1.10","tiledversion":"1.10.2","orientation":"orthogonal","renderorder":"right-down","width":46,"height":22,"tilewidth":16,"tileheight":16,"infinite":false,"nextlayerid":4,"nextobjectid":208,"properties":[{"name":"kit","type":"string","value":"jade"},{"name":"source","type":"string","value":"guangzong-road.map.json"}],"tilesets":[{"firstgid":1,"name":"tiles","tilewidth":16,"tileheight":16,"columns":5,"tilecount":5,"margin":0,"spacing":0,"image":"../../../../assets/tk/jade/tiles.png","imagewidth":80,"imageheight":16}],"layers":[{"id":1,"name":"ground","type":"tilelayer","width":46,"height":22,"x":0,"y":0,"opacity":1,"visible":true,"data":[1,1,1,1,1,2,1,1,1,1,1,1,1,1,1,1,1,1,1,1,2,1,1,1,1,1,1,1,1,1,1,1,1,1,1,1,2,1,1,1,1,1,1,1,1,1,2,1,1,2,1,1,1,1,1,1,2,1,1,1,1,1,2,1,1,1,1,1,1,1,1,1,1,1,1,1,1,1,1,1,2,1,1,1,1,2,1,1,1,1,1,1,1,1,1,1,1,1,2,1,1,1,1,1,1,1,1,1,1,1,1,1,1,1,1,1,1,1,1,1,1,1,1,2,1,1,1,2,1,1,1,1,1,1,1,1,1,2,2,1,1,2,1,1,1,1,1,1,1,1,1,1,1,2,1,1,1,1,1,1,1,1,1,1,1,1,2,1,1,1,1,1,1,1,1,1,1,2,1,1,1,2,1,1,2,1,2,1,2,1,1,1,1,1,1,2,1,1,1,1,1,2,1,2,1,1,1,1,1,1,1,1,1,1,1,1,1,2,1,1,1,1,1,1,1,1,1,1,1,1,1,1,1,1,2,1,1,1,1,1,1,1,2,2,1,1,1,1,1,1,1,1,2,1,1,1,1,1,1,1,1,1,1,2,1,1,1,1,2,2,1,1,1,1,1,1,1,1,1,1,2,1,1,1,1,1,1,1,1,1,1,1,2,1,1,1,2,1,1,1,1,1,1,1,1,2,1,1,1,1,1,1,1,1,1,1,1,1,1,1,2,1,1,1,1,1,1,1,1,2,1,1,2,1,1,1,1,1,1,1,2,1,1,1,1,1,1,1,1,1,1,1,1,2,1,1,1,1,1,1,1,1,1,1,1,1,1,1,1,2,1,1,1,1,1,1,1,2,1,1,1,2,1,2,1,1,1,1,1,1,1,1,1,1,1,1,1,1,2,1,1,1,1,1,2,1,1,1,1,1,1,1,1,1,1,1,1,1,1,1,1,1,1,2,1,1,1,1,1,1,1,1,1,1,1,2,1,1,1,1,2,1,1,2,1,1,1,2,1,1,2,1,1,1,1,1,1,1,1,1,1,1,2,2,1,1,1,1,1,1,1,1,1,1,1,1,2,1,1,1,1,1,1,1,1,1,1,2,1,1,1,1,1,1,1,1,1,1,1,1,1,1,2,1,1,1,1,1,1,1,2,1,1,1,1,1,1,1,1,2,1,2,1,1,2,1,1,1,1,1,1,1,1,1,1,1,2,1,1,1,1,1,1,1,1,1,1,1,1,1,1,1,1,2,1,1,1,1,1,1,1,1,1,1,1,2,1,1,2,1,1,1,1,1,1,1,1,1,1,1,1,1,1,1,2,1,1,1,1,1,1,1,1,2,1,1,1,1,2,2,1,1,1,2,1,2,1,1,1,1,2,1,2,1,1,1,1,1,1,2,1,1,1,1,1,2,2,1,1,1,1,1,1,1,1,1,1,1,1,1,2,1,1,2,1,1,1,1,1,1,1,1,1,1,2,1,1,1,2,1,1,1,1,1,1,1,1,1,2,1,1,1,1,1,1,1,1,2,1,1,1,2,1,1,1,2,1,2,1,1,1,1,1,1,1,1,1,1,1,1,1,1,1,1,1,2,2,1,2,1,1,1,1,1,1,2,1,2,1,1,2,1,1,1,1,1,1,1,1,1,1,1,1,1,1,1,1,1,1,1,1,1,1,1,1,1,1,1,1,1,1,1,1,2,1,1,1,1,1,1,1,1,1,1,1,1,1,1,1,1,2,2,1,2,1,2,1,2,1,1,1,2,1,1,1,1,1,2,1,1,1,1,1,1,1,2,1,1,1,1,1,1,1,1,1,1,1,1,2,1,1,2,1,1,1,1,1,1,1,1,2,1,1,1,1,1,2,2,1,1,1,1,2,1,1,1,1,1,2,1,1,2,1,1,1,1,1,1,1,1,1,2,1,1,1,2,1,1,1,1,1,1,1,1,1,1,1,1,1,1,1,1,1,2,1,1,1,1,2,1,1,1,2,1,1,1,1,1,1,1,1,1,1,1,2,1,1,1,1,1,1,2,2,1,1,2,1,1,1,1,1,1,1,1,1,1,2,2,1,1,1,1,1,1,1,1,2,1,1,1,1,1,1,1,2,1,1,1,1,1,1,2,1,1,1,2,2,1,1,1,1,1,1,1,1,2,1,1,1,1,1,1,1,1,1,1,2,1,1,1,1,1,2,1,1,1,2,1,2,1,2,1,1,1,1,1,1,1,1,1,1,1,1,2,1,1,1,1,1,2,1,1,1,1,1,1,1,1,1,1,1,1]},{"id":2,"name":"dirt","type":"tilelayer","width":46,"height":22,"x":0,"y":0,"opacity":1,"visible":true,"data":[0,0,0,0,0,0,0,0,0,0,0,0,0,0,0,0,0,0,0,0,0,0,0,0,0,0,0,0,0,0,0,0,0,0,0,0,0,0,0,0,0,0,0,0,0,0,0,0,0,0,0,0,0,0,0,0,0,0,0,0,0,0,0,0,0,0,0,0,0,0,0,0,0,0,0,0,0,0,0,0,0,0,0,0,0,0,0,0,0,0,0,0,0,0,0,0,0,0,0,0,0,0,0,0,0,0,0,0,0,0,0,0,0,0,0,0,0,0,0,0,0,0,0,0,0,0,0,0,0,0,0,0,0,0,0,0,0,0,0,0,0,0,0,0,0,0,0,0,0,0,0,0,0,0,0,0,0,0,0,0,0,0,0,0,0,0,0,0,0,0,0,0,0,0,0,0,0,0,0,0,0,0,0,0,0,0,0,0,0,0,0,0,0,0,0,0,0,0,0,0,0,0,0,0,0,0,0,0,0,0,0,0,0,0,0,0,0,0,0,0,0,0,0,0,0,0,0,0,0,0,0,0,0,0,0,0,0,0,0,0,0,0,0,0,0,0,0,0,0,0,0,0,0,0,0,0,0,0,0,0,0,0,0,0,0,0,0,0,0,0,0,0,0,0,0,0,0,0,0,0,0,0,0,0,0,0,0,0,0,0,0,0,0,0,0,0,0,0,0,0,0,0,0,0,0,0,0,0,0,0,0,0,0,0,0,0,0,0,0,0,0,0,0,0,0,0,0,0,0,0,0,0,0,0,0,0,0,0,0,0,0,0,0,0,0,0,0,0,0,0,0,0,0,0,0,0,0,0,0,0,0,0,0,0,0,0,0,0,0,0,0,0,0,0,0,0,0,0,0,0,0,0,0,0,0,0,0,0,0,0,0,0,0,0,0,0,0,0,0,0,0,0,0,0,0,0,0,0,0,0,0,0,0,0,3,3,3,3,3,3,3,3,3,3,3,3,0,0,0,0,0,0,0,0,0,0,0,0,0,0,0,0,0,0,0,0,0,0,0,0,0,0,0,0,0,0,0,0,0,0,3,3,3,3,3,3,3,3,3,3,3,3,0,3,0,0,0,0,0,0,0,0,0,0,0,0,0,0,0,0,0,0,0,0,0,0,0,0,0,0,0,0,0,0,0,0,0,0,0,0,0,0,0,0,0,0,3,3,0,3,0,0,0,0,0,0,3,3,3,3,3,3,3,3,3,3,3,3,3,3,3,3,3,3,3,3,3,3,3,3,3,3,0,0,0,0,0,0,0,0,0,0,3,3,3,3,3,3,3,3,3,3,3,3,3,3,3,3,3,3,3,3,3,3,3,3,3,3,3,3,3,3,3,3,3,3,3,3,0,0,0,0,0,0,0,0,0,0,3,3,3,3,3,3,3,3,3,3,3,3,3,3,3,0,0,0,0,0,0,0,0,0,0,0,0,0,0,0,0,0,0,0,0,0,0,0,0,0,0,0,0,0,0,0,0,0,0,0,0,0,0,0,0,0,0,0,0,3,3,0,0,0,0,0,0,0,0,0,0,0,0,0,0,0,0,0,0,0,0,0,0,0,0,0,0,0,0,0,0,0,0,0,0,0,0,0,0,0,0,0,0,0,0,3,3,0,0,0,0,0,0,0,0,0,0,0,0,0,0,0,0,0,0,0,0,0,0,0,0,0,0,0,0,0,0,0,0,0,0,0,0,0,0,0,0,0,0,0,0,3,3,0,0,0,0,0,0,0,0,0,0,0,0,0,0,0,0,0,0,0,0,0,0,0,0,0,0,0,0,0,0,0,0,0,0,0,0,0,0,0,0,0,0,0,0,3,3,0,0,0,0,0,0,0,0,0,0,0,0,0,0,0,0,0,0,0,0,0,0,0,0,0,0,0,0,0,0,0,0,0,0,0,0,0,0,0,0,0,0,0,0,3,3,0,0,0,0,0,0,0,0,0,0,0,0,0,0,0,0,0,0,0,0,0,0,0,0,0,0,0,0,0,0,0,0,0,0,0,0,0,0,0,0,0,0,0,0,3,3,0,0,0,0,0,0,0,0,0,0,0,0,0,0,0,0,0,0,0,0,0,0,0,0,0,0,0,0,0,0,0,0,0,0,0,0,0,0,0,0,0,0,0,0,3,3,0,0,0,0,0,0,0,0,0,0,0,0,0,0,0,0,0,0,0,0,0,0,0,0,0,0,0,0,0,0,0,0,0,0,0,0,0,0,0,0,0,0,0,0,3,3,0,0,0,0,0,0,0,0,0,0,0,0,0,0,0,0,0,0,0,0,0]},{"id":3,"name":"objects","type":"objectgroup","draworder":"topdown","x":0,"y":0,"opacity":1,"visible":true,"objects":[{"id":1,"name":"camp.logs#0","type":"prop","x":336.0,"y":160,"width":0,"height":0,"rotation":0,"visible":true,"point":true,"properties":[{"name":"kind","type":"string","value":"camp.logs"},{"name":"fw","type":"int","value":32},{"name":"fh","type":"int","value":16},{"name":"solid","type":"bool","value":true},{"name":"ref","type":"string","value":"cart"}]},{"id":2,"name":"building.house#0","type":"prop","x":216.0,"y":160,"width":0,"height":0,"rotation":0,"visible":true,"point":true,"properties":[{"name":"kind","type":"string","value":"building.tent"},{"name":"fw","type":"int","value":48},{"name":"fh","type":"int","value":32},{"name":"solid","type":"bool","value":true},{"name":"ref","type":"string","value":"luzhi-tent"}]},{"id":3,"name":"tree.small#0","type":"prop","x":120.0,"y":240,"width":0,"height":0,"rotation":0,"visible":true,"point":true,"properties":[{"name":"kind","type":"string","value":"tree.small"},{"name":"fw","type":"int","value":16},{"name":"fh","type":"int","value":16},{"name":"solid","type":"bool","value":true}]},{"id":4,"name":"tree.pine#1","type":"prop","x":120.0,"y":192,"width":0,"height":0,"rotation":0,"visible":true,"point":true,"properties":[{"name":"kind","type":"string","value":"tree.pine"},{"name":"fw","type":"int","value":16},{"name":"fh","type":"int","value":16},{"name":"solid","type":"bool","value":true}]},{"id":5,"name":"tree.pine#0","type":"prop","x":168.0,"y":240,"width":0,"height":0,"rotation":0,"visible":true,"point":true,"properties":[{"name":"kind","type":"string","value":"tree.pine"},{"name":"fw","type":"int","value":16},{"name":"fh","type":"int","value":16},{"name":"solid","type":"bool","value":true}]},{"id":6,"name":"tree.big#1","type":"prop","x":104.0,"y":256,"width":0,"height":0,"rotation":0,"visible":true,"point":true,"properties":[{"name":"kind","type":"string","value":"tree.grove"},{"name":"fw","type":"int","value":48},{"name":"fh","type":"int","value":16},{"name":"solid","type":"bool","value":true}]},{"id":7,"name":"plant.bush#0","type":"prop","x":88.0,"y":192,"width":0,"height":0,"rotation":0,"visible":true,"point":true,"properties":[{"name":"kind","type":"string","value":"plant.bush"},{"name":"fw","type":"int","value":16},{"name":"fh","type":"int","value":16},{"name":"solid","type":"bool","value":false}]},{"id":8,"name":"plant.bush#0","type":"prop","x":504.0,"y":112,"width":0,"height":0,"rotation":0,"visible":true,"point":true,"properties":[{"name":"kind","type":"string","value":"plant.bush"},{"name":"fw","type":"int","value":16},{"name":"fh","type":"int","value":16},{"name":"solid","type":"bool","value":false}]},{"id":9,"name":"tree.big#1","type":"prop","x":456.0,"y":128,"width":0,"height":0,"rotation":0,"visible":true,"point":true,"properties":[{"name":"kind","type":"string","value":"tree.grove"},{"name":"fw","type":"int","value":48},{"name":"fh","type":"int","value":16},{"name":"solid","type":"bool","value":true}]},{"id":10,"name":"tree.small#1","type":"prop","x":488.0,"y":96,"width":0,"height":0,"rotation":0,"visible":true,"point":true,"properties":[{"name":"kind","type":"string","value":"tree.small"},{"name":"fw","type":"int","value":16},{"name":"fh","type":"int","value":16},{"name":"solid","type":"bool","value":true}]},{"id":11,"name":"tree.big#1","type":"prop","x":440.0,"y":64,"width":0,"height":0,"rotation":0,"visible":true,"point":true,"properties":[{"name":"kind","type":"string","value":"tree.grove"},{"name":"fw","type":"int","value":48},{"name":"fh","type":"int","value":16},{"name":"solid","type":"bool","value":true}]},{"id":12,"name":"tree.pine#0","type":"prop","x":504.0,"y":96,"width":0,"height":0,"rotation":0,"visible":true,"point":true,"properties":[{"name":"kind","type":"string","value":"tree.pine"},{"name":"fw","type":"int","value":16},{"name":"fh","type":"int","value":16},{"name":"solid","type":"bool","value":true}]},{"id":13,"name":"tree.small#1","type":"prop","x":712.0,"y":256,"width":0,"height":0,"rotation":0,"visible":true,"point":true,"properties":[{"name":"kind","type":"string","value":"tree.small"},{"name":"fw","type":"int","value":16},{"name":"fh","type":"int","value":16},{"name":"solid","type":"bool","value":true}]},{"id":14,"name":"tree.small#1","type":"prop","x":712.0,"y":288,"width":0,"height":0,"rotation":0,"visible":true,"point":true,"properties":[{"name":"kind","type":"string","value":"tree.small"},{"name":"fw","type":"int","value":16},{"name":"fh","type":"int","value":16},{"name":"solid","type":"bool","value":true}]},{"id":15,"name":"tree.big#0","type":"prop","x":696.0,"y":320,"width":0,"height":0,"rotation":0,"visible":true,"point":true,"properties":[{"name":"kind","type":"string","value":"tree.grove"},{"name":"fw","type":"int","value":48},{"name":"fh","type":"int","value":16},{"name":"solid","type":"bool","value":true}]},{"id":16,"name":"tree.pine#0","type":"prop","x":648.0,"y":256,"width":0,"height":0,"rotation":0,"visible":true,"point":true,"properties":[{"name":"kind","type":"string","value":"tree.pine"},{"name":"fw","type":"int","value":16},{"name":"fh","type":"int","value":16},{"name":"solid","type":"bool","value":true}]},{"id":17,"name":"tree.pine#0","type":"prop","x":632.0,"y":272,"width":0,"height":0,"rotation":0,"visible":true,"point":true,"properties":[{"name":"kind","type":"string","value":"tree.pine"},{"name":"fw","type":"int","value":16},{"name":"fh","type":"int","value":16},{"name":"solid","type":"bool","value":true}]},{"id":18,"name":"tree.big#0","type":"prop","x":504.0,"y":288,"width":0,"height":0,"rotation":0,"visible":true,"point":true,"properties":[{"name":"kind","type":"string","value":"tree.grove"},{"name":"fw","type":"int","value":48},{"name":"fh","type":"int","value":16},{"name":"solid","type":"bool","value":true}]},{"id":19,"name":"tree.small#0","type":"prop","x":472.0,"y":240,"width":0,"height":0,"rotation":0,"visible":true,"point":true,"properties":[{"name":"kind","type":"string","value":"tree.small"},{"name":"fw","type":"int","value":16},{"name":"fh","type":"int","value":16},{"name":"solid","type":"bool","value":true}]},{"id":20,"name":"tree.small#0","type":"prop","x":536.0,"y":288,"width":0,"height":0,"rotation":0,"visible":true,"point":true,"properties":[{"name":"kind","type":"string","value":"tree.small"},{"name":"fw","type":"int","value":16},{"name":"fh","type":"int","value":16},{"name":"solid","type":"bool","value":true}]},{"id":21,"name":"tree.big#0","type":"prop","x":552.0,"y":272,"width":0,"height":0,"rotation":0,"visible":true,"point":true,"properties":[{"name":"kind","type":"string","value":"tree.grove"},{"name":"fw","type":"int","value":48},{"name":"fh","type":"int","value":16},{"name":"solid","type":"bool","value":true}]},{"id":22,"name":"tree.small#1","type":"prop","x":552.0,"y":256,"width":0,"height":0,"rotation":0,"visible":true,"point":true,"properties":[{"name":"kind","type":"string","value":"tree.small"},{"name":"fw","type":"int","value":16},{"name":"fh","type":"int","value":16},{"name":"solid","type":"bool","value":true}]},{"id":23,"name":"plant.bush#0","type":"prop","x":296.0,"y":112,"width":0,"height":0,"rotation":0,"visible":true,"point":true,"properties":[{"name":"kind","type":"string","value":"plant.bush"},{"name":"fw","type":"int","value":16},{"name":"fh","type":"int","value":16},{"name":"solid","type":"bool","value":false}]},{"id":24,"name":"plant.bush#0","type":"prop","x":376.0,"y":96,"width":0,"height":0,"rotation":0,"visible":true,"point":true,"properties":[{"name":"kind","type":"string","value":"plant.bush"},{"name":"fw","type":"int","value":16},{"name":"fh","type":"int","value":16},{"name":"solid","type":"bool","value":false}]},{"id":25,"name":"plant.bush#0","type":"prop","x":344.0,"y":112,"width":0,"height":0,"rotation":0,"visible":true,"point":true,"properties":[{"name":"kind","type":"string","value":"plant.bush"},{"name":"fw","type":"int","value":16},{"name":"fh","type":"int","value":16},{"name":"solid","type":"bool","value":false}]},{"id":26,"name":"tree.small#1","type":"prop","x":328.0,"y":64,"width":0,"height":0,"rotation":0,"visible":true,"point":true,"properties":[{"name":"kind","type":"string","value":"tree.small"},{"name":"fw","type":"int","value":16},{"name":"fh","type":"int","value":16},{"name":"solid","type":"bool","value":true}]},{"id":27,"name":"plant.bush#0","type":"prop","x":312.0,"y":112,"width":0,"height":0,"rotation":0,"visible":true,"point":true,"properties":[{"name":"kind","type":"string","value":"plant.bush"},{"name":"fw","type":"int","value":16},{"name":"fh","type":"int","value":16},{"name":"solid","type":"bool","value":false}]},{"id":28,"name":"plant.bush#0","type":"prop","x":344.0,"y":64,"width":0,"height":0,"rotation":0,"visible":true,"point":true,"properties":[{"name":"kind","type":"string","value":"plant.bush"},{"name":"fw","type":"int","value":16},{"name":"fh","type":"int","value":16},{"name":"solid","type":"bool","value":false}]},{"id":29,"name":"tree.pine#1","type":"prop","x":232.0,"y":48,"width":0,"height":0,"rotation":0,"visible":true,"point":true,"properties":[{"name":"kind","type":"string","value":"tree.pine"},{"name":"fw","type":"int","value":16},{"name":"fh","type":"int","value":16},{"name":"solid","type":"bool","value":true}]},{"id":30,"name":"tree.small#1","type":"prop","x":184.0,"y":112,"width":0,"height":0,"rotation":0,"visible":true,"point":true,"properties":[{"name":"kind","type":"string","value":"tree.small"},{"name":"fw","type":"int","value":16},{"name":"fh","type":"int","value":16},{"name":"solid","type":"bool","value":true}]},{"id":31,"name":"tree.pine#0","type":"prop","x":216.0,"y":48,"width":0,"height":0,"rotation":0,"visible":true,"point":true,"properties":[{"name":"kind","type":"string","value":"tree.pine"},{"name":"fw","type":"int","value":16},{"name":"fh","type":"int","value":16},{"name":"solid","type":"bool","value":true}]},{"id":32,"name":"tree.big#1","type":"prop","x":232.0,"y":112,"width":0,"height":0,"rotation":0,"visible":true,"point":true,"properties":[{"name":"kind","type":"string","value":"tree.grove"},{"name":"fw","type":"int","value":48},{"name":"fh","type":"int","value":16},{"name":"solid","type":"bool","value":true}]},{"id":33,"name":"tree.big#0","type":"prop","x":184.0,"y":96,"width":0,"height":0,"rotation":0,"visible":true,"point":true,"properties":[{"name":"kind","type":"string","value":"tree.grove"},{"name":"fw","type":"int","value":48},{"name":"fh","type":"int","value":16},{"name":"solid","type":"bool","value":true}]},{"id":34,"name":"plant.bush#0","type":"prop","x":264.0,"y":64,"width":0,"height":0,"rotation":0,"visible":true,"point":true,"properties":[{"name":"kind","type":"string","value":"plant.bush"},{"name":"fw","type":"int","value":16},{"name":"fh","type":"int","value":16},{"name":"solid","type":"bool","value":false}]},{"id":35,"name":"tree.small#1","type":"prop","x":232.0,"y":64,"width":0,"height":0,"rotation":0,"visible":true,"point":true,"properties":[{"name":"kind","type":"string","value":"tree.small"},{"name":"fw","type":"int","value":16},{"name":"fh","type":"int","value":16},{"name":"solid","type":"bool","value":true}]},{"id":36,"name":"rock.big#0","type":"prop","x":568.0,"y":32,"width":0,"height":0,"rotation":0,"visible":true,"point":true,"properties":[{"name":"kind","type":"string","value":"rock.big"},{"name":"fw","type":"int","value":48},{"name":"fh","type":"int","value":32},{"name":"solid","type":"bool","value":true}]},{"id":37,"name":"rock.big#0","type":"prop","x":712.0,"y":64,"width":0,"height":0,"rotation":0,"visible":true,"point":true,"properties":[{"name":"kind","type":"string","value":"rock.big"},{"name":"fw","type":"int","value":48},{"name":"fh","type":"int","value":32},{"name":"solid","type":"bool","value":true}]},{"id":38,"name":"tree.pine#0","type":"prop","x":472.0,"y":352,"width":0,"height":0,"rotation":0,"visible":true,"point":true,"properties":[{"name":"kind","type":"string","value":"tree.pine"},{"name":"fw","type":"int","value":16},{"name":"fh","type":"int","value":16},{"name":"solid","type":"bool","value":true}]},{"id":39,"name":"tree.pine#0","type":"prop","x":72.0,"y":16,"width":0,"height":0,"rotation":0,"visible":true,"point":true,"properties":[{"name":"kind","type":"string","value":"tree.pine"},{"name":"fw","type":"int","value":16},{"name":"fh","type":"int","value":16},{"name":"solid","type":"bool","value":true}]},{"id":40,"name":"tree.big#0","type":"prop","x":296.0,"y":16,"width":0,"height":0,"rotation":0,"visible":true,"point":true,"properties":[{"name":"kind","type":"string","value":"tree.grove"},{"name":"fw","type":"int","value":48},{"name":"fh","type":"int","value":16},{"name":"solid","type":"bool","value":true}]},{"id":41,"name":"rock.big#0","type":"prop","x":712.0,"y":352,"width":0,"height":0,"rotation":0,"visible":true,"point":true,"properties":[{"name":"kind","type":"string","value":"rock.big"},{"name":"fw","type":"int","value":48},{"name":"fh","type":"int","value":32},{"name":"solid","type":"bool","value":true}]},{"id":42,"name":"rock.big#0","type":"prop","x":248.0,"y":32,"width":0,"height":0,"rotation":0,"visible":true,"point":true,"properties":[{"name":"kind","type":"string","value":"rock.big"},{"name":"fw","type":"int","value":48},{"name":"fh","type":"int","value":32},{"name":"solid","type":"bool","value":true}]},{"id":43,"name":"tree.small#0","type":"prop","x":40.0,"y":32,"width":0,"height":0,"rotation":0,"visible":true,"point":true,"properties":[{"name":"kind","type":"string","value":"tree.small"},{"name":"fw","type":"int","value":16},{"name":"fh","type":"int","value":16},{"name":"solid","type":"bool","value":true}]},{"id":44,"name":"rock.big#0","type":"prop","x":712.0,"y":96,"width":0,"height":0,"rotation":0,"visible":true,"point":true,"properties":[{"name":"kind","type":"string","value":"rock.big"},{"name":"fw","type":"int","value":48},{"name":"fh","type":"int","value":32},{"name":"solid","type":"bool","value":true}]},{"id":45,"name":"tree.small#1","type":"prop","x":360.0,"y":16,"width":0,"height":0,"rotation":0,"visible":true,"point":true,"properties":[{"name":"kind","type":"string","value":"tree.small"},{"name":"fw","type":"int","value":16},{"name":"fh","type":"int","value":16},{"name":"solid","type":"bool","value":true}]},{"id":46,"name":"tree.big#0","type":"prop","x":184.0,"y":352,"width":0,"height":0,"rotation":0,"visible":true,"point":true,"properties":[{"name":"kind","type":"string","value":"tree.grove"},{"name":"fw","type":"int","value":48},{"name":"fh","type":"int","value":16},{"name":"solid","type":"bool","value":true}]},{"id":47,"name":"tree.small#0","type":"prop","x":664.0,"y":32,"width":0,"height":0,"rotation":0,"visible":true,"point":true,"properties":[{"name":"kind","type":"string","value":"tree.small"},{"name":"fw","type":"int","value":16},{"name":"fh","type":"int","value":16},{"name":"solid","type":"bool","value":true}]},{"id":48,"name":"tree.small#1","type":"prop","x":24.0,"y":224,"width":0,"height":0,"rotation":0,"visible":true,"point":true,"properties":[{"name":"kind","type":"string","value":"tree.small"},{"name":"fw","type":"int","value":16},{"name":"fh","type":"int","value":16},{"name":"solid","type":"bool","value":true}]},{"id":49,"name":"tree.small#1","type":"prop","x":616.0,"y":336,"width":0,"height":0,"rotation":0,"visible":true,"point":true,"properties":[{"name":"kind","type":"string","value":"tree.small"},{"name":"fw","type":"int","value":16},{"name":"fh","type":"int","value":16},{"name":"solid","type":"bool","value":true}]},{"id":50,"name":"tree.small#0","type":"prop","x":24.0,"y":80,"width":0,"height":0,"rotation":0,"visible":true,"point":true,"properties":[{"name":"kind","type":"string","value":"tree.small"},{"name":"fw","type":"int","value":16},{"name":"fh","type":"int","value":16},{"name":"solid","type":"bool","value":true}]},{"id":51,"name":"tree.small#0","type":"prop","x":136.0,"y":16,"width":0,"height":0,"rotation":0,"visible":true,"point":true,"properties":[{"name":"kind","type":"string","value":"tree.small"},{"name":"fw","type":"int","value":16},{"name":"fh","type":"int","value":16},{"name":"solid","type":"bool","value":true}]},{"id":52,"name":"tree.small#1","type":"prop","x":8.0,"y":288,"width":0,"height":0,"rotation":0,"visible":true,"point":true,"properties":[{"name":"kind","type":"string","value":"tree.small"},{"name":"fw","type":"int","value":16},{"name":"fh","type":"int","value":16},{"name":"solid","type":"bool","value":true}]},{"id":53,"name":"tree.small#1","type":"prop","x":328.0,"y":32,"width":0,"height":0,"rotation":0,"visible":true,"point":true,"properties":[{"name":"kind","type":"string","value":"tree.small"},{"name":"fw","type":"int","value":16},{"name":"fh","type":"int","value":16},{"name":"solid","type":"bool","value":true}]},{"id":54,"name":"tree.pine#1","type":"prop","x":632.0,"y":16,"width":0,"height":0,"rotation":0,"visible":true,"point":true,"properties":[{"name":"kind","type":"string","value":"tree.pine"},{"name":"fw","type":"int","value":16},{"name":"fh","type":"int","value":16},{"name":"solid","type":"bool","value":true}]},{"id":55,"name":"rock.big#0","type":"prop","x":376.0,"y":48,"width":0,"height":0,"rotation":0,"visible":true,"point":true,"properties":[{"name":"kind","type":"string","value":"rock.big"},{"name":"fw","type":"int","value":48},{"name":"fh","type":"int","value":32},{"name":"solid","type":"bool","value":true}]},{"id":56,"name":"tree.small#1","type":"prop","x":104.0,"y":352,"width":0,"height":0,"rotation":0,"visible":true,"point":true,"properties":[{"name":"kind","type":"string","value":"tree.small"},{"name":"fw","type":"int","value":16},{"name":"fh","type":"int","value":16},{"name":"solid","type":"bool","value":true}]},{"id":57,"name":"tree.small#1","type":"prop","x":8.0,"y":112,"width":0,"height":0,"rotation":0,"visible":true,"point":true,"properties":[{"name":"kind","type":"string","value":"tree.small"},{"name":"fw","type":"int","value":16},{"name":"fh","type":"int","value":16},{"name":"solid","type":"bool","value":true}]},{"id":58,"name":"tree.pine#0","type":"prop","x":616.0,"y":32,"width":0,"height":0,"rotation":0,"visible":true,"point":true,"properties":[{"name":"kind","type":"string","value":"tree.pine"},{"name":"fw","type":"int","value":16},{"name":"fh","type":"int","value":16},{"name":"solid","type":"bool","value":true}]},{"id":59,"name":"tree.big#0","type":"prop","x":40.0,"y":256,"width":0,"height":0,"rotation":0,"visible":true,"point":true,"properties":[{"name":"kind","type":"string","value":"tree.grove"},{"name":"fw","type":"int","value":48},{"name":"fh","type":"int","value":16},{"name":"solid","type":"bool","value":true}]},{"id":60,"name":"tree.pine#0","type":"prop","x":8.0,"y":224,"width":0,"height":0,"rotation":0,"visible":true,"point":true,"properties":[{"name":"kind","type":"string","value":"tree.pine"},{"name":"fw","type":"int","value":16},{"name":"fh","type":"int","value":16},{"name":"solid","type":"bool","value":true}]},{"id":61,"name":"tree.pine#0","type":"prop","x":136.0,"y":32,"width":0,"height":0,"rotation":0,"visible":true,"point":true,"properties":[{"name":"kind","type":"string","value":"tree.pine"},{"name":"fw","type":"int","value":16},{"name":"fh","type":"int","value":16},{"name":"solid","type":"bool","value":true}]},{"id":62,"name":"tree.small#0","type":"prop","x":696.0,"y":16,"width":0,"height":0,"rotation":0,"visible":true,"point":true,"properties":[{"name":"kind","type":"string","value":"tree.small"},{"name":"fw","type":"int","value":16},{"name":"fh","type":"int","value":16},{"name":"solid","type":"bool","value":true}]},{"id":63,"name":"tree.small#1","type":"prop","x":56.0,"y":32,"width":0,"height":0,"rotation":0,"visible":true,"point":true,"properties":[{"name":"kind","type":"string","value":"tree.small"},{"name":"fw","type":"int","value":16},{"name":"fh","type":"int","value":16},{"name":"solid","type":"bool","value":true}]},{"id":64,"name":"tree.pine#1","type":"prop","x":680.0,"y":16,"width":0,"height":0,"rotation":0,"visible":true,"point":true,"properties":[{"name":"kind","type":"string","value":"tree.pine"},{"name":"fw","type":"int","value":16},{"name":"fh","type":"int","value":16},{"name":"solid","type":"bool","value":true}]},{"id":65,"name":"tree.small#0","type":"prop","x":408.0,"y":16,"width":0,"height":0,"rotation":0,"visible":true,"point":true,"properties":[{"name":"kind","type":"string","value":"tree.small"},{"name":"fw","type":"int","value":16},{"name":"fh","type":"int","value":16},{"name":"solid","type":"bool","value":true}]},{"id":66,"name":"tree.pine#0","type":"prop","x":328.0,"y":352,"width":0,"height":0,"rotation":0,"visible":true,"point":true,"properties":[{"name":"kind","type":"string","value":"tree.pine"},{"name":"fw","type":"int","value":16},{"name":"fh","type":"int","value":16},{"name":"solid","type":"bool","value":true}]},{"id":67,"name":"tree.big#0","type":"prop","x":296.0,"y":32,"width":0,"height":0,"rotation":0,"visible":true,"point":true,"properties":[{"name":"kind","type":"string","value":"tree.grove"},{"name":"fw","type":"int","value":48},{"name":"fh","type":"int","value":16},{"name":"solid","type":"bool","value":true}]},{"id":68,"name":"tree.pine#1","type":"prop","x":24.0,"y":320,"width":0,"height":0,"rotation":0,"visible":true,"point":true,"properties":[{"name":"kind","type":"string","value":"tree.pine"},{"name":"fw","type":"int","value":16},{"name":"fh","type":"int","value":16},{"name":"solid","type":"bool","value":true}]},{"id":69,"name":"tree.small#0","type":"prop","x":312.0,"y":352,"width":0,"height":0,"rotation":0,"visible":true,"point":true,"properties":[{"name":"kind","type":"string","value":"tree.small"},{"name":"fw","type":"int","value":16},{"name":"fh","type":"int","value":16},{"name":"solid","type":"bool","value":true}]},{"id":70,"name":"tree.small#0","type":"prop","x":632.0,"y":352,"width":0,"height":0,"rotation":0,"visible":true,"point":true,"properties":[{"name":"kind","type":"string","value":"tree.small"},{"name":"fw","type":"int","value":16},{"name":"fh","type":"int","value":16},{"name":"solid","type":"bool","value":true}]},{"id":71,"name":"rock.big#0","type":"prop","x":552.0,"y":352,"width":0,"height":0,"rotation":0,"visible":true,"point":true,"properties":[{"name":"kind","type":"string","value":"rock.big"},{"name":"fw","type":"int","value":48},{"name":"fh","type":"int","value":32},{"name":"solid","type":"bool","value":true}]},{"id":72,"name":"rock.big#0","type":"prop","x":248.0,"y":352,"width":0,"height":0,"rotation":0,"visible":true,"point":true,"properties":[{"name":"kind","type":"string","value":"rock.big"},{"name":"fw","type":"int","value":48},{"name":"fh","type":"int","value":32},{"name":"solid","type":"bool","value":true}]},{"id":73,"name":"tree.big#0","type":"prop","x":712.0,"y":32,"width":0,"height":0,"rotation":0,"visible":true,"point":true,"properties":[{"name":"kind","type":"string","value":"tree.grove"},{"name":"fw","type":"int","value":48},{"name":"fh","type":"int","value":16},{"name":"solid","type":"bool","value":true}]},{"id":74,"name":"tree.pine#1","type":"prop","x":728.0,"y":320,"width":0,"height":0,"rotation":0,"visible":true,"point":true,"properties":[{"name":"kind","type":"string","value":"tree.pine"},{"name":"fw","type":"int","value":16},{"name":"fh","type":"int","value":16},{"name":"solid","type":"bool","value":true}]},{"id":75,"name":"tree.small#1","type":"prop","x":88.0,"y":352,"width":0,"height":0,"rotation":0,"visible":true,"point":true,"properties":[{"name":"kind","type":"string","value":"tree.small"},{"name":"fw","type":"int","value":16},{"name":"fh","type":"int","value":16},{"name":"solid","type":"bool","value":true}]},{"id":76,"name":"rock.big#0","type":"prop","x":24.0,"y":64,"width":0,"height":0,"rotation":0,"visible":true,"point":true,"properties":[{"name":"kind","type":"string","value":"rock.big"},{"name":"fw","type":"int","value":48},{"name":"fh","type":"int","value":32},{"name":"solid","type":"bool","value":true}]},{"id":77,"name":"tree.small#1","type":"prop","x":8.0,"y":352,"width":0,"height":0,"rotation":0,"visible":true,"point":true,"properties":[{"name":"kind","type":"string","value":"tree.small"},{"name":"fw","type":"int","value":16},{"name":"fh","type":"int","value":16},{"name":"solid","type":"bool","value":true}]},{"id":78,"name":"tree.small#1","type":"prop","x":712.0,"y":272,"width":0,"height":0,"rotation":0,"visible":true,"point":true,"properties":[{"name":"kind","type":"string","value":"tree.small"},{"name":"fw","type":"int","value":16},{"name":"fh","type":"int","value":16},{"name":"solid","type":"bool","value":true}]},{"id":79,"name":"tree.small#1","type":"prop","x":600.0,"y":352,"width":0,"height":0,"rotation":0,"visible":true,"point":true,"properties":[{"name":"kind","type":"string","value":"tree.small"},{"name":"fw","type":"int","value":16},{"name":"fh","type":"int","value":16},{"name":"solid","type":"bool","value":true}]},{"id":80,"name":"tree.small#0","type":"prop","x":344.0,"y":16,"width":0,"height":0,"rotation":0,"visible":true,"point":true,"properties":[{"name":"kind","type":"string","value":"tree.small"},{"name":"fw","type":"int","value":16},{"name":"fh","type":"int","value":16},{"name":"solid","type":"bool","value":true}]},{"id":81,"name":"tree.small#1","type":"prop","x":680.0,"y":32,"width":0,"height":0,"rotation":0,"visible":true,"point":true,"properties":[{"name":"kind","type":"string","value":"tree.small"},{"name":"fw","type":"int","value":16},{"name":"fh","type":"int","value":16},{"name":"solid","type":"bool","value":true}]},{"id":82,"name":"tree.pine#1","type":"prop","x":504.0,"y":16,"width":0,"height":0,"rotation":0,"visible":true,"point":true,"properties":[{"name":"kind","type":"string","value":"tree.pine"},{"name":"fw","type":"int","value":16},{"name":"fh","type":"int","value":16},{"name":"solid","type":"bool","value":true}]},{"id":83,"name":"tree.big#1","type":"prop","x":104.0,"y":16,"width":0,"height":0,"rotation":0,"visible":true,"point":true,"properties":[{"name":"kind","type":"string","value":"tree.grove"},{"name":"fw","type":"int","value":48},{"name":"fh","type":"int","value":16},{"name":"solid","type":"bool","value":true}]},{"id":84,"name":"tree.pine#1","type":"prop","x":200.0,"y":336,"width":0,"height":0,"rotation":0,"visible":true,"point":true,"properties":[{"name":"kind","type":"string","value":"tree.pine"},{"name":"fw","type":"int","value":16},{"name":"fh","type":"int","value":16},{"name":"solid","type":"bool","value":true}]},{"id":85,"name":"tree.small#1","type":"prop","x":8.0,"y":96,"width":0,"height":0,"rotation":0,"visible":true,"point":true,"properties":[{"name":"kind","type":"string","value":"tree.small"},{"name":"fw","type":"int","value":16},{"name":"fh","type":"int","value":16},{"name":"solid","type":"bool","value":true}]},{"id":86,"name":"tree.small#1","type":"prop","x":152.0,"y":16,"width":0,"height":0,"rotation":0,"visible":true,"point":true,"properties":[{"name":"kind","type":"string","value":"tree.small"},{"name":"fw","type":"int","value":16},{"name":"fh","type":"int","value":16},{"name":"solid","type":"bool","value":true}]},{"id":87,"name":"tree.pine#1","type":"prop","x":168.0,"y":32,"width":0,"height":0,"rotation":0,"visible":true,"point":true,"properties":[{"name":"kind","type":"string","value":"tree.pine"},{"name":"fw","type":"int","value":16},{"name":"fh","type":"int","value":16},{"name":"solid","type":"bool","value":true}]},{"id":88,"name":"rock.big#0","type":"prop","x":504.0,"y":352,"width":0,"height":0,"rotation":0,"visible":true,"point":true,"properties":[{"name":"kind","type":"string","value":"rock.big"},{"name":"fw","type":"int","value":48},{"name":"fh","type":"int","value":32},{"name":"solid","type":"bool","value":true}]},{"id":89,"name":"rock.big#0","type":"prop","x":664.0,"y":352,"width":0,"height":0,"rotation":0,"visible":true,"point":true,"properties":[{"name":"kind","type":"string","value":"rock.big"},{"name":"fw","type":"int","value":48},{"name":"fh","type":"int","value":32},{"name":"solid","type":"bool","value":true}]},{"id":90,"name":"tree.pine#0","type":"prop","x":184.0,"y":16,"width":0,"height":0,"rotation":0,"visible":true,"point":true,"properties":[{"name":"kind","type":"string","value":"tree.pine"},{"name":"fw","type":"int","value":16},{"name":"fh","type":"int","value":16},{"name":"solid","type":"bool","value":true}]},{"id":91,"name":"tree.big#0","type":"prop","x":712.0,"y":144,"width":0,"height":0,"rotation":0,"visible":true,"point":true,"properties":[{"name":"kind","type":"string","value":"tree.grove"},{"name":"fw","type":"int","value":48},{"name":"fh","type":"int","value":16},{"name":"solid","type":"bool","value":true}]},{"id":92,"name":"tree.pine#1","type":"prop","x":728.0,"y":112,"width":0,"height":0,"rotation":0,"visible":true,"point":true,"properties":[{"name":"kind","type":"string","value":"tree.pine"},{"name":"fw","type":"int","value":16},{"name":"fh","type":"int","value":16},{"name":"solid","type":"bool","value":true}]},{"id":93,"name":"tree.pine#0","type":"prop","x":40.0,"y":16,"width":0,"height":0,"rotation":0,"visible":true,"point":true,"properties":[{"name":"kind","type":"string","value":"tree.pine"},{"name":"fw","type":"int","value":16},{"name":"fh","type":"int","value":16},{"name":"solid","type":"bool","value":true}]},{"id":94,"name":"tree.small#1","type":"prop","x":56.0,"y":336,"width":0,"height":0,"rotation":0,"visible":true,"point":true,"properties":[{"name":"kind","type":"string","value":"tree.small"},{"name":"fw","type":"int","value":16},{"name":"fh","type":"int","value":16},{"name":"solid","type":"bool","value":true}]},{"id":95,"name":"tree.big#1","type":"prop","x":440.0,"y":32,"width":0,"height":0,"rotation":0,"visible":true,"point":true,"properties":[{"name":"kind","type":"string","value":"tree.grove"},{"name":"fw","type":"int","value":48},{"name":"fh","type":"int","value":16},{"name":"solid","type":"bool","value":true}]},{"id":96,"name":"tree.small#0","type":"prop","x":40.0,"y":336,"width":0,"height":0,"rotation":0,"visible":true,"point":true,"properties":[{"name":"kind","type":"string","value":"tree.small"},{"name":"fw","type":"int","value":16},{"name":"fh","type":"int","value":16},{"name":"solid","type":"bool","value":true}]},{"id":97,"name":"tree.small#0","type":"prop","x":8.0,"y":304,"width":0,"height":0,"rotation":0,"visible":true,"point":true,"properties":[{"name":"kind","type":"string","value":"tree.small"},{"name":"fw","type":"int","value":16},{"name":"fh","type":"int","value":16},{"name":"solid","type":"bool","value":true}]},{"id":98,"name":"tree.small#1","type":"prop","x":280.0,"y":352,"width":0,"height":0,"rotation":0,"visible":true,"point":true,"properties":[{"name":"kind","type":"string","value":"tree.small"},{"name":"fw","type":"int","value":16},{"name":"fh","type":"int","value":16},{"name":"solid","type":"bool","value":true}]},{"id":99,"name":"tree.small#0","type":"prop","x":72.0,"y":32,"width":0,"height":0,"rotation":0,"visible":true,"point":true,"properties":[{"name":"kind","type":"string","value":"tree.small"},{"name":"fw","type":"int","value":16},{"name":"fh","type":"int","value":16},{"name":"solid","type":"bool","value":true}]},{"id":100,"name":"tree.big#0","type":"prop","x":40.0,"y":112,"width":0,"height":0,"rotation":0,"visible":true,"point":true,"properties":[{"name":"kind","type":"string","value":"tree.grove"},{"name":"fw","type":"int","value":48},{"name":"fh","type":"int","value":16},{"name":"solid","type":"bool","value":true}]},{"id":101,"name":"tree.small#0","type":"prop","x":216.0,"y":32,"width":0,"height":0,"rotation":0,"visible":true,"point":true,"properties":[{"name":"kind","type":"string","value":"tree.small"},{"name":"fw","type":"int","value":16},{"name":"fh","type":"int","value":16},{"name":"solid","type":"bool","value":true}]},{"id":102,"name":"tree.big#0","type":"prop","x":40.0,"y":272,"width":0,"height":0,"rotation":0,"visible":true,"point":true,"properties":[{"name":"kind","type":"string","value":"tree.grove"},{"name":"fw","type":"int","value":48},{"name":"fh","type":"int","value":16},{"name":"solid","type":"bool","value":true}]},{"id":103,"name":"tree.pine#0","type":"prop","x":712.0,"y":112,"width":0,"height":0,"rotation":0,"visible":true,"point":true,"properties":[{"name":"kind","type":"string","value":"tree.pine"},{"name":"fw","type":"int","value":16},{"name":"fh","type":"int","value":16},{"name":"solid","type":"bool","value":true}]},{"id":104,"name":"tree.small#0","type":"prop","x":376.0,"y":16,"width":0,"height":0,"rotation":0,"visible":true,"point":true,"properties":[{"name":"kind","type":"string","value":"tree.small"},{"name":"fw","type":"int","value":16},{"name":"fh","type":"int","value":16},{"name":"solid","type":"bool","value":true}]},{"id":105,"name":"tree.small#0","type":"prop","x":728.0,"y":272,"width":0,"height":0,"rotation":0,"visible":true,"point":true,"properties":[{"name":"kind","type":"string","value":"tree.small"},{"name":"fw","type":"int","value":16},{"name":"fh","type":"int","value":16},{"name":"solid","type":"bool","value":true}]},{"id":106,"name":"tree.pine#0","type":"prop","x":216.0,"y":16,"width":0,"height":0,"rotation":0,"visible":true,"point":true,"properties":[{"name":"kind","type":"string","value":"tree.pine"},{"name":"fw","type":"int","value":16},{"name":"fh","type":"int","value":16},{"name":"solid","type":"bool","value":true}]},{"id":107,"name":"tree.pine#0","type":"prop","x":24.0,"y":288,"width":0,"height":0,"rotation":0,"visible":true,"point":true,"properties":[{"name":"kind","type":"string","value":"tree.pine"},{"name":"fw","type":"int","value":16},{"name":"fh","type":"int","value":16},{"name":"solid","type":"bool","value":true}]},{"id":108,"name":"tree.pine#1","type":"prop","x":456.0,"y":16,"width":0,"height":0,"rotation":0,"visible":true,"point":true,"properties":[{"name":"kind","type":"string","value":"tree.pine"},{"name":"fw","type":"int","value":16},{"name":"fh","type":"int","value":16},{"name":"solid","type":"bool","value":true}]},{"id":109,"name":"tree.pine#0","type":"prop","x":120.0,"y":336,"width":0,"height":0,"rotation":0,"visible":true,"point":true,"properties":[{"name":"kind","type":"string","value":"tree.pine"},{"name":"fw","type":"int","value":16},{"name":"fh","type":"int","value":16},{"name":"solid","type":"bool","value":true}]},{"id":110,"name":"tree.small#1","type":"prop","x":152.0,"y":32,"width":0,"height":0,"rotation":0,"visible":true,"point":true,"properties":[{"name":"kind","type":"string","value":"tree.small"},{"name":"fw","type":"int","value":16},{"name":"fh","type":"int","value":16},{"name":"solid","type":"bool","value":true}]},{"id":111,"name":"tree.big#0","type":"prop","x":504.0,"y":32,"width":0,"height":0,"rotation":0,"visible":true,"point":true,"properties":[{"name":"kind","type":"string","value":"tree.grove"},{"name":"fw","type":"int","value":48},{"name":"fh","type":"int","value":16},{"name":"solid","type":"bool","value":true}]},{"id":112,"name":"tree.small#0","type":"prop","x":712.0,"y":128,"width":0,"height":0,"rotation":0,"visible":true,"point":true,"properties":[{"name":"kind","type":"string","value":"tree.small"},{"name":"fw","type":"int","value":16},{"name":"fh","type":"int","value":16},{"name":"solid","type":"bool","value":true}]},{"id":113,"name":"tree.small#1","type":"prop","x":616.0,"y":352,"width":0,"height":0,"rotation":0,"visible":true,"point":true,"properties":[{"name":"kind","type":"string","value":"tree.small"},{"name":"fw","type":"int","value":16},{"name":"fh","type":"int","value":16},{"name":"solid","type":"bool","value":true}]},{"id":114,"name":"tree.big#1","type":"prop","x":456.0,"y":336,"width":0,"height":0,"rotation":0,"visible":true,"point":true,"properties":[{"name":"kind","type":"string","value":"tree.grove"},{"name":"fw","type":"int","value":48},{"name":"fh","type":"int","value":16},{"name":"solid","type":"bool","value":true}]},{"id":115,"name":"tree.pine#1","type":"prop","x":440.0,"y":352,"width":0,"height":0,"rotation":0,"visible":true,"point":true,"properties":[{"name":"kind","type":"string","value":"tree.pine"},{"name":"fw","type":"int","value":16},{"name":"fh","type":"int","value":16},{"name":"solid","type":"bool","value":true}]},{"id":116,"name":"tree.pine#1","type":"prop","x":8.0,"y":80,"width":0,"height":0,"rotation":0,"visible":true,"point":true,"properties":[{"name":"kind","type":"string","value":"tree.pine"},{"name":"fw","type":"int","value":16},{"name":"fh","type":"int","value":16},{"name":"solid","type":"bool","value":true}]},{"id":117,"name":"tree.small#1","type":"prop","x":280.0,"y":336,"width":0,"height":0,"rotation":0,"visible":true,"point":true,"properties":[{"name":"kind","type":"string","value":"tree.small"},{"name":"fw","type":"int","value":16},{"name":"fh","type":"int","value":16},{"name":"solid","type":"bool","value":true}]},{"id":118,"name":"tree.small#1","type":"prop","x":168.0,"y":16,"width":0,"height":0,"rotation":0,"visible":true,"point":true,"properties":[{"name":"kind","type":"string","value":"tree.small"},{"name":"fw","type":"int","value":16},{"name":"fh","type":"int","value":16},{"name":"solid","type":"bool","value":true}]},{"id":119,"name":"tree.pine#1","type":"prop","x":424.0,"y":16,"width":0,"height":0,"rotation":0,"visible":true,"point":true,"properties":[{"name":"kind","type":"string","value":"tree.pine"},{"name":"fw","type":"int","value":16},{"name":"fh","type":"int","value":16},{"name":"solid","type":"bool","value":true}]},{"id":120,"name":"tree.big#1","type":"prop","x":168.0,"y":336,"width":0,"height":0,"rotation":0,"visible":true,"point":true,"properties":[{"name":"kind","type":"string","value":"tree.grove"},{"name":"fw","type":"int","value":48},{"name":"fh","type":"int","value":16},{"name":"solid","type":"bool","value":true}]},{"id":121,"name":"tree.small#0","type":"prop","x":216.0,"y":352,"width":0,"height":0,"rotation":0,"visible":true,"point":true,"properties":[{"name":"kind","type":"string","value":"tree.small"},{"name":"fw","type":"int","value":16},{"name":"fh","type":"int","value":16},{"name":"solid","type":"bool","value":true}]},{"id":122,"name":"tree.pine#0","type":"prop","x":408.0,"y":32,"width":0,"height":0,"rotation":0,"visible":true,"point":true,"properties":[{"name":"kind","type":"string","value":"tree.pine"},{"name":"fw","type":"int","value":16},{"name":"fh","type":"int","value":16},{"name":"solid","type":"bool","value":true}]},{"id":123,"name":"tree.pine#0","type":"prop","x":616.0,"y":16,"width":0,"height":0,"rotation":0,"visible":true,"point":true,"properties":[{"name":"kind","type":"string","value":"tree.pine"},{"name":"fw","type":"int","value":16},{"name":"fh","type":"int","value":16},{"name":"solid","type":"bool","value":true}]},{"id":124,"name":"tree.small#1","type":"prop","x":152.0,"y":352,"width":0,"height":0,"rotation":0,"visible":true,"point":true,"properties":[{"name":"kind","type":"string","value":"tree.small"},{"name":"fw","type":"int","value":16},{"name":"fh","type":"int","value":16},{"name":"solid","type":"bool","value":true}]},{"id":125,"name":"tree.small#1","type":"prop","x":600.0,"y":336,"width":0,"height":0,"rotation":0,"visible":true,"point":true,"properties":[{"name":"kind","type":"string","value":"tree.small"},{"name":"fw","type":"int","value":16},{"name":"fh","type":"int","value":16},{"name":"solid","type":"bool","value":true}]},{"id":126,"name":"tree.pine#1","type":"prop","x":728.0,"y":128,"width":0,"height":0,"rotation":0,"visible":true,"point":true,"properties":[{"name":"kind","type":"string","value":"tree.pine"},{"name":"fw","type":"int","value":16},{"name":"fh","type":"int","value":16},{"name":"solid","type":"bool","value":true}]},{"id":127,"name":"tree.big#0","type":"prop","x":40.0,"y":96,"width":0,"height":0,"rotation":0,"visible":true,"point":true,"properties":[{"name":"kind","type":"string","value":"tree.grove"},{"name":"fw","type":"int","value":48},{"name":"fh","type":"int","value":16},{"name":"solid","type":"bool","value":true}]},{"id":128,"name":"tree.big#0","type":"prop","x":40.0,"y":352,"width":0,"height":0,"rotation":0,"visible":true,"point":true,"properties":[{"name":"kind","type":"string","value":"tree.grove"},{"name":"fw","type":"int","value":48},{"name":"fh","type":"int","value":16},{"name":"solid","type":"bool","value":true}]},{"id":129,"name":"tree.small#0","type":"prop","x":216.0,"y":336,"width":0,"height":0,"rotation":0,"visible":true,"point":true,"properties":[{"name":"kind","type":"string","value":"tree.small"},{"name":"fw","type":"int","value":16},{"name":"fh","type":"int","value":16},{"name":"solid","type":"bool","value":true}]},{"id":130,"name":"tree.small#0","type":"prop","x":136.0,"y":336,"width":0,"height":0,"rotation":0,"visible":true,"point":true,"properties":[{"name":"kind","type":"string","value":"tree.small"},{"name":"fw","type":"int","value":16},{"name":"fh","type":"int","value":16},{"name":"solid","type":"bool","value":true}]},{"id":131,"name":"tree.pine#1","type":"prop","x":712.0,"y":16,"width":0,"height":0,"rotation":0,"visible":true,"point":true,"properties":[{"name":"kind","type":"string","value":"tree.pine"},{"name":"fw","type":"int","value":16},{"name":"fh","type":"int","value":16},{"name":"solid","type":"bool","value":true}]},{"id":132,"name":"tree.small#0","type":"prop","x":72.0,"y":336,"width":0,"height":0,"rotation":0,"visible":true,"point":true,"properties":[{"name":"kind","type":"string","value":"tree.small"},{"name":"fw","type":"int","value":16},{"name":"fh","type":"int","value":16},{"name":"solid","type":"bool","value":true}]},{"id":133,"name":"tree.pine#0","type":"prop","x":520.0,"y":16,"width":0,"height":0,"rotation":0,"visible":true,"point":true,"properties":[{"name":"kind","type":"string","value":"tree.pine"},{"name":"fw","type":"int","value":16},{"name":"fh","type":"int","value":16},{"name":"solid","type":"bool","value":true}]},{"id":134,"name":"tree.small#0","type":"prop","x":488.0,"y":16,"width":0,"height":0,"rotation":0,"visible":true,"point":true,"properties":[{"name":"kind","type":"string","value":"tree.small"},{"name":"fw","type":"int","value":16},{"name":"fh","type":"int","value":16},{"name":"solid","type":"bool","value":true}]},{"id":135,"name":"tree.small#0","type":"prop","x":712.0,"y":304,"width":0,"height":0,"rotation":0,"visible":true,"point":true,"properties":[{"name":"kind","type":"string","value":"tree.small"},{"name":"fw","type":"int","value":16},{"name":"fh","type":"int","value":16},{"name":"solid","type":"bool","value":true}]},{"id":136,"name":"tree.pine#0","type":"prop","x":728.0,"y":256,"width":0,"height":0,"rotation":0,"visible":true,"point":true,"properties":[{"name":"kind","type":"string","value":"tree.pine"},{"name":"fw","type":"int","value":16},{"name":"fh","type":"int","value":16},{"name":"solid","type":"bool","value":true}]},{"id":137,"name":"tree.small#1","type":"prop","x":200.0,"y":16,"width":0,"height":0,"rotation":0,"visible":true,"point":true,"properties":[{"name":"kind","type":"string","value":"tree.small"},{"name":"fw","type":"int","value":16},{"name":"fh","type":"int","value":16},{"name":"solid","type":"bool","value":true}]},{"id":138,"name":"tree.small#1","type":"prop","x":328.0,"y":16,"width":0,"height":0,"rotation":0,"visible":true,"point":true,"properties":[{"name":"kind","type":"string","value":"tree.small"},{"name":"fw","type":"int","value":16},{"name":"fh","type":"int","value":16},{"name":"solid","type":"bool","value":true}]},{"id":139,"name":"rock.big#0","type":"prop","x":104.0,"y":48,"width":0,"height":0,"rotation":0,"visible":true,"point":true,"properties":[{"name":"kind","type":"string","value":"rock.big"},{"name":"fw","type":"int","value":48},{"name":"fh","type":"int","value":32},{"name":"solid","type":"bool","value":true}]},{"id":140,"name":"tree.pine#0","type":"prop","x":136.0,"y":352,"width":0,"height":0,"rotation":0,"visible":true,"point":true,"properties":[{"name":"kind","type":"string","value":"tree.pine"},{"name":"fw","type":"int","value":16},{"name":"fh","type":"int","value":16},{"name":"solid","type":"bool","value":true}]},{"id":141,"name":"tree.pine#0","type":"prop","x":440.0,"y":16,"width":0,"height":0,"rotation":0,"visible":true,"point":true,"properties":[{"name":"kind","type":"string","value":"tree.pine"},{"name":"fw","type":"int","value":16},{"name":"fh","type":"int","value":16},{"name":"solid","type":"bool","value":true}]},{"id":142,"name":"tree.small#1","type":"prop","x":24.0,"y":16,"width":0,"height":0,"rotation":0,"visible":true,"point":true,"properties":[{"name":"kind","type":"string","value":"tree.small"},{"name":"fw","type":"int","value":16},{"name":"fh","type":"int","value":16},{"name":"solid","type":"bool","value":true}]},{"id":143,"name":"tree.pine#1","type":"prop","x":56.0,"y":16,"width":0,"height":0,"rotation":0,"visible":true,"point":true,"properties":[{"name":"kind","type":"string","value":"tree.pine"},{"name":"fw","type":"int","value":16},{"name":"fh","type":"int","value":16},{"name":"solid","type":"bool","value":true}]},{"id":144,"name":"tree.small#0","type":"prop","x":120.0,"y":352,"width":0,"height":0,"rotation":0,"visible":true,"point":true,"properties":[{"name":"kind","type":"string","value":"tree.small"},{"name":"fw","type":"int","value":16},{"name":"fh","type":"int","value":16},{"name":"solid","type":"bool","value":true}]},{"id":145,"name":"tree.big#1","type":"prop","x":24.0,"y":240,"width":0,"height":0,"rotation":0,"visible":true,"point":true,"properties":[{"name":"kind","type":"string","value":"tree.grove"},{"name":"fw","type":"int","value":48},{"name":"fh","type":"int","value":16},{"name":"solid","type":"bool","value":true}]},{"id":146,"name":"plant.grass#0","type":"prop","x":600.0,"y":144,"width":0,"height":0,"rotation":0,"visible":true,"point":true,"properties":[{"name":"kind","type":"string","value":"plant.grass"},{"name":"fw","type":"int","value":16},{"name":"fh","type":"int","value":16},{"name":"solid","type":"bool","value":false}]},{"id":147,"name":"plant.grass#0","type":"prop","x":88.0,"y":96,"width":0,"height":0,"rotation":0,"visible":true,"point":true,"properties":[{"name":"kind","type":"string","value":"plant.grass"},{"name":"fw","type":"int","value":16},{"name":"fh","type":"int","value":16},{"name":"solid","type":"bool","value":false}]},{"id":148,"name":"plant.grass#0","type":"prop","x":440.0,"y":80,"width":0,"height":0,"rotation":0,"visible":true,"point":true,"properties":[{"name":"kind","type":"string","value":"plant.grass"},{"name":"fw","type":"int","value":16},{"name":"fh","type":"int","value":16},{"name":"solid","type":"bool","value":false}]},{"id":149,"name":"plant.grass#0","type":"prop","x":232.0,"y":240,"width":0,"height":0,"rotation":0,"visible":true,"point":true,"properties":[{"name":"kind","type":"string","value":"plant.grass"},{"name":"fw","type":"int","value":16},{"name":"fh","type":"int","value":16},{"name":"solid","type":"bool","value":false}]},{"id":150,"name":"plant.grass#0","type":"prop","x":696.0,"y":128,"width":0,"height":0,"rotation":0,"visible":true,"point":true,"properties":[{"name":"kind","type":"string","value":"plant.grass"},{"name":"fw","type":"int","value":16},{"name":"fh","type":"int","value":16},{"name":"solid","type":"bool","value":false}]},{"id":151,"name":"plant.grass#0","type":"prop","x":104.0,"y":192,"width":0,"height":0,"rotation":0,"visible":true,"point":true,"properties":[{"name":"kind","type":"string","value":"plant.grass"},{"name":"fw","type":"int","value":16},{"name":"fh","type":"int","value":16},{"name":"solid","type":"bool","value":false}]},{"id":152,"name":"plant.grass#0","type":"prop","x":280.0,"y":112,"width":0,"height":0,"rotation":0,"visible":true,"point":true,"properties":[{"name":"kind","type":"string","value":"plant.grass"},{"name":"fw","type":"int","value":16},{"name":"fh","type":"int","value":16},{"name":"solid","type":"bool","value":false}]},{"id":153,"name":"plant.grass#0","type":"prop","x":552.0,"y":224,"width":0,"height":0,"rotation":0,"visible":true,"point":true,"properties":[{"name":"kind","type":"string","value":"plant.grass"},{"name":"fw","type":"int","value":16},{"name":"fh","type":"int","value":16},{"name":"solid","type":"bool","value":false}]},{"id":154,"name":"plant.grass#0","type":"prop","x":440.0,"y":240,"width":0,"height":0,"rotation":0,"visible":true,"point":true,"properties":[{"name":"kind","type":"string","value":"plant.grass"},{"name":"fw","type":"int","value":16},{"name":"fh","type":"int","value":16},{"name":"solid","type":"bool","value":false}]},{"id":155,"name":"plant.grass#0","type":"prop","x":216.0,"y":272,"width":0,"height":0,"rotation":0,"visible":true,"point":true,"properties":[{"name":"kind","type":"string","value":"plant.grass"},{"name":"fw","type":"int","value":16},{"name":"fh","type":"int","value":16},{"name":"solid","type":"bool","value":false}]},{"id":156,"name":"plant.grass#0","type":"prop","x":280.0,"y":160,"width":0,"height":0,"rotation":0,"visible":true,"point":true,"properties":[{"name":"kind","type":"string","value":"plant.grass"},{"name":"fw","type":"int","value":16},{"name":"fh","type":"int","value":16},{"name":"solid","type":"bool","value":false}]},{"id":157,"name":"plant.grass#0","type":"prop","x":424.0,"y":80,"width":0,"height":0,"rotation":0,"visible":true,"point":true,"properties":[{"name":"kind","type":"string","value":"plant.grass"},{"name":"fw","type":"int","value":16},{"name":"fh","type":"int","value":16},{"name":"solid","type":"bool","value":false}]},{"id":158,"name":"plant.grass#0","type":"prop","x":600.0,"y":96,"width":0,"height":0,"rotation":0,"visible":true,"point":true,"properties":[{"name":"kind","type":"string","value":"plant.grass"},{"name":"fw","type":"int","value":16},{"name":"fh","type":"int","value":16},{"name":"solid","type":"bool","value":false}]},{"id":159,"name":"plant.grass#0","type":"prop","x":152.0,"y":256,"width":0,"height":0,"rotation":0,"visible":true,"point":true,"properties":[{"name":"kind","type":"string","value":"plant.grass"},{"name":"fw","type":"int","value":16},{"name":"fh","type":"int","value":16},{"name":"solid","type":"bool","value":false}]},{"id":160,"name":"plant.grass#0","type":"prop","x":472.0,"y":256,"width":0,"height":0,"rotation":0,"visible":true,"point":true,"properties":[{"name":"kind","type":"string","value":"plant.grass"},{"name":"fw","type":"int","value":16},{"name":"fh","type":"int","value":16},{"name":"solid","type":"bool","value":false}]},{"id":161,"name":"plant.grass#0","type":"prop","x":600.0,"y":240,"width":0,"height":0,"rotation":0,"visible":true,"point":true,"properties":[{"name":"kind","type":"string","value":"plant.grass"},{"name":"fw","type":"int","value":16},{"name":"fh","type":"int","value":16},{"name":"solid","type":"bool","value":false}]},{"id":162,"name":"plant.grass#0","type":"prop","x":296.0,"y":288,"width":0,"height":0,"rotation":0,"visible":true,"point":true,"properties":[{"name":"kind","type":"string","value":"plant.grass"},{"name":"fw","type":"int","value":16},{"name":"fh","type":"int","value":16},{"name":"solid","type":"bool","value":false}]},{"id":163,"name":"plant.grass#0","type":"prop","x":680.0,"y":128,"width":0,"height":0,"rotation":0,"visible":true,"point":true,"properties":[{"name":"kind","type":"string","value":"plant.grass"},{"name":"fw","type":"int","value":16},{"name":"fh","type":"int","value":16},{"name":"solid","type":"bool","value":false}]},{"id":164,"name":"plant.grass#0","type":"prop","x":72.0,"y":48,"width":0,"height":0,"rotation":0,"visible":true,"point":true,"properties":[{"name":"kind","type":"string","value":"plant.grass"},{"name":"fw","type":"int","value":16},{"name":"fh","type":"int","value":16},{"name":"solid","type":"bool","value":false}]},{"id":165,"name":"plant.grass#0","type":"prop","x":168.0,"y":320,"width":0,"height":0,"rotation":0,"visible":true,"point":true,"properties":[{"name":"kind","type":"string","value":"plant.grass"},{"name":"fw","type":"int","value":16},{"name":"fh","type":"int","value":16},{"name":"solid","type":"bool","value":false}]},{"id":166,"name":"plant.grass#0","type":"prop","x":408.0,"y":256,"width":0,"height":0,"rotation":0,"visible":true,"point":true,"properties":[{"name":"kind","type":"string","value":"plant.grass"},{"name":"fw","type":"int","value":16},{"name":"fh","type":"int","value":16},{"name":"solid","type":"bool","value":false}]},{"id":167,"name":"plant.grass#0","type":"prop","x":280.0,"y":64,"width":0,"height":0,"rotation":0,"visible":true,"point":true,"properties":[{"name":"kind","type":"string","value":"plant.grass"},{"name":"fw","type":"int","value":16},{"name":"fh","type":"int","value":16},{"name":"solid","type":"bool","value":false}]},{"id":168,"name":"plant.bush#0","type":"prop","x":152.0,"y":64,"width":0,"height":0,"rotation":0,"visible":true,"point":true,"properties":[{"name":"kind","type":"string","value":"plant.bush"},{"name":"fw","type":"int","value":16},{"name":"fh","type":"int","value":16},{"name":"solid","type":"bool","value":false}]},{"id":169,"name":"plant.bush#0","type":"prop","x":664.0,"y":288,"width":0,"height":0,"rotation":0,"visible":true,"point":true,"properties":[{"name":"kind","type":"string","value":"plant.bush"},{"name":"fw","type":"int","value":16},{"name":"fh","type":"int","value":16},{"name":"solid","type":"bool","value":false}]},{"id":170,"name":"plant.bush#0","type":"prop","x":600.0,"y":288,"width":0,"height":0,"rotation":0,"visible":true,"point":true,"properties":[{"name":"kind","type":"string","value":"plant.bush"},{"name":"fw","type":"int","value":16},{"name":"fh","type":"int","value":16},{"name":"solid","type":"bool","value":false}]},{"id":171,"name":"plant.bush#0","type":"prop","x":360.0,"y":112,"width":0,"height":0,"rotation":0,"visible":true,"point":true,"properties":[{"name":"kind","type":"string","value":"plant.bush"},{"name":"fw","type":"int","value":16},{"name":"fh","type":"int","value":16},{"name":"solid","type":"bool","value":false}]},{"id":172,"name":"plant.bush#0","type":"prop","x":248.0,"y":80,"width":0,"height":0,"rotation":0,"visible":true,"point":true,"properties":[{"name":"kind","type":"string","value":"plant.bush"},{"name":"fw","type":"int","value":16},{"name":"fh","type":"int","value":16},{"name":"solid","type":"bool","value":false}]},{"id":173,"name":"plant.bush#0","type":"prop","x":248.0,"y":304,"width":0,"height":0,"rotation":0,"visible":true,"point":true,"properties":[{"name":"kind","type":"string","value":"plant.bush"},{"name":"fw","type":"int","value":16},{"name":"fh","type":"int","value":16},{"name":"solid","type":"bool","value":false}]},{"id":174,"name":"plant.bush#0","type":"prop","x":184.0,"y":64,"width":0,"height":0,"rotation":0,"visible":true,"point":true,"properties":[{"name":"kind","type":"string","value":"plant.bush"},{"name":"fw","type":"int","value":16},{"name":"fh","type":"int","value":16},{"name":"solid","type":"bool","value":false}]},{"id":175,"name":"plant.bush#0","type":"prop","x":664.0,"y":128,"width":0,"height":0,"rotation":0,"visible":true,"point":true,"properties":[{"name":"kind","type":"string","value":"plant.bush"},{"name":"fw","type":"int","value":16},{"name":"fh","type":"int","value":16},{"name":"solid","type":"bool","value":false}]},{"id":176,"name":"plant.bush#0","type":"prop","x":344.0,"y":144,"width":0,"height":0,"rotation":0,"visible":true,"point":true,"properties":[{"name":"kind","type":"string","value":"plant.bush"},{"name":"fw","type":"int","value":16},{"name":"fh","type":"int","value":16},{"name":"solid","type":"bool","value":false}]},{"id":177,"name":"plant.bush#0","type":"prop","x":184.0,"y":144,"width":0,"height":0,"rotation":0,"visible":true,"point":true,"properties":[{"name":"kind","type":"string","value":"plant.bush"},{"name":"fw","type":"int","value":16},{"name":"fh","type":"int","value":16},{"name":"solid","type":"bool","value":false}]},{"id":178,"name":"plant.bush#0","type":"prop","x":344.0,"y":96,"width":0,"height":0,"rotation":0,"visible":true,"point":true,"properties":[{"name":"kind","type":"string","value":"plant.bush"},{"name":"fw","type":"int","value":16},{"name":"fh","type":"int","value":16},{"name":"solid","type":"bool","value":false}]},{"id":179,"name":"plant.bush#0","type":"prop","x":600.0,"y":80,"width":0,"height":0,"rotation":0,"visible":true,"point":true,"properties":[{"name":"kind","type":"string","value":"plant.bush"},{"name":"fw","type":"int","value":16},{"name":"fh","type":"int","value":16},{"name":"solid","type":"bool","value":false}]},{"id":180,"name":"rock.small#0","type":"prop","x":264.0,"y":96,"width":0,"height":0,"rotation":0,"visible":true,"point":true,"properties":[{"name":"kind","type":"string","value":"rock.small"},{"name":"fw","type":"int","value":16},{"name":"fh","type":"int","value":16},{"name":"solid","type":"bool","value":false}]},{"id":181,"name":"rock.small#0","type":"prop","x":264.0,"y":272,"width":0,"height":0,"rotation":0,"visible":true,"point":true,"properties":[{"name":"kind","type":"string","value":"rock.small"},{"name":"fw","type":"int","value":16},{"name":"fh","type":"int","value":16},{"name":"solid","type":"bool","value":false}]},{"id":182,"name":"rock.small#0","type":"prop","x":40.0,"y":304,"width":0,"height":0,"rotation":0,"visible":true,"point":true,"properties":[{"name":"kind","type":"string","value":"rock.small"},{"name":"fw","type":"int","value":16},{"name":"fh","type":"int","value":16},{"name":"solid","type":"bool","value":false}]},{"id":183,"name":"rock.small#0","type":"prop","x":296.0,"y":304,"width":0,"height":0,"rotation":0,"visible":true,"point":true,"properties":[{"name":"kind","type":"string","value":"rock.small"},{"name":"fw","type":"int","value":16},{"name":"fh","type":"int","value":16},{"name":"solid","type":"bool","value":false}]},{"id":184,"name":"rock.small#0","type":"prop","x":376.0,"y":128,"width":0,"height":0,"rotation":0,"visible":true,"point":true,"properties":[{"name":"kind","type":"string","value":"rock.small"},{"name":"fw","type":"int","value":16},{"name":"fh","type":"int","value":16},{"name":"solid","type":"bool","value":false}]},{"id":185,"name":"rock.small#0","type":"prop","x":264.0,"y":160,"width":0,"height":0,"rotation":0,"visible":true,"point":true,"properties":[{"name":"kind","type":"string","value":"rock.small"},{"name":"fw","type":"int","value":16},{"name":"fh","type":"int","value":16},{"name":"solid","type":"bool","value":false}]},{"id":186,"name":"tree.small#1","type":"prop","x":424.0,"y":160,"width":0,"height":0,"rotation":0,"visible":true,"point":true,"properties":[{"name":"kind","type":"string","value":"tree.small"},{"name":"fw","type":"int","value":16},{"name":"fh","type":"int","value":16},{"name":"solid","type":"bool","value":true}]},{"id":187,"name":"tree.small#0","type":"prop","x":536.0,"y":96,"width":0,"height":0,"rotation":0,"visible":true,"point":true,"properties":[{"name":"kind","type":"string","value":"tree.small"},{"name":"fw","type":"int","value":16},{"name":"fh","type":"int","value":16},{"name":"solid","type":"bool","value":true}]},{"id":188,"name":"tree.small#1","type":"prop","x":360.0,"y":272,"width":0,"height":0,"rotation":0,"visible":true,"point":true,"properties":[{"name":"kind","type":"string","value":"tree.small"},{"name":"fw","type":"int","value":16},{"name":"fh","type":"int","value":16},{"name":"solid","type":"bool","value":true}]},{"id":189,"name":"tree.small#0","type":"prop","x":424.0,"y":288,"width":0,"height":0,"rotation":0,"visible":true,"point":true,"properties":[{"name":"kind","type":"string","value":"tree.small"},{"name":"fw","type":"int","value":16},{"name":"fh","type":"int","value":16},{"name":"solid","type":"bool","value":true}]},{"id":190,"name":"tree.small#0","type":"prop","x":552.0,"y":144,"width":0,"height":0,"rotation":0,"visible":true,"point":true,"properties":[{"name":"kind","type":"string","value":"tree.small"},{"name":"fw","type":"int","value":16},{"name":"fh","type":"int","value":16},{"name":"solid","type":"bool","value":true}]},{"id":191,"name":"tree.small#0","type":"prop","x":328.0,"y":240,"width":0,"height":0,"rotation":0,"visible":true,"point":true,"properties":[{"name":"kind","type":"string","value":"tree.small"},{"name":"fw","type":"int","value":16},{"name":"fh","type":"int","value":16},{"name":"solid","type":"bool","value":true}]},{"id":192,"name":"plant.flower#0","type":"prop","x":312.0,"y":304,"width":0,"height":0,"rotation":0,"visible":true,"point":true,"properties":[{"name":"kind","type":"string","value":"plant.flower"},{"name":"fw","type":"int","value":16},{"name":"fh","type":"int","value":16},{"name":"solid","type":"bool","value":false}]},{"id":193,"name":"plant.flower#0","type":"prop","x":520.0,"y":144,"width":0,"height":0,"rotation":0,"visible":true,"point":true,"properties":[{"name":"kind","type":"string","value":"plant.flower"},{"name":"fw","type":"int","value":16},{"name":"fh","type":"int","value":16},{"name":"solid","type":"bool","value":false}]},{"id":194,"name":"plant.flower#0","type":"prop","x":456.0,"y":272,"width":0,"height":0,"rotation":0,"visible":true,"point":true,"properties":[{"name":"kind","type":"string","value":"plant.flower"},{"name":"fw","type":"int","value":16},{"name":"fh","type":"int","value":16},{"name":"solid","type":"bool","value":false}]},{"id":195,"name":"plant.flower#0","type":"prop","x":440.0,"y":48,"width":0,"height":0,"rotation":0,"visible":true,"point":true,"properties":[{"name":"kind","type":"string","value":"plant.flower"},{"name":"fw","type":"int","value":16},{"name":"fh","type":"int","value":16},{"name":"solid","type":"bool","value":false}]},{"id":196,"name":"plant.flower#0","type":"prop","x":504.0,"y":176,"width":0,"height":0,"rotation":0,"visible":true,"point":true,"properties":[{"name":"kind","type":"string","value":"plant.flower"},{"name":"fw","type":"int","value":16},{"name":"fh","type":"int","value":16},{"name":"solid","type":"bool","value":false}]},{"id":197,"name":"plant.flower#0","type":"prop","x":88.0,"y":272,"width":0,"height":0,"rotation":0,"visible":true,"point":true,"properties":[{"name":"kind","type":"string","value":"plant.flower"},{"name":"fw","type":"int","value":16},{"name":"fh","type":"int","value":16},{"name":"solid","type":"bool","value":false}]},{"id":198,"name":"cart","type":"spot","x":336,"y":171.2,"width":0,"height":0,"rotation":0,"visible":true,"point":true,"properties":[{"name":"node","type":"string","value":"1-n5"},{"name":"label","type":"string","value":"A prisoner's cart"},{"name":"label_zh","type":"string","value":"囚车"}]},{"id":199,"name":"exit-qingzhou","type":"exit","x":0,"y":144,"width":16,"height":32,"rotation":0,"visible":true,"properties":[{"name":"to","type":"string","value":"qingzhou"},{"name":"side","type":"string","value":"W"}]},{"id":200,"name":"exit-qiao","type":"exit","x":368,"y":336,"width":32,"height":16,"rotation":0,"visible":true,"properties":[{"name":"to","type":"string","value":"qiao"},{"name":"side","type":"string","value":"S"}]},{"id":201,"name":"exit-envoys-road","type":"exit","x":720,"y":176,"width":16,"height":32,"rotation":0,"visible":true,"properties":[{"name":"to","type":"string","value":"envoys-road"},{"name":"side","type":"string","value":"E"}]},{"id":202,"name":"exit-guangzong-road--luzhi-tent","type":"exit","x":209.6,"y":157.6,"width":12.8,"height":7.2,"rotation":0,"visible":true,"properties":[{"name":"to","type":"string","value":"guangzong-road--luzhi-tent"},{"name":"side","type":"string","value":"N"}]},{"id":203,"name":"entry-qingzhou","type":"entry","x":40.0,"y":174.4,"width":0,"height":0,"rotation":0,"visible":true,"point":true,"properties":[{"name":"from","type":"string","value":"qingzhou"}]},{"id":204,"name":"entry-qiao","type":"entry","x":392.0,"y":318.4,"width":0,"height":0,"rotation":0,"visible":true,"point":true,"properties":[{"name":"from","type":"string","value":"qiao"}]},{"id":205,"name":"entry-envoys-road","type":"entry","x":696.0,"y":206.4,"width":0,"height":0,"rotation":0,"visible":true,"point":true,"properties":[{"name":"from","type":"string","value":"envoys-road"}]},{"id":206,"name":"entry","type":"entry","x":344.0,"y":190.4,"width":0,"height":0,"rotation":0,"visible":true,"point":true},{"id":207,"name":"entry-guangzong-road--luzhi-tent","type":"entry","x":216.0,"y":174.4,"width":0,"height":0,"rotation":0,"visible":true,"point":true,"properties":[{"name":"from","type":"string","value":"guangzong-road--luzhi-tent"}]}]}]}