{"type":"map","version":"1.10","tiledversion":"1.10.2","orientation":"orthogonal","renderorder":"right-down","width":40,"height":30,"tilewidth":16,"tileheight":16,"infinite":false,"nextlayerid":5,"nextobjectid":219,"properties":[{"name":"kit","type":"string","value":"xianxia"},{"name":"source","type":"string","value":"qingzhou.map.json"}],"tilesets":[{"firstgid":1,"name":"x_tiles","tilewidth":16,"tileheight":16,"columns":4,"tilecount":20,"margin":0,"spacing":0,"image":"../../../../assets/tk/xianxia/tiles.png","imagewidth":64,"imageheight":80},{"firstgid":21,"name":"x_edges","tilewidth":16,"tileheight":16,"columns":30,"tilecount":300,"margin":0,"spacing":0,"image":"../../../../assets/tk/xianxia/edges.png","imagewidth":480,"imageheight":160}],"layers":[{"id":1,"name":"ground","type":"tilelayer","width":40,"height":30,"x":0,"y":0,"opacity":1,"visible":true,"data":[1,4,2,1,1,2,1,3,3,1,3,1,1,1,4,1,2,1,3,1,3,1,1,2,3,2,3,4,2,1,1,1,1,4,2,2,2,4,1,1,2,4,1,2,1,2,3,1,1,3,1,3,1,2,1,4,1,4,4,3,1,1,3,4,1,3,3,2,1,1,1,1,2,3,4,4,1,1,1,4,3,1,4,2,1,2,3,1,1,1,4,4,1,1,4,1,4,2,4,1,3,2,2,1,1,2,1,2,1,2,1,2,4,1,3,1,1,1,1,1,4,1,1,3,1,1,1,1,1,1,4,1,1,2,1,1,1,4,3,4,1,1,2,1,1,1,4,2,3,1,4,1,1,3,1,2,1,1,1,1,3,1,4,3,1,1,1,1,1,2,1,1,1,1,3,4,1,2,1,4,3,1,3,1,3,2,3,2,3,1,4,4,4,4,1,1,2,2,1,1,4,3,1,1,1,2,2,1,3,1,3,3,2,1,2,2,4,3,1,1,3,1,1,2,1,1,1,1,1,1,1,4,2,1,1,1,1,1,1,3,2,4,1,1,3,3,1,3,3,2,4,1,1,1,1,3,1,1,4,3,1,2,3,2,4,2,1,2,1,2,1,2,3,1,4,1,1,1,4,2,1,2,1,1,2,1,2,1,1,1,4,1,2,1,2,4,2,3,2,4,1,3,3,1,4,4,3,2,4,4,1,1,2,3,1,1,1,3,1,2,2,1,1,3,4,3,4,3,1,2,2,1,3,1,1,1,1,1,1,3,3,4,1,1,1,1,1,1,1,1,3,3,1,1,1,1,2,3,2,1,1,1,4,3,2,4,2,2,3,1,1,2,4,4,4,1,1,3,1,3,1,1,4,1,1,1,4,1,1,4,1,3,1,1,2,1,4,1,1,4,2,1,1,3,3,3,2,1,3,3,2,1,4,3,1,1,4,3,1,1,1,1,4,1,1,2,1,2,1,1,1,1,4,1,1,1,4,3,1,1,4,1,1,1,1,2,4,4,1,2,3,1,1,3,2,3,1,1,1,2,1,2,4,1,1,4,3,1,1,1,4,1,3,1,3,3,3,2,1,1,2,3,3,2,4,1,1,1,4,2,1,3,1,2,2,4,2,4,1,1,1,1,1,4,4,1,1,4,3,1,4,1,1,3,1,4,4,2,1,2,1,4,1,1,1,2,1,2,4,1,3,3,4,2,1,1,1,2,2,3,2,4,4,2,3,1,4,1,3,1,2,1,3,1,1,4,1,2,1,1,4,1,2,4,1,1,2,1,3,4,3,1,2,1,1,2,1,1,1,3,1,2,1,3,1,2,1,1,4,4,1,4,1,3,3,1,1,1,1,1,3,1,4,4,3,1,3,1,3,1,1,1,1,4,1,4,1,4,4,1,3,1,3,2,2,1,1,2,1,2,1,4,4,1,1,2,2,3,1,4,3,3,2,1,3,4,1,1,3,1,2,1,1,2,3,3,2,2,3,1,4,4,1,1,4,3,3,1,1,1,1,1,4,1,1,1,1,1,4,1,3,2,2,4,3,3,1,1,4,1,1,4,1,1,3,4,1,2,2,2,4,1,4,3,4,1,1,2,3,1,1,2,4,2,1,1,1,1,4,2,4,4,4,1,2,4,3,1,2,2,1,1,1,3,3,1,3,4,3,3,1,2,1,4,2,1,1,1,2,2,3,1,1,1,3,1,4,3,2,1,1,1,3,2,2,2,2,1,1,1,3,1,3,3,3,1,1,3,1,2,3,1,2,3,3,1,3,1,2,1,1,1,3,4,1,4,1,1,1,1,1,1,1,1,1,1,3,1,3,2,1,3,1,2,1,3,4,4,1,1,3,1,3,4,1,4,2,2,4,1,1,3,1,1,2,3,2,1,1,1,2,1,1,1,1,4,3,1,1,1,1,1,4,2,1,1,1,2,1,1,2,2,1,4,2,1,1,1,1,1,3,3,2,2,3,2,1,1,1,4,3,1,4,2,2,1,2,4,3,3,4,1,1,1,1,1,1,2,1,3,2,1,3,2,1,1,4,1,1,2,1,1,1,4,2,4,2,4,4,1,2,1,2,1,1,1,1,2,4,3,1,2,1,1,4,3,2,1,4,1,1,2,1,3,3,2,4,1,1,1,4,1,1,1,1,3,3,4,4,2,1,2,2,1,3,3,1,2,3,1,3,3,1,1,3,1,1,1,4,4,4,1,3,1,1,1,1,4,1,4,1,4,4,3,2,3,2,3,3,1,4,4,2,1,1,4,4,4,1,3,1,1,1,1,4,2,3,1,4,4,1,1,1,2,2,3,2,1,1,2,3,4,1,2,2,3,1,2,1,3,2,1,3,1,1,1,3,4,1,3,1,1,3,2,4,1,1,1,1,2,1,2,3,4,1,1,2,3,3,1,4,3,1,4,3,1,2,3,1,1,1,3,2,1,4,1,1,4,1,1,3,2,4,1,2,3,1,2,3,3,3,2,1,2,2,3,4,1,4,3,1,4,2,3,1,1,4,1,1,3,1,4,1,4,2,1,1,3,1,1,1,3,4,2,1,4,3,2,1,4,1,4,2,3,3,1,1,2,2,1,1,1,1,1,1,3,4,1,1,1,1,4,2,1,1,1,3,3,3,2,1,1,1,1,4,1,2,1,1,2,3,3,1,1,3,1,3,1,1,1,4,1,1,2,2,2,1,1,4,3]},{"id":2,"name":"sand","type":"tilelayer","width":40,"height":30,"x":0,"y":0,"opacity":1,"visible":true,"data":[0,0,0,0,0,0,0,0,0,0,0,0,0,0,0,0,0,0,0,0,0,0,0,0,0,0,0,0,0,0,0,0,0,0,0,0,0,0,0,0,0,0,0,0,0,0,0,0,0,0,0,0,0,0,0,0,0,0,0,0,0,0,0,0,0,0,0,0,0,0,0,0,0,0,0,0,0,0,0,0,0,0,0,0,0,0,0,0,0,0,0,0,0,0,0,0,0,0,0,0,0,0,0,0,0,0,0,0,0,0,0,0,0,0,0,0,0,0,0,0,0,0,0,0,0,0,0,0,0,0,0,0,0,0,0,0,0,0,0,0,0,0,0,0,0,0,0,0,0,0,0,0,0,0,0,0,0,0,0,0,0,0,0,0,0,0,0,0,0,0,0,0,0,0,0,0,0,0,0,0,0,0,0,0,0,0,0,0,0,0,0,0,0,0,0,0,0,0,0,0,0,0,0,0,0,0,0,0,0,0,0,0,0,0,0,0,0,0,0,0,0,0,0,0,0,0,0,0,0,0,0,0,0,0,0,0,0,0,0,0,0,0,0,0,0,0,0,0,0,0,0,0,0,0,0,0,0,0,0,0,0,0,0,0,0,0,0,0,0,0,0,0,0,0,0,0,0,0,0,0,0,0,0,0,0,0,0,0,0,0,0,0,0,0,0,0,0,0,0,0,0,0,0,0,0,0,0,0,0,0,0,0,0,0,0,0,0,0,0,0,0,0,0,0,0,0,0,0,0,0,0,0,0,0,0,0,0,0,0,0,0,0,0,0,0,0,0,0,0,0,0,0,0,0,0,0,0,0,0,0,0,0,0,0,0,0,0,0,0,0,33,65,91,0,0,0,0,0,0,0,0,0,0,0,0,0,0,0,0,0,0,0,0,0,0,0,0,0,0,0,0,0,0,0,0,0,0,0,0,0,0,0,68,0,0,0,0,0,0,0,0,0,0,0,0,0,0,0,0,0,0,0,0,0,0,0,0,0,0,0,0,0,0,0,0,0,0,0,0,0,0,0,67,0,0,0,0,0,0,0,0,0,0,0,0,0,0,0,0,0,0,0,0,0,0,0,0,0,0,0,0,0,0,0,0,0,0,0,0,0,37,0,68,0,0,0,0,38,0,0,0,0,0,0,0,0,0,0,0,0,0,0,0,0,0,0,0,0,0,0,0,0,0,0,0,0,0,0,0,0,67,0,67,0,0,0,0,67,0,0,0,0,0,0,0,0,0,0,0,38,0,0,0,0,0,38,0,0,0,0,219,219,219,220,220,220,219,219,219,219,273,219,274,220,220,219,219,273,220,128,0,0,0,0,0,0,0,0,0,67,0,0,0,0,0,67,0,0,0,0,187,187,188,187,188,187,187,187,188,188,187,188,187,188,275,303,303,303,303,302,219,128,0,0,38,0,0,0,100,274,220,220,219,220,220,273,220,219,219,219,0,0,0,0,0,0,0,0,0,0,0,0,0,0,190,303,303,303,303,303,303,241,0,0,68,0,0,0,190,278,187,187,187,188,187,188,188,188,187,188,0,0,0,0,0,0,0,0,0,0,0,0,0,0,190,303,303,303,303,303,303,302,219,219,273,219,220,220,279,241,0,0,0,0,0,0,0,0,0,0,0,0,0,0,0,0,0,0,0,0,0,0,33,66,246,303,303,303,303,303,303,277,187,187,188,187,188,188,187,123,0,0,0,0,0,0,0,0,0,0,0,0,0,0,0,0,0,0,0,0,0,0,0,0,94,187,187,188,187,244,188,184,0,0,0,0,0,0,0,0,0,0,0,0,0,0,0,0,0,0,0,0,0,0,0,0,0,0,0,0,0,0,0,0,0,0,0,0,0,67,0,68,0,0,0,0,0,0,0,0,0,0,0,0,0,0,0,0,0,0,0,0,0,0,0,0,0,0,0,0,0,0,0,0,0,0,0,0,34,70,0,62,66,39,0,0,0,0,0,0,0,0,0,0,0,0,0,0,0,0,0,0,0,0,0,0,0,0,0,0,0,0,0,0,0,0,0,0,0,0,0,0,0,0,0,0,0,0,0,0,0,0,0,0,0,0,0,0,0,0,0,0,0,0,0,0,0,0,0,0,0,0,0,0,0,0,0,0,0,0,0,0,0,0,0,0,0,0,0,0,0,0,0,0,0,0,0,0,0,0,0,0,0,0,0,0,0,0,0,0,0,0,0,0,0,0,0,0,0,0,0,0,0,0,0,0,0,0,0,0,0,0,0,0,0,0,0,0,0,0,0,0,0,0,0,0,0,0,0,0,0,0,0,0,0,0,0,0,0,0,0,0,0,0,0,0,0,0,0,0,0,0,0,0,0,0,0,0,0,0,0,0,0,0,0,0,0,0,0,0,0,0,0,0,0,0,0,0,0,0,0,0,0,0,0,0,0,0,0,0,0,0,0,0,0,0,0,0,0,0,0,0,0,0,0,0,0,0,0,0,0,0,0,0,0,0,0,0,0,0,0,0,0,0,0,0,0,0,0,0,0,0,0,0,0,0,0,0,0,0,0,0,0,0,0,0,0,0,0,0,0,0,0,0,0,0,0,0,0,0,0,0,0,0,0,0,0,0,0,0,0,0,0,0,0,0,0,0,0,0,0,0,0,0,0,0,0,0,0,0,0,0,0,0,0,0,0,0,0,0,0,0,0,0,0,0,0,0,0,0,0,0,0,0,0,0,0,0,0,0]},{"id":3,"name":"detail","type":"tilelayer","width":40,"height":30,"x":0,"y":0,"opacity":1,"visible":true,"data":[0,18,0,0,0,0,0,0,0,18,0,0,0,0,0,0,0,0,0,17,0,0,0,0,0,0,0,0,0,0,0,0,0,0,0,0,0,18,0,0,0,0,0,0,0,0,0,0,0,0,0,0,0,0,0,0,0,0,0,0,0,0,0,0,0,0,0,0,0,0,0,0,0,0,0,0,0,0,0,0,0,0,0,17,0,0,18,0,17,0,0,0,0,0,0,0,0,0,0,0,0,0,0,0,0,0,0,0,0,0,17,0,0,17,0,0,0,0,0,0,0,0,0,0,0,0,0,0,0,0,17,0,0,0,0,0,0,0,0,0,0,18,17,0,0,0,0,0,0,18,0,0,0,0,0,0,0,0,0,0,0,0,0,18,0,0,0,0,0,18,0,0,0,0,0,0,0,17,0,0,0,0,0,0,0,0,0,0,0,0,0,0,0,0,0,0,0,0,0,0,0,0,0,0,18,0,18,0,0,17,18,0,0,18,0,0,0,0,0,0,0,0,0,0,0,17,0,0,0,0,0,0,0,0,0,0,0,0,0,0,0,0,0,0,0,0,0,0,0,0,0,0,0,0,0,0,0,0,0,0,0,0,0,0,0,0,18,0,0,0,0,0,18,0,0,0,0,0,0,0,0,0,0,0,0,0,0,18,0,0,0,0,17,17,0,0,0,0,18,0,0,0,18,0,0,0,0,0,0,0,0,0,0,0,0,0,0,0,0,0,0,0,0,0,17,17,18,0,0,0,0,0,0,0,0,0,0,18,0,0,17,0,17,0,0,0,0,0,0,0,0,0,17,0,0,0,0,0,0,0,0,0,0,0,0,0,0,0,18,0,0,0,0,0,0,0,0,0,17,0,0,0,17,0,0,0,0,0,0,0,0,0,0,17,0,0,0,18,0,0,0,0,0,0,0,0,0,0,0,0,0,0,0,0,18,0,0,0,0,0,17,17,0,0,0,0,0,0,0,0,0,18,0,17,0,0,0,17,0,0,0,0,0,0,18,17,0,0,0,0,0,0,0,0,0,0,0,0,0,0,0,0,0,0,0,0,0,0,0,0,0,0,0,0,0,0,0,17,0,0,18,0,0,0,0,0,0,0,0,0,0,0,0,0,0,0,0,0,0,0,0,18,0,0,0,0,0,0,0,0,0,0,0,0,0,0,0,0,0,0,0,0,0,0,0,0,0,0,0,0,0,0,0,0,0,17,17,0,0,0,0,0,0,0,0,0,0,0,0,0,0,0,0,0,0,0,0,0,0,0,0,0,0,0,0,0,0,0,0,0,0,0,0,0,0,0,0,0,0,0,0,0,0,0,0,0,0,0,0,0,0,0,0,0,0,0,0,0,0,0,0,0,0,0,0,0,0,0,0,0,0,0,0,0,0,0,0,0,0,0,0,0,0,17,0,0,0,0,0,0,0,0,0,0,0,0,0,0,0,0,0,0,0,0,0,17,0,0,0,0,18,0,0,0,0,0,0,0,0,0,0,0,0,0,0,0,0,0,0,0,0,0,0,0,0,0,0,0,0,0,0,0,0,0,17,0,0,0,0,0,0,0,0,0,0,0,0,0,0,0,0,0,0,0,0,0,0,0,0,0,0,17,0,0,0,0,17,0,0,0,0,0,0,0,0,0,0,17,0,17,0,0,0,0,0,0,0,0,0,0,0,0,0,0,0,0,0,0,0,0,0,0,0,17,0,18,0,0,18,17,0,0,0,0,0,0,0,0,0,0,0,0,0,0,0,0,0,0,0,0,0,0,0,0,0,0,0,0,0,17,0,17,0,0,0,0,0,0,0,0,18,0,0,0,0,0,0,0,0,18,0,0,0,0,0,0,18,0,0,0,0,0,0,0,0,17,0,0,0,0,0,0,0,0,0,0,0,0,0,0,0,0,0,0,0,0,18,0,0,0,18,0,0,0,0,0,0,0,0,0,0,0,0,0,0,0,0,18,0,0,0,0,0,0,0,0,0,0,0,0,0,0,0,0,0,0,0,0,0,0,0,0,0,0,0,0,17,0,0,0,0,0,17,0,17,0,0,0,0,0,0,0,0,0,0,0,0,0,0,0,0,0,0,0,0,0,0,0,0,0,0,0,0,18,0,0,0,0,0,0,0,18,0,0,0,0,0,0,0,18,0,0,0,18,0,0,0,0,0,0,0,0,0,17,0,0,0,0,0,0,0,0,0,0,0,0,17,0,0,18,0,0,0,0,0,0,0,0,0,0,0,0,0,0,0,0,0,0,0,0,0,0,0,0,0,0,0,0,0,0,0,0,0,18,0,17,0,0,0,18,0,0,0,0,0,0,0,0,0,0,0,17,0,0,0,0,17,0,0,0,0,0,0,0,0,0,0,0,0,0,0,0,0,0,0,0,0,0,0,0,0,0,0,0,0,18,0,0,0,18,0,0,0,0,0,18,18,0,0,0,0,0,0,0,0,0,0,0,0,0,0,0,0,0,0,0,0,0,0,0,0,0,0,0,0,0,0,0,0,0,0,0,0,0,0,0,0,0,0,0,0,0,0,0,0,0,0,0,0,0,0,0,0,0,0,0,0,0,0,0,0,0,0,17,0,0,0,0,0,0,0,0,0,0,0,0,0,0,0,0,0,0,0,0,0,0,0,0,0,0,0,0,0,0,0,0,0,0,0,0,0,0,0,0,0,0,0,0,0,0,0,0,18,0,0,0,0,0,0,0]},{"id":4,"name":"objects","type":"objectgroup","draworder":"topdown","x":0,"y":0,"opacity":1,"visible":true,"objects":[{"id":1,"name":"building.gate#0","type":"prop","x":288.0,"y":336,"width":0,"height":0,"rotation":0,"visible":true,"point":true,"properties":[{"name":"kind","type":"string","value":"building.gate"},{"name":"fw","type":"int","value":32},{"name":"fh","type":"int","value":16},{"name":"solid","type":"bool","value":false},{"name":"ref","type":"string","value":"citygate"}]},{"id":2,"name":"building.hall#0","type":"prop","x":272.0,"y":192,"width":0,"height":0,"rotation":0,"visible":true,"point":true,"properties":[{"name":"kind","type":"string","value":"building.hall"},{"name":"fw","type":"int","value":64},{"name":"fh","type":"int","value":32},{"name":"solid","type":"bool","value":true},{"name":"ref","type":"string","value":"hall-1"}]},{"id":3,"name":"building.house#0","type":"prop","x":384.0,"y":240,"width":0,"height":0,"rotation":0,"visible":true,"point":true,"properties":[{"name":"kind","type":"string","value":"building.house"},{"name":"fw","type":"int","value":64},{"name":"fh","type":"int","value":32},{"name":"solid","type":"bool","value":true},{"name":"ref","type":"string","value":"house-1"}]},{"id":4,"name":"building.house#1","type":"prop","x":160.0,"y":192,"width":0,"height":0,"rotation":0,"visible":true,"point":true,"properties":[{"name":"kind","type":"string","value":"building.house"},{"name":"fw","type":"int","value":64},{"name":"fh","type":"int","value":32},{"name":"solid","type":"bool","value":true},{"name":"ref","type":"string","value":"house-2"}]},{"id":5,"name":"building.inn#0","type":"prop","x":464.0,"y":208,"width":0,"height":0,"rotation":0,"visible":true,"point":true,"properties":[{"name":"kind","type":"string","value":"building.inn"},{"name":"fw","type":"int","value":64},{"name":"fh","type":"int","value":32},{"name":"solid","type":"bool","value":true},{"name":"ref","type":"string","value":"inn-1"}]},{"id":6,"name":"building.shop#0","type":"prop","x":200.0,"y":288,"width":0,"height":0,"rotation":0,"visible":true,"point":true,"properties":[{"name":"kind","type":"string","value":"building.shop"},{"name":"fw","type":"int","value":48},{"name":"fh","type":"int","value":32},{"name":"solid","type":"bool","value":true},{"name":"ref","type":"string","value":"shop-1"}]},{"id":7,"name":"building.house#1","type":"prop","x":560.0,"y":208,"width":0,"height":0,"rotation":0,"visible":true,"point":true,"properties":[{"name":"kind","type":"string","value":"building.house"},{"name":"fw","type":"int","value":64},{"name":"fh","type":"int","value":32},{"name":"solid","type":"bool","value":true},{"name":"ref","type":"string","value":"house-3"}]},{"id":8,"name":"building.shop#0","type":"prop","x":376.0,"y":336,"width":0,"height":0,"rotation":0,"visible":true,"point":true,"properties":[{"name":"kind","type":"string","value":"building.shop"},{"name":"fw","type":"int","value":48},{"name":"fh","type":"int","value":32},{"name":"solid","type":"bool","value":true},{"name":"ref","type":"string","value":"shop-2"}]},{"id":9,"name":"building.house#0","type":"prop","x":160.0,"y":144,"width":0,"height":0,"rotation":0,"visible":true,"point":true,"properties":[{"name":"kind","type":"string","value":"building.house"},{"name":"fw","type":"int","value":64},{"name":"fh","type":"int","value":32},{"name":"solid","type":"bool","value":true},{"name":"ref","type":"string","value":"house-4"}]},{"id":10,"name":"banner.red#0","type":"prop","x":248.0,"y":336,"width":0,"height":0,"rotation":0,"visible":true,"point":true,"properties":[{"name":"kind","type":"string","value":"banner.red"},{"name":"fw","type":"int","value":16},{"name":"fh","type":"int","value":16},{"name":"solid","type":"bool","value":true}]},{"id":11,"name":"banner.red#0","type":"prop","x":360.0,"y":272,"width":0,"height":0,"rotation":0,"visible":true,"point":true,"properties":[{"name":"kind","type":"string","value":"banner.red"},{"name":"fw","type":"int","value":16},{"name":"fh","type":"int","value":16},{"name":"solid","type":"bool","value":true}]},{"id":12,"name":"plant.bush#0","type":"prop","x":584.0,"y":352,"width":0,"height":0,"rotation":0,"visible":true,"point":true,"properties":[{"name":"kind","type":"string","value":"plant.bush"},{"name":"fw","type":"int","value":16},{"name":"fh","type":"int","value":16},{"name":"solid","type":"bool","value":false}]},{"id":13,"name":"plant.bush#0","type":"prop","x":552.0,"y":304,"width":0,"height":0,"rotation":0,"visible":true,"point":true,"properties":[{"name":"kind","type":"string","value":"plant.bush"},{"name":"fw","type":"int","value":16},{"name":"fh","type":"int","value":16},{"name":"solid","type":"bool","value":false}]},{"id":14,"name":"tree.pine#2","type":"prop","x":520.0,"y":352,"width":0,"height":0,"rotation":0,"visible":true,"point":true,"properties":[{"name":"kind","type":"string","value":"tree.pine"},{"name":"fw","type":"int","value":16},{"name":"fh","type":"int","value":16},{"name":"solid","type":"bool","value":true}]},{"id":15,"name":"tree.pine#2","type":"prop","x":568.0,"y":320,"width":0,"height":0,"rotation":0,"visible":true,"point":true,"properties":[{"name":"kind","type":"string","value":"tree.pine"},{"name":"fw","type":"int","value":16},{"name":"fh","type":"int","value":16},{"name":"solid","type":"bool","value":true}]},{"id":16,"name":"tree.pine#1","type":"prop","x":504.0,"y":368,"width":0,"height":0,"rotation":0,"visible":true,"point":true,"properties":[{"name":"kind","type":"string","value":"tree.pine"},{"name":"fw","type":"int","value":16},{"name":"fh","type":"int","value":16},{"name":"solid","type":"bool","value":true}]},{"id":17,"name":"tree.pine#0","type":"prop","x":568.0,"y":352,"width":0,"height":0,"rotation":0,"visible":true,"point":true,"properties":[{"name":"kind","type":"string","value":"tree.pine"},{"name":"fw","type":"int","value":16},{"name":"fh","type":"int","value":16},{"name":"solid","type":"bool","value":true}]},{"id":18,"name":"tree.pine#0","type":"prop","x":584.0,"y":368,"width":0,"height":0,"rotation":0,"visible":true,"point":true,"properties":[{"name":"kind","type":"string","value":"tree.pine"},{"name":"fw","type":"int","value":16},{"name":"fh","type":"int","value":16},{"name":"solid","type":"bool","value":true}]},{"id":19,"name":"plant.bush#0","type":"prop","x":520.0,"y":304,"width":0,"height":0,"rotation":0,"visible":true,"point":true,"properties":[{"name":"kind","type":"string","value":"plant.bush"},{"name":"fw","type":"int","value":16},{"name":"fh","type":"int","value":16},{"name":"solid","type":"bool","value":false}]},{"id":20,"name":"tree.small#0","type":"prop","x":520.0,"y":368,"width":0,"height":0,"rotation":0,"visible":true,"point":true,"properties":[{"name":"kind","type":"string","value":"tree.small"},{"name":"fw","type":"int","value":16},{"name":"fh","type":"int","value":16},{"name":"solid","type":"bool","value":true}]},{"id":21,"name":"plant.bush#0","type":"prop","x":72.0,"y":384,"width":0,"height":0,"rotation":0,"visible":true,"point":true,"properties":[{"name":"kind","type":"string","value":"plant.bush"},{"name":"fw","type":"int","value":16},{"name":"fh","type":"int","value":16},{"name":"solid","type":"bool","value":false}]},{"id":22,"name":"tree.pine#2","type":"prop","x":120.0,"y":448,"width":0,"height":0,"rotation":0,"visible":true,"point":true,"properties":[{"name":"kind","type":"string","value":"tree.pine"},{"name":"fw","type":"int","value":16},{"name":"fh","type":"int","value":16},{"name":"solid","type":"bool","value":true}]},{"id":23,"name":"tree.small#1","type":"prop","x":120.0,"y":400,"width":0,"height":0,"rotation":0,"visible":true,"point":true,"properties":[{"name":"kind","type":"string","value":"tree.small"},{"name":"fw","type":"int","value":16},{"name":"fh","type":"int","value":16},{"name":"solid","type":"bool","value":true}]},{"id":24,"name":"tree.pine#0","type":"prop","x":88.0,"y":384,"width":0,"height":0,"rotation":0,"visible":true,"point":true,"properties":[{"name":"kind","type":"string","value":"tree.pine"},{"name":"fw","type":"int","value":16},{"name":"fh","type":"int","value":16},{"name":"solid","type":"bool","value":true}]},{"id":25,"name":"tree.small#1","type":"prop","x":56.0,"y":384,"width":0,"height":0,"rotation":0,"visible":true,"point":true,"properties":[{"name":"kind","type":"string","value":"tree.small"},{"name":"fw","type":"int","value":16},{"name":"fh","type":"int","value":16},{"name":"solid","type":"bool","value":true}]},{"id":26,"name":"tree.small#1","type":"prop","x":424.0,"y":64,"width":0,"height":0,"rotation":0,"visible":true,"point":true,"properties":[{"name":"kind","type":"string","value":"tree.small"},{"name":"fw","type":"int","value":16},{"name":"fh","type":"int","value":16},{"name":"solid","type":"bool","value":true}]},{"id":27,"name":"tree.small#2","type":"prop","x":504.0,"y":80,"width":0,"height":0,"rotation":0,"visible":true,"point":true,"properties":[{"name":"kind","type":"string","value":"tree.small"},{"name":"fw","type":"int","value":16},{"name":"fh","type":"int","value":16},{"name":"solid","type":"bool","value":true}]},{"id":28,"name":"tree.small#1","type":"prop","x":504.0,"y":64,"width":0,"height":0,"rotation":0,"visible":true,"point":true,"properties":[{"name":"kind","type":"string","value":"tree.small"},{"name":"fw","type":"int","value":16},{"name":"fh","type":"int","value":16},{"name":"solid","type":"bool","value":true}]},{"id":29,"name":"plant.bush#0","type":"prop","x":456.0,"y":112,"width":0,"height":0,"rotation":0,"visible":true,"point":true,"properties":[{"name":"kind","type":"string","value":"plant.bush"},{"name":"fw","type":"int","value":16},{"name":"fh","type":"int","value":16},{"name":"solid","type":"bool","value":false}]},{"id":30,"name":"tree.pine#0","type":"prop","x":456.0,"y":64,"width":0,"height":0,"rotation":0,"visible":true,"point":true,"properties":[{"name":"kind","type":"string","value":"tree.pine"},{"name":"fw","type":"int","value":16},{"name":"fh","type":"int","value":16},{"name":"solid","type":"bool","value":true}]},{"id":31,"name":"tree.small#0","type":"prop","x":456.0,"y":96,"width":0,"height":0,"rotation":0,"visible":true,"point":true,"properties":[{"name":"kind","type":"string","value":"tree.small"},{"name":"fw","type":"int","value":16},{"name":"fh","type":"int","value":16},{"name":"solid","type":"bool","value":true}]},{"id":32,"name":"tree.grove#0","type":"prop","x":24.0,"y":432,"width":0,"height":0,"rotation":0,"visible":true,"point":true,"properties":[{"name":"kind","type":"string","value":"tree.grove"},{"name":"fw","type":"int","value":48},{"name":"fh","type":"int","value":16},{"name":"solid","type":"bool","value":true}]},{"id":33,"name":"tree.pine#2","type":"prop","x":472.0,"y":480,"width":0,"height":0,"rotation":0,"visible":true,"point":true,"properties":[{"name":"kind","type":"string","value":"tree.pine"},{"name":"fw","type":"int","value":16},{"name":"fh","type":"int","value":16},{"name":"solid","type":"bool","value":true}]},{"id":34,"name":"tree.grove#1","type":"prop","x":40.0,"y":304,"width":0,"height":0,"rotation":0,"visible":true,"point":true,"properties":[{"name":"kind","type":"string","value":"tree.grove"},{"name":"fw","type":"int","value":48},{"name":"fh","type":"int","value":16},{"name":"solid","type":"bool","value":true}]},{"id":35,"name":"tree.pine#2","type":"prop","x":56.0,"y":32,"width":0,"height":0,"rotation":0,"visible":true,"point":true,"properties":[{"name":"kind","type":"string","value":"tree.pine"},{"name":"fw","type":"int","value":16},{"name":"fh","type":"int","value":16},{"name":"solid","type":"bool","value":true}]},{"id":36,"name":"tree.grove#0","type":"prop","x":40.0,"y":144,"width":0,"height":0,"rotation":0,"visible":true,"point":true,"properties":[{"name":"kind","type":"string","value":"tree.grove"},{"name":"fw","type":"int","value":48},{"name":"fh","type":"int","value":16},{"name":"solid","type":"bool","value":true}]},{"id":37,"name":"tree.pine#1","type":"prop","x":616.0,"y":368,"width":0,"height":0,"rotation":0,"visible":true,"point":true,"properties":[{"name":"kind","type":"string","value":"tree.pine"},{"name":"fw","type":"int","value":16},{"name":"fh","type":"int","value":16},{"name":"solid","type":"bool","value":true}]},{"id":38,"name":"tree.pine#1","type":"prop","x":8.0,"y":160,"width":0,"height":0,"rotation":0,"visible":true,"point":true,"properties":[{"name":"kind","type":"string","value":"tree.pine"},{"name":"fw","type":"int","value":16},{"name":"fh","type":"int","value":16},{"name":"solid","type":"bool","value":true}]},{"id":39,"name":"tree.grove#1","type":"prop","x":360.0,"y":480,"width":0,"height":0,"rotation":0,"visible":true,"point":true,"properties":[{"name":"kind","type":"string","value":"tree.grove"},{"name":"fw","type":"int","value":48},{"name":"fh","type":"int","value":16},{"name":"solid","type":"bool","value":true}]},{"id":40,"name":"tree.pine#2","type":"prop","x":456.0,"y":16,"width":0,"height":0,"rotation":0,"visible":true,"point":true,"properties":[{"name":"kind","type":"string","value":"tree.pine"},{"name":"fw","type":"int","value":16},{"name":"fh","type":"int","value":16},{"name":"solid","type":"bool","value":true}]},{"id":41,"name":"tree.grove#0","type":"prop","x":232.0,"y":480,"width":0,"height":0,"rotation":0,"visible":true,"point":true,"properties":[{"name":"kind","type":"string","value":"tree.grove"},{"name":"fw","type":"int","value":48},{"name":"fh","type":"int","value":16},{"name":"solid","type":"bool","value":true}]},{"id":42,"name":"tree.pine#2","type":"prop","x":72.0,"y":32,"width":0,"height":0,"rotation":0,"visible":true,"point":true,"properties":[{"name":"kind","type":"string","value":"tree.pine"},{"name":"fw","type":"int","value":16},{"name":"fh","type":"int","value":16},{"name":"solid","type":"bool","value":true}]},{"id":43,"name":"tree.pine#1","type":"prop","x":280.0,"y":16,"width":0,"height":0,"rotation":0,"visible":true,"point":true,"properties":[{"name":"kind","type":"string","value":"tree.pine"},{"name":"fw","type":"int","value":16},{"name":"fh","type":"int","value":16},{"name":"solid","type":"bool","value":true}]},{"id":44,"name":"tree.pine#1","type":"prop","x":632.0,"y":192,"width":0,"height":0,"rotation":0,"visible":true,"point":true,"properties":[{"name":"kind","type":"string","value":"tree.pine"},{"name":"fw","type":"int","value":16},{"name":"fh","type":"int","value":16},{"name":"solid","type":"bool","value":true}]},{"id":45,"name":"tree.pine#0","type":"prop","x":632.0,"y":64,"width":0,"height":0,"rotation":0,"visible":true,"point":true,"properties":[{"name":"kind","type":"string","value":"tree.pine"},{"name":"fw","type":"int","value":16},{"name":"fh","type":"int","value":16},{"name":"solid","type":"bool","value":true}]},{"id":46,"name":"tree.pine#1","type":"prop","x":184.0,"y":32,"width":0,"height":0,"rotation":0,"visible":true,"point":true,"properties":[{"name":"kind","type":"string","value":"tree.pine"},{"name":"fw","type":"int","value":16},{"name":"fh","type":"int","value":16},{"name":"solid","type":"bool","value":true}]},{"id":47,"name":"tree.grove#0","type":"prop","x":456.0,"y":32,"width":0,"height":0,"rotation":0,"visible":true,"point":true,"properties":[{"name":"kind","type":"string","value":"tree.grove"},{"name":"fw","type":"int","value":48},{"name":"fh","type":"int","value":16},{"name":"solid","type":"bool","value":true}]},{"id":48,"name":"tree.pine#2","type":"prop","x":408.0,"y":32,"width":0,"height":0,"rotation":0,"visible":true,"point":true,"properties":[{"name":"kind","type":"string","value":"tree.pine"},{"name":"fw","type":"int","value":16},{"name":"fh","type":"int","value":16},{"name":"solid","type":"bool","value":true}]},{"id":49,"name":"tree.pine#2","type":"prop","x":360.0,"y":32,"width":0,"height":0,"rotation":0,"visible":true,"point":true,"properties":[{"name":"kind","type":"string","value":"tree.pine"},{"name":"fw","type":"int","value":16},{"name":"fh","type":"int","value":16},{"name":"solid","type":"bool","value":true}]},{"id":50,"name":"tree.pine#0","type":"prop","x":504.0,"y":480,"width":0,"height":0,"rotation":0,"visible":true,"point":true,"properties":[{"name":"kind","type":"string","value":"tree.pine"},{"name":"fw","type":"int","value":16},{"name":"fh","type":"int","value":16},{"name":"solid","type":"bool","value":true}]},{"id":51,"name":"tree.grove#0","type":"prop","x":568.0,"y":16,"width":0,"height":0,"rotation":0,"visible":true,"point":true,"properties":[{"name":"kind","type":"string","value":"tree.grove"},{"name":"fw","type":"int","value":48},{"name":"fh","type":"int","value":16},{"name":"solid","type":"bool","value":true}]},{"id":52,"name":"tree.grove#1","type":"prop","x":56.0,"y":16,"width":0,"height":0,"rotation":0,"visible":true,"point":true,"properties":[{"name":"kind","type":"string","value":"tree.grove"},{"name":"fw","type":"int","value":48},{"name":"fh","type":"int","value":16},{"name":"solid","type":"bool","value":true}]},{"id":53,"name":"tree.grove#0","type":"prop","x":552.0,"y":480,"width":0,"height":0,"rotation":0,"visible":true,"point":true,"properties":[{"name":"kind","type":"string","value":"tree.grove"},{"name":"fw","type":"int","value":48},{"name":"fh","type":"int","value":16},{"name":"solid","type":"bool","value":true}]},{"id":54,"name":"tree.pine#2","type":"prop","x":632.0,"y":368,"width":0,"height":0,"rotation":0,"visible":true,"point":true,"properties":[{"name":"kind","type":"string","value":"tree.pine"},{"name":"fw","type":"int","value":16},{"name":"fh","type":"int","value":16},{"name":"solid","type":"bool","value":true}]},{"id":55,"name":"tree.pine#0","type":"prop","x":232.0,"y":16,"width":0,"height":0,"rotation":0,"visible":true,"point":true,"properties":[{"name":"kind","type":"string","value":"tree.pine"},{"name":"fw","type":"int","value":16},{"name":"fh","type":"int","value":16},{"name":"solid","type":"bool","value":true}]},{"id":56,"name":"tree.grove#0","type":"prop","x":392.0,"y":16,"width":0,"height":0,"rotation":0,"visible":true,"point":true,"properties":[{"name":"kind","type":"string","value":"tree.grove"},{"name":"fw","type":"int","value":48},{"name":"fh","type":"int","value":16},{"name":"solid","type":"bool","value":true}]},{"id":57,"name":"tree.pine#1","type":"prop","x":632.0,"y":16,"width":0,"height":0,"rotation":0,"visible":true,"point":true,"properties":[{"name":"kind","type":"string","value":"tree.pine"},{"name":"fw","type":"int","value":16},{"name":"fh","type":"int","value":16},{"name":"solid","type":"bool","value":true}]},{"id":58,"name":"tree.pine#1","type":"prop","x":136.0,"y":480,"width":0,"height":0,"rotation":0,"visible":true,"point":true,"properties":[{"name":"kind","type":"string","value":"tree.pine"},{"name":"fw","type":"int","value":16},{"name":"fh","type":"int","value":16},{"name":"solid","type":"bool","value":true}]},{"id":59,"name":"tree.pine#1","type":"prop","x":8.0,"y":368,"width":0,"height":0,"rotation":0,"visible":true,"point":true,"properties":[{"name":"kind","type":"string","value":"tree.pine"},{"name":"fw","type":"int","value":16},{"name":"fh","type":"int","value":16},{"name":"solid","type":"bool","value":true}]},{"id":60,"name":"tree.pine#0","type":"prop","x":168.0,"y":16,"width":0,"height":0,"rotation":0,"visible":true,"point":true,"properties":[{"name":"kind","type":"string","value":"tree.pine"},{"name":"fw","type":"int","value":16},{"name":"fh","type":"int","value":16},{"name":"solid","type":"bool","value":true}]},{"id":61,"name":"tree.pine#2","type":"prop","x":264.0,"y":464,"width":0,"height":0,"rotation":0,"visible":true,"point":true,"properties":[{"name":"kind","type":"string","value":"tree.pine"},{"name":"fw","type":"int","value":16},{"name":"fh","type":"int","value":16},{"name":"solid","type":"bool","value":true}]},{"id":62,"name":"tree.pine#1","type":"prop","x":616.0,"y":336,"width":0,"height":0,"rotation":0,"visible":true,"point":true,"properties":[{"name":"kind","type":"string","value":"tree.pine"},{"name":"fw","type":"int","value":16},{"name":"fh","type":"int","value":16},{"name":"solid","type":"bool","value":true}]},{"id":63,"name":"tree.pine#0","type":"prop","x":72.0,"y":464,"width":0,"height":0,"rotation":0,"visible":true,"point":true,"properties":[{"name":"kind","type":"string","value":"tree.pine"},{"name":"fw","type":"int","value":16},{"name":"fh","type":"int","value":16},{"name":"solid","type":"bool","value":true}]},{"id":64,"name":"tree.pine#2","type":"prop","x":104.0,"y":464,"width":0,"height":0,"rotation":0,"visible":true,"point":true,"properties":[{"name":"kind","type":"string","value":"tree.pine"},{"name":"fw","type":"int","value":16},{"name":"fh","type":"int","value":16},{"name":"solid","type":"bool","value":true}]},{"id":65,"name":"tree.pine#1","type":"prop","x":392.0,"y":32,"width":0,"height":0,"rotation":0,"visible":true,"point":true,"properties":[{"name":"kind","type":"string","value":"tree.pine"},{"name":"fw","type":"int","value":16},{"name":"fh","type":"int","value":16},{"name":"solid","type":"bool","value":true}]},{"id":66,"name":"tree.pine#1","type":"prop","x":24.0,"y":96,"width":0,"height":0,"rotation":0,"visible":true,"point":true,"properties":[{"name":"kind","type":"string","value":"tree.pine"},{"name":"fw","type":"int","value":16},{"name":"fh","type":"int","value":16},{"name":"solid","type":"bool","value":true}]},{"id":67,"name":"tree.grove#1","type":"prop","x":200.0,"y":464,"width":0,"height":0,"rotation":0,"visible":true,"point":true,"properties":[{"name":"kind","type":"string","value":"tree.grove"},{"name":"fw","type":"int","value":48},{"name":"fh","type":"int","value":16},{"name":"solid","type":"bool","value":true}]},{"id":68,"name":"tree.pine#1","type":"prop","x":632.0,"y":384,"width":0,"height":0,"rotation":0,"visible":true,"point":true,"properties":[{"name":"kind","type":"string","value":"tree.pine"},{"name":"fw","type":"int","value":16},{"name":"fh","type":"int","value":16},{"name":"solid","type":"bool","value":true}]},{"id":69,"name":"tree.grove#0","type":"prop","x":616.0,"y":432,"width":0,"height":0,"rotation":0,"visible":true,"point":true,"properties":[{"name":"kind","type":"string","value":"tree.grove"},{"name":"fw","type":"int","value":48},{"name":"fh","type":"int","value":16},{"name":"solid","type":"bool","value":true}]},{"id":70,"name":"tree.grove#0","type":"prop","x":504.0,"y":32,"width":0,"height":0,"rotation":0,"visible":true,"point":true,"properties":[{"name":"kind","type":"string","value":"tree.grove"},{"name":"fw","type":"int","value":48},{"name":"fh","type":"int","value":16},{"name":"solid","type":"bool","value":true}]},{"id":71,"name":"tree.grove#1","type":"prop","x":616.0,"y":48,"width":0,"height":0,"rotation":0,"visible":true,"point":true,"properties":[{"name":"kind","type":"string","value":"tree.grove"},{"name":"fw","type":"int","value":48},{"name":"fh","type":"int","value":16},{"name":"solid","type":"bool","value":true}]},{"id":72,"name":"tree.grove#0","type":"prop","x":24.0,"y":128,"width":0,"height":0,"rotation":0,"visible":true,"point":true,"properties":[{"name":"kind","type":"string","value":"tree.grove"},{"name":"fw","type":"int","value":48},{"name":"fh","type":"int","value":16},{"name":"solid","type":"bool","value":true}]},{"id":73,"name":"tree.grove#0","type":"prop","x":24.0,"y":400,"width":0,"height":0,"rotation":0,"visible":true,"point":true,"properties":[{"name":"kind","type":"string","value":"tree.grove"},{"name":"fw","type":"int","value":48},{"name":"fh","type":"int","value":16},{"name":"solid","type":"bool","value":true}]},{"id":74,"name":"tree.pine#2","type":"prop","x":440.0,"y":16,"width":0,"height":0,"rotation":0,"visible":true,"point":true,"properties":[{"name":"kind","type":"string","value":"tree.pine"},{"name":"fw","type":"int","value":16},{"name":"fh","type":"int","value":16},{"name":"solid","type":"bool","value":true}]},{"id":75,"name":"tree.grove#1","type":"prop","x":312.0,"y":480,"width":0,"height":0,"rotation":0,"visible":true,"point":true,"properties":[{"name":"kind","type":"string","value":"tree.grove"},{"name":"fw","type":"int","value":48},{"name":"fh","type":"int","value":16},{"name":"solid","type":"bool","value":true}]},{"id":76,"name":"tree.pine#2","type":"prop","x":632.0,"y":480,"width":0,"height":0,"rotation":0,"visible":true,"point":true,"properties":[{"name":"kind","type":"string","value":"tree.pine"},{"name":"fw","type":"int","value":16},{"name":"fh","type":"int","value":16},{"name":"solid","type":"bool","value":true}]},{"id":77,"name":"tree.pine#0","type":"prop","x":616.0,"y":480,"width":0,"height":0,"rotation":0,"visible":true,"point":true,"properties":[{"name":"kind","type":"string","value":"tree.pine"},{"name":"fw","type":"int","value":16},{"name":"fh","type":"int","value":16},{"name":"solid","type":"bool","value":true}]},{"id":78,"name":"tree.pine#1","type":"prop","x":632.0,"y":400,"width":0,"height":0,"rotation":0,"visible":true,"point":true,"properties":[{"name":"kind","type":"string","value":"tree.pine"},{"name":"fw","type":"int","value":16},{"name":"fh","type":"int","value":16},{"name":"solid","type":"bool","value":true}]},{"id":79,"name":"tree.pine#0","type":"prop","x":88.0,"y":480,"width":0,"height":0,"rotation":0,"visible":true,"point":true,"properties":[{"name":"kind","type":"string","value":"tree.pine"},{"name":"fw","type":"int","value":16},{"name":"fh","type":"int","value":16},{"name":"solid","type":"bool","value":true}]},{"id":80,"name":"tree.pine#2","type":"prop","x":600.0,"y":480,"width":0,"height":0,"rotation":0,"visible":true,"point":true,"properties":[{"name":"kind","type":"string","value":"tree.pine"},{"name":"fw","type":"int","value":16},{"name":"fh","type":"int","value":16},{"name":"solid","type":"bool","value":true}]},{"id":81,"name":"tree.grove#1","type":"prop","x":616.0,"y":32,"width":0,"height":0,"rotation":0,"visible":true,"point":true,"properties":[{"name":"kind","type":"string","value":"tree.grove"},{"name":"fw","type":"int","value":48},{"name":"fh","type":"int","value":16},{"name":"solid","type":"bool","value":true}]},{"id":82,"name":"tree.pine#2","type":"prop","x":616.0,"y":176,"width":0,"height":0,"rotation":0,"visible":true,"point":true,"properties":[{"name":"kind","type":"string","value":"tree.pine"},{"name":"fw","type":"int","value":16},{"name":"fh","type":"int","value":16},{"name":"solid","type":"bool","value":true}]},{"id":83,"name":"tree.pine#2","type":"prop","x":56.0,"y":480,"width":0,"height":0,"rotation":0,"visible":true,"point":true,"properties":[{"name":"kind","type":"string","value":"tree.pine"},{"name":"fw","type":"int","value":16},{"name":"fh","type":"int","value":16},{"name":"solid","type":"bool","value":true}]},{"id":84,"name":"tree.pine#1","type":"prop","x":168.0,"y":480,"width":0,"height":0,"rotation":0,"visible":true,"point":true,"properties":[{"name":"kind","type":"string","value":"tree.pine"},{"name":"fw","type":"int","value":16},{"name":"fh","type":"int","value":16},{"name":"solid","type":"bool","value":true}]},{"id":85,"name":"tree.pine#0","type":"prop","x":152.0,"y":480,"width":0,"height":0,"rotation":0,"visible":true,"point":true,"properties":[{"name":"kind","type":"string","value":"tree.pine"},{"name":"fw","type":"int","value":16},{"name":"fh","type":"int","value":16},{"name":"solid","type":"bool","value":true}]},{"id":86,"name":"tree.pine#1","type":"prop","x":248.0,"y":464,"width":0,"height":0,"rotation":0,"visible":true,"point":true,"properties":[{"name":"kind","type":"string","value":"tree.pine"},{"name":"fw","type":"int","value":16},{"name":"fh","type":"int","value":16},{"name":"solid","type":"bool","value":true}]},{"id":87,"name":"tree.pine#2","type":"prop","x":616.0,"y":320,"width":0,"height":0,"rotation":0,"visible":true,"point":true,"properties":[{"name":"kind","type":"string","value":"tree.pine"},{"name":"fw","type":"int","value":16},{"name":"fh","type":"int","value":16},{"name":"solid","type":"bool","value":true}]},{"id":88,"name":"tree.grove#0","type":"prop","x":24.0,"y":192,"width":0,"height":0,"rotation":0,"visible":true,"point":true,"properties":[{"name":"kind","type":"string","value":"tree.grove"},{"name":"fw","type":"int","value":48},{"name":"fh","type":"int","value":16},{"name":"solid","type":"bool","value":true}]},{"id":89,"name":"tree.pine#1","type":"prop","x":24.0,"y":48,"width":0,"height":0,"rotation":0,"visible":true,"point":true,"properties":[{"name":"kind","type":"string","value":"tree.pine"},{"name":"fw","type":"int","value":16},{"name":"fh","type":"int","value":16},{"name":"solid","type":"bool","value":true}]},{"id":90,"name":"tree.pine#0","type":"prop","x":632.0,"y":448,"width":0,"height":0,"rotation":0,"visible":true,"point":true,"properties":[{"name":"kind","type":"string","value":"tree.pine"},{"name":"fw","type":"int","value":16},{"name":"fh","type":"int","value":16},{"name":"solid","type":"bool","value":true}]},{"id":91,"name":"tree.pine#0","type":"prop","x":424.0,"y":464,"width":0,"height":0,"rotation":0,"visible":true,"point":true,"properties":[{"name":"kind","type":"string","value":"tree.pine"},{"name":"fw","type":"int","value":16},{"name":"fh","type":"int","value":16},{"name":"solid","type":"bool","value":true}]},{"id":92,"name":"tree.pine#2","type":"prop","x":8.0,"y":448,"width":0,"height":0,"rotation":0,"visible":true,"point":true,"properties":[{"name":"kind","type":"string","value":"tree.pine"},{"name":"fw","type":"int","value":16},{"name":"fh","type":"int","value":16},{"name":"solid","type":"bool","value":true}]},{"id":93,"name":"tree.pine#0","type":"prop","x":8.0,"y":144,"width":0,"height":0,"rotation":0,"visible":true,"point":true,"properties":[{"name":"kind","type":"string","value":"tree.pine"},{"name":"fw","type":"int","value":16},{"name":"fh","type":"int","value":16},{"name":"solid","type":"bool","value":true}]},{"id":94,"name":"tree.grove#0","type":"prop","x":104.0,"y":32,"width":0,"height":0,"rotation":0,"visible":true,"point":true,"properties":[{"name":"kind","type":"string","value":"tree.grove"},{"name":"fw","type":"int","value":48},{"name":"fh","type":"int","value":16},{"name":"solid","type":"bool","value":true}]},{"id":95,"name":"tree.pine#2","type":"prop","x":24.0,"y":464,"width":0,"height":0,"rotation":0,"visible":true,"point":true,"properties":[{"name":"kind","type":"string","value":"tree.pine"},{"name":"fw","type":"int","value":16},{"name":"fh","type":"int","value":16},{"name":"solid","type":"bool","value":true}]},{"id":96,"name":"tree.pine#2","type":"prop","x":8.0,"y":96,"width":0,"height":0,"rotation":0,"visible":true,"point":true,"properties":[{"name":"kind","type":"string","value":"tree.pine"},{"name":"fw","type":"int","value":16},{"name":"fh","type":"int","value":16},{"name":"solid","type":"bool","value":true}]},{"id":97,"name":"tree.grove#1","type":"prop","x":152.0,"y":32,"width":0,"height":0,"rotation":0,"visible":true,"point":true,"properties":[{"name":"kind","type":"string","value":"tree.grove"},{"name":"fw","type":"int","value":48},{"name":"fh","type":"int","value":16},{"name":"solid","type":"bool","value":true}]},{"id":98,"name":"tree.pine#1","type":"prop","x":24.0,"y":480,"width":0,"height":0,"rotation":0,"visible":true,"point":true,"properties":[{"name":"kind","type":"string","value":"tree.pine"},{"name":"fw","type":"int","value":16},{"name":"fh","type":"int","value":16},{"name":"solid","type":"bool","value":true}]},{"id":99,"name":"tree.grove#0","type":"prop","x":488.0,"y":16,"width":0,"height":0,"rotation":0,"visible":true,"point":true,"properties":[{"name":"kind","type":"string","value":"tree.grove"},{"name":"fw","type":"int","value":48},{"name":"fh","type":"int","value":16},{"name":"solid","type":"bool","value":true}]},{"id":100,"name":"tree.pine#2","type":"prop","x":184.0,"y":16,"width":0,"height":0,"rotation":0,"visible":true,"point":true,"properties":[{"name":"kind","type":"string","value":"tree.pine"},{"name":"fw","type":"int","value":16},{"name":"fh","type":"int","value":16},{"name":"solid","type":"bool","value":true}]},{"id":101,"name":"tree.grove#0","type":"prop","x":24.0,"y":320,"width":0,"height":0,"rotation":0,"visible":true,"point":true,"properties":[{"name":"kind","type":"string","value":"tree.grove"},{"name":"fw","type":"int","value":48},{"name":"fh","type":"int","value":16},{"name":"solid","type":"bool","value":true}]},{"id":102,"name":"tree.pine#2","type":"prop","x":328.0,"y":464,"width":0,"height":0,"rotation":0,"visible":true,"point":true,"properties":[{"name":"kind","type":"string","value":"tree.pine"},{"name":"fw","type":"int","value":16},{"name":"fh","type":"int","value":16},{"name":"solid","type":"bool","value":true}]},{"id":103,"name":"tree.pine#1","type":"prop","x":264.0,"y":480,"width":0,"height":0,"rotation":0,"visible":true,"point":true,"properties":[{"name":"kind","type":"string","value":"tree.pine"},{"name":"fw","type":"int","value":16},{"name":"fh","type":"int","value":16},{"name":"solid","type":"bool","value":true}]},{"id":104,"name":"tree.grove#1","type":"prop","x":248.0,"y":32,"width":0,"height":0,"rotation":0,"visible":true,"point":true,"properties":[{"name":"kind","type":"string","value":"tree.grove"},{"name":"fw","type":"int","value":48},{"name":"fh","type":"int","value":16},{"name":"solid","type":"bool","value":true}]},{"id":105,"name":"tree.grove#1","type":"prop","x":344.0,"y":16,"width":0,"height":0,"rotation":0,"visible":true,"point":true,"properties":[{"name":"kind","type":"string","value":"tree.grove"},{"name":"fw","type":"int","value":48},{"name":"fh","type":"int","value":16},{"name":"solid","type":"bool","value":true}]},{"id":106,"name":"tree.grove#1","type":"prop","x":120.0,"y":16,"width":0,"height":0,"rotation":0,"visible":true,"point":true,"properties":[{"name":"kind","type":"string","value":"tree.grove"},{"name":"fw","type":"int","value":48},{"name":"fh","type":"int","value":16},{"name":"solid","type":"bool","value":true}]},{"id":107,"name":"tree.pine#2","type":"prop","x":584.0,"y":480,"width":0,"height":0,"rotation":0,"visible":true,"point":true,"properties":[{"name":"kind","type":"string","value":"tree.pine"},{"name":"fw","type":"int","value":16},{"name":"fh","type":"int","value":16},{"name":"solid","type":"bool","value":true}]},{"id":108,"name":"tree.pine#2","type":"prop","x":392.0,"y":464,"width":0,"height":0,"rotation":0,"visible":true,"point":true,"properties":[{"name":"kind","type":"string","value":"tree.pine"},{"name":"fw","type":"int","value":16},{"name":"fh","type":"int","value":16},{"name":"solid","type":"bool","value":true}]},{"id":109,"name":"tree.pine#2","type":"prop","x":568.0,"y":32,"width":0,"height":0,"rotation":0,"visible":true,"point":true,"properties":[{"name":"kind","type":"string","value":"tree.pine"},{"name":"fw","type":"int","value":16},{"name":"fh","type":"int","value":16},{"name":"solid","type":"bool","value":true}]},{"id":110,"name":"tree.pine#0","type":"prop","x":344.0,"y":464,"width":0,"height":0,"rotation":0,"visible":true,"point":true,"properties":[{"name":"kind","type":"string","value":"tree.pine"},{"name":"fw","type":"int","value":16},{"name":"fh","type":"int","value":16},{"name":"solid","type":"bool","value":true}]},{"id":111,"name":"tree.grove#1","type":"prop","x":40.0,"y":112,"width":0,"height":0,"rotation":0,"visible":true,"point":true,"properties":[{"name":"kind","type":"string","value":"tree.grove"},{"name":"fw","type":"int","value":48},{"name":"fh","type":"int","value":16},{"name":"solid","type":"bool","value":true}]},{"id":112,"name":"tree.pine#2","type":"prop","x":24.0,"y":448,"width":0,"height":0,"rotation":0,"visible":true,"point":true,"properties":[{"name":"kind","type":"string","value":"tree.pine"},{"name":"fw","type":"int","value":16},{"name":"fh","type":"int","value":16},{"name":"solid","type":"bool","value":true}]},{"id":113,"name":"tree.pine#2","type":"prop","x":88.0,"y":16,"width":0,"height":0,"rotation":0,"visible":true,"point":true,"properties":[{"name":"kind","type":"string","value":"tree.pine"},{"name":"fw","type":"int","value":16},{"name":"fh","type":"int","value":16},{"name":"solid","type":"bool","value":true}]},{"id":114,"name":"tree.grove#1","type":"prop","x":616.0,"y":144,"width":0,"height":0,"rotation":0,"visible":true,"point":true,"properties":[{"name":"kind","type":"string","value":"tree.grove"},{"name":"fw","type":"int","value":48},{"name":"fh","type":"int","value":16},{"name":"solid","type":"bool","value":true}]},{"id":115,"name":"tree.pine#2","type":"prop","x":120.0,"y":480,"width":0,"height":0,"rotation":0,"visible":true,"point":true,"properties":[{"name":"kind","type":"string","value":"tree.pine"},{"name":"fw","type":"int","value":16},{"name":"fh","type":"int","value":16},{"name":"solid","type":"bool","value":true}]},{"id":116,"name":"tree.grove#1","type":"prop","x":616.0,"y":464,"width":0,"height":0,"rotation":0,"visible":true,"point":true,"properties":[{"name":"kind","type":"string","value":"tree.grove"},{"name":"fw","type":"int","value":48},{"name":"fh","type":"int","value":16},{"name":"solid","type":"bool","value":true}]},{"id":117,"name":"tree.pine#2","type":"prop","x":280.0,"y":32,"width":0,"height":0,"rotation":0,"visible":true,"point":true,"properties":[{"name":"kind","type":"string","value":"tree.pine"},{"name":"fw","type":"int","value":16},{"name":"fh","type":"int","value":16},{"name":"solid","type":"bool","value":true}]},{"id":118,"name":"tree.grove#0","type":"prop","x":40.0,"y":160,"width":0,"height":0,"rotation":0,"visible":true,"point":true,"properties":[{"name":"kind","type":"string","value":"tree.grove"},{"name":"fw","type":"int","value":48},{"name":"fh","type":"int","value":16},{"name":"solid","type":"bool","value":true}]},{"id":119,"name":"tree.pine#0","type":"prop","x":280.0,"y":464,"width":0,"height":0,"rotation":0,"visible":true,"point":true,"properties":[{"name":"kind","type":"string","value":"tree.pine"},{"name":"fw","type":"int","value":16},{"name":"fh","type":"int","value":16},{"name":"solid","type":"bool","value":true}]},{"id":120,"name":"tree.grove#0","type":"prop","x":616.0,"y":96,"width":0,"height":0,"rotation":0,"visible":true,"point":true,"properties":[{"name":"kind","type":"string","value":"tree.grove"},{"name":"fw","type":"int","value":48},{"name":"fh","type":"int","value":16},{"name":"solid","type":"bool","value":true}]},{"id":121,"name":"tree.pine#2","type":"prop","x":72.0,"y":480,"width":0,"height":0,"rotation":0,"visible":true,"point":true,"properties":[{"name":"kind","type":"string","value":"tree.pine"},{"name":"fw","type":"int","value":16},{"name":"fh","type":"int","value":16},{"name":"solid","type":"bool","value":true}]},{"id":122,"name":"tree.pine#2","type":"prop","x":8.0,"y":112,"width":0,"height":0,"rotation":0,"visible":true,"point":true,"properties":[{"name":"kind","type":"string","value":"tree.pine"},{"name":"fw","type":"int","value":16},{"name":"fh","type":"int","value":16},{"name":"solid","type":"bool","value":true}]},{"id":123,"name":"tree.pine#0","type":"prop","x":616.0,"y":416,"width":0,"height":0,"rotation":0,"visible":true,"point":true,"properties":[{"name":"kind","type":"string","value":"tree.pine"},{"name":"fw","type":"int","value":16},{"name":"fh","type":"int","value":16},{"name":"solid","type":"bool","value":true}]},{"id":124,"name":"tree.pine#2","type":"prop","x":24.0,"y":352,"width":0,"height":0,"rotation":0,"visible":true,"point":true,"properties":[{"name":"kind","type":"string","value":"tree.pine"},{"name":"fw","type":"int","value":16},{"name":"fh","type":"int","value":16},{"name":"solid","type":"bool","value":true}]},{"id":125,"name":"tree.pine#0","type":"prop","x":408.0,"y":480,"width":0,"height":0,"rotation":0,"visible":true,"point":true,"properties":[{"name":"kind","type":"string","value":"tree.pine"},{"name":"fw","type":"int","value":16},{"name":"fh","type":"int","value":16},{"name":"solid","type":"bool","value":true}]},{"id":126,"name":"tree.grove#0","type":"prop","x":40.0,"y":336,"width":0,"height":0,"rotation":0,"visible":true,"point":true,"properties":[{"name":"kind","type":"string","value":"tree.grove"},{"name":"fw","type":"int","value":48},{"name":"fh","type":"int","value":16},{"name":"solid","type":"bool","value":true}]},{"id":127,"name":"tree.pine#0","type":"prop","x":40.0,"y":464,"width":0,"height":0,"rotation":0,"visible":true,"point":true,"properties":[{"name":"kind","type":"string","value":"tree.pine"},{"name":"fw","type":"int","value":16},{"name":"fh","type":"int","value":16},{"name":"solid","type":"bool","value":true}]},{"id":128,"name":"tree.pine#2","type":"prop","x":616.0,"y":160,"width":0,"height":0,"rotation":0,"visible":true,"point":true,"properties":[{"name":"kind","type":"string","value":"tree.pine"},{"name":"fw","type":"int","value":16},{"name":"fh","type":"int","value":16},{"name":"solid","type":"bool","value":true}]},{"id":129,"name":"tree.pine#1","type":"prop","x":8.0,"y":464,"width":0,"height":0,"rotation":0,"visible":true,"point":true,"properties":[{"name":"kind","type":"string","value":"tree.pine"},{"name":"fw","type":"int","value":16},{"name":"fh","type":"int","value":16},{"name":"solid","type":"bool","value":true}]},{"id":130,"name":"tree.pine#1","type":"prop","x":424.0,"y":480,"width":0,"height":0,"rotation":0,"visible":true,"point":true,"properties":[{"name":"kind","type":"string","value":"tree.pine"},{"name":"fw","type":"int","value":16},{"name":"fh","type":"int","value":16},{"name":"solid","type":"bool","value":true}]},{"id":131,"name":"tree.pine#2","type":"prop","x":440.0,"y":480,"width":0,"height":0,"rotation":0,"visible":true,"point":true,"properties":[{"name":"kind","type":"string","value":"tree.pine"},{"name":"fw","type":"int","value":16},{"name":"fh","type":"int","value":16},{"name":"solid","type":"bool","value":true}]},{"id":132,"name":"tree.pine#2","type":"prop","x":120.0,"y":464,"width":0,"height":0,"rotation":0,"visible":true,"point":true,"properties":[{"name":"kind","type":"string","value":"tree.pine"},{"name":"fw","type":"int","value":16},{"name":"fh","type":"int","value":16},{"name":"solid","type":"bool","value":true}]},{"id":133,"name":"tree.pine#1","type":"prop","x":536.0,"y":16,"width":0,"height":0,"rotation":0,"visible":true,"point":true,"properties":[{"name":"kind","type":"string","value":"tree.pine"},{"name":"fw","type":"int","value":16},{"name":"fh","type":"int","value":16},{"name":"solid","type":"bool","value":true}]},{"id":134,"name":"tree.pine#0","type":"prop","x":616.0,"y":128,"width":0,"height":0,"rotation":0,"visible":true,"point":true,"properties":[{"name":"kind","type":"string","value":"tree.pine"},{"name":"fw","type":"int","value":16},{"name":"fh","type":"int","value":16},{"name":"solid","type":"bool","value":true}]},{"id":135,"name":"tree.grove#1","type":"prop","x":24.0,"y":384,"width":0,"height":0,"rotation":0,"visible":true,"point":true,"properties":[{"name":"kind","type":"string","value":"tree.grove"},{"name":"fw","type":"int","value":48},{"name":"fh","type":"int","value":16},{"name":"solid","type":"bool","value":true}]},{"id":136,"name":"tree.pine#2","type":"prop","x":392.0,"y":480,"width":0,"height":0,"rotation":0,"visible":true,"point":true,"properties":[{"name":"kind","type":"string","value":"tree.pine"},{"name":"fw","type":"int","value":16},{"name":"fh","type":"int","value":16},{"name":"solid","type":"bool","value":true}]},{"id":137,"name":"tree.grove#1","type":"prop","x":536.0,"y":464,"width":0,"height":0,"rotation":0,"visible":true,"point":true,"properties":[{"name":"kind","type":"string","value":"tree.grove"},{"name":"fw","type":"int","value":48},{"name":"fh","type":"int","value":16},{"name":"solid","type":"bool","value":true}]},{"id":138,"name":"tree.pine#2","type":"prop","x":152.0,"y":464,"width":0,"height":0,"rotation":0,"visible":true,"point":true,"properties":[{"name":"kind","type":"string","value":"tree.pine"},{"name":"fw","type":"int","value":16},{"name":"fh","type":"int","value":16},{"name":"solid","type":"bool","value":true}]},{"id":139,"name":"tree.pine#2","type":"prop","x":536.0,"y":32,"width":0,"height":0,"rotation":0,"visible":true,"point":true,"properties":[{"name":"kind","type":"string","value":"tree.pine"},{"name":"fw","type":"int","value":16},{"name":"fh","type":"int","value":16},{"name":"solid","type":"bool","value":true}]},{"id":140,"name":"tree.grove#1","type":"prop","x":312.0,"y":32,"width":0,"height":0,"rotation":0,"visible":true,"point":true,"properties":[{"name":"kind","type":"string","value":"tree.grove"},{"name":"fw","type":"int","value":48},{"name":"fh","type":"int","value":16},{"name":"solid","type":"bool","value":true}]},{"id":141,"name":"tree.pine#0","type":"prop","x":488.0,"y":464,"width":0,"height":0,"rotation":0,"visible":true,"point":true,"properties":[{"name":"kind","type":"string","value":"tree.pine"},{"name":"fw","type":"int","value":16},{"name":"fh","type":"int","value":16},{"name":"solid","type":"bool","value":true}]},{"id":142,"name":"tree.grove#0","type":"prop","x":616.0,"y":80,"width":0,"height":0,"rotation":0,"visible":true,"point":true,"properties":[{"name":"kind","type":"string","value":"tree.grove"},{"name":"fw","type":"int","value":48},{"name":"fh","type":"int","value":16},{"name":"solid","type":"bool","value":true}]},{"id":143,"name":"tree.pine#1","type":"prop","x":616.0,"y":400,"width":0,"height":0,"rotation":0,"visible":true,"point":true,"properties":[{"name":"kind","type":"string","value":"tree.pine"},{"name":"fw","type":"int","value":16},{"name":"fh","type":"int","value":16},{"name":"solid","type":"bool","value":true}]},{"id":144,"name":"tree.pine#2","type":"prop","x":280.0,"y":480,"width":0,"height":0,"rotation":0,"visible":true,"point":true,"properties":[{"name":"kind","type":"string","value":"tree.pine"},{"name":"fw","type":"int","value":16},{"name":"fh","type":"int","value":16},{"name":"solid","type":"bool","value":true}]},{"id":145,"name":"tree.pine#0","type":"prop","x":8.0,"y":32,"width":0,"height":0,"rotation":0,"visible":true,"point":true,"properties":[{"name":"kind","type":"string","value":"tree.pine"},{"name":"fw","type":"int","value":16},{"name":"fh","type":"int","value":16},{"name":"solid","type":"bool","value":true}]},{"id":146,"name":"tree.grove#1","type":"prop","x":616.0,"y":352,"width":0,"height":0,"rotation":0,"visible":true,"point":true,"properties":[{"name":"kind","type":"string","value":"tree.grove"},{"name":"fw","type":"int","value":48},{"name":"fh","type":"int","value":16},{"name":"solid","type":"bool","value":true}]},{"id":147,"name":"tree.pine#0","type":"prop","x":472.0,"y":464,"width":0,"height":0,"rotation":0,"visible":true,"point":true,"properties":[{"name":"kind","type":"string","value":"tree.pine"},{"name":"fw","type":"int","value":16},{"name":"fh","type":"int","value":16},{"name":"solid","type":"bool","value":true}]},{"id":148,"name":"tree.pine#1","type":"prop","x":488.0,"y":480,"width":0,"height":0,"rotation":0,"visible":true,"point":true,"properties":[{"name":"kind","type":"string","value":"tree.pine"},{"name":"fw","type":"int","value":16},{"name":"fh","type":"int","value":16},{"name":"solid","type":"bool","value":true}]},{"id":149,"name":"tree.grove#0","type":"prop","x":24.0,"y":80,"width":0,"height":0,"rotation":0,"visible":true,"point":true,"properties":[{"name":"kind","type":"string","value":"tree.grove"},{"name":"fw","type":"int","value":48},{"name":"fh","type":"int","value":16},{"name":"solid","type":"bool","value":true}]},{"id":150,"name":"tree.grove#1","type":"prop","x":40.0,"y":176,"width":0,"height":0,"rotation":0,"visible":true,"point":true,"properties":[{"name":"kind","type":"string","value":"tree.grove"},{"name":"fw","type":"int","value":48},{"name":"fh","type":"int","value":16},{"name":"solid","type":"bool","value":true}]},{"id":151,"name":"tree.grove#0","type":"prop","x":40.0,"y":64,"width":0,"height":0,"rotation":0,"visible":true,"point":true,"properties":[{"name":"kind","type":"string","value":"tree.grove"},{"name":"fw","type":"int","value":48},{"name":"fh","type":"int","value":16},{"name":"solid","type":"bool","value":true}]},{"id":152,"name":"tree.pine#1","type":"prop","x":8.0,"y":64,"width":0,"height":0,"rotation":0,"visible":true,"point":true,"properties":[{"name":"kind","type":"string","value":"tree.pine"},{"name":"fw","type":"int","value":16},{"name":"fh","type":"int","value":16},{"name":"solid","type":"bool","value":true}]},{"id":153,"name":"tree.grove#0","type":"prop","x":40.0,"y":368,"width":0,"height":0,"rotation":0,"visible":true,"point":true,"properties":[{"name":"kind","type":"string","value":"tree.grove"},{"name":"fw","type":"int","value":48},{"name":"fh","type":"int","value":16},{"name":"solid","type":"bool","value":true}]},{"id":154,"name":"tree.pine#1","type":"prop","x":632.0,"y":208,"width":0,"height":0,"rotation":0,"visible":true,"point":true,"properties":[{"name":"kind","type":"string","value":"tree.pine"},{"name":"fw","type":"int","value":16},{"name":"fh","type":"int","value":16},{"name":"solid","type":"bool","value":true}]},{"id":155,"name":"tree.pine#2","type":"prop","x":632.0,"y":416,"width":0,"height":0,"rotation":0,"visible":true,"point":true,"properties":[{"name":"kind","type":"string","value":"tree.pine"},{"name":"fw","type":"int","value":16},{"name":"fh","type":"int","value":16},{"name":"solid","type":"bool","value":true}]},{"id":156,"name":"tree.pine#0","type":"prop","x":616.0,"y":112,"width":0,"height":0,"rotation":0,"visible":true,"point":true,"properties":[{"name":"kind","type":"string","value":"tree.pine"},{"name":"fw","type":"int","value":16},{"name":"fh","type":"int","value":16},{"name":"solid","type":"bool","value":true}]},{"id":157,"name":"tree.pine#0","type":"prop","x":8.0,"y":176,"width":0,"height":0,"rotation":0,"visible":true,"point":true,"properties":[{"name":"kind","type":"string","value":"tree.pine"},{"name":"fw","type":"int","value":16},{"name":"fh","type":"int","value":16},{"name":"solid","type":"bool","value":true}]},{"id":158,"name":"tree.pine#0","type":"prop","x":168.0,"y":464,"width":0,"height":0,"rotation":0,"visible":true,"point":true,"properties":[{"name":"kind","type":"string","value":"tree.pine"},{"name":"fw","type":"int","value":16},{"name":"fh","type":"int","value":16},{"name":"solid","type":"bool","value":true}]},{"id":159,"name":"tree.pine#0","type":"prop","x":8.0,"y":480,"width":0,"height":0,"rotation":0,"visible":true,"point":true,"properties":[{"name":"kind","type":"string","value":"tree.pine"},{"name":"fw","type":"int","value":16},{"name":"fh","type":"int","value":16},{"name":"solid","type":"bool","value":true}]},{"id":160,"name":"tree.pine#1","type":"prop","x":8.0,"y":416,"width":0,"height":0,"rotation":0,"visible":true,"point":true,"properties":[{"name":"kind","type":"string","value":"tree.pine"},{"name":"fw","type":"int","value":16},{"name":"fh","type":"int","value":16},{"name":"solid","type":"bool","value":true}]},{"id":161,"name":"tree.pine#1","type":"prop","x":616.0,"y":16,"width":0,"height":0,"rotation":0,"visible":true,"point":true,"properties":[{"name":"kind","type":"string","value":"tree.pine"},{"name":"fw","type":"int","value":16},{"name":"fh","type":"int","value":16},{"name":"solid","type":"bool","value":true}]},{"id":162,"name":"tree.pine#1","type":"prop","x":632.0,"y":320,"width":0,"height":0,"rotation":0,"visible":true,"point":true,"properties":[{"name":"kind","type":"string","value":"tree.pine"},{"name":"fw","type":"int","value":16},{"name":"fh","type":"int","value":16},{"name":"solid","type":"bool","value":true}]},{"id":163,"name":"tree.pine#0","type":"prop","x":440.0,"y":464,"width":0,"height":0,"rotation":0,"visible":true,"point":true,"properties":[{"name":"kind","type":"string","value":"tree.pine"},{"name":"fw","type":"int","value":16},{"name":"fh","type":"int","value":16},{"name":"solid","type":"bool","value":true}]},{"id":164,"name":"tree.pine#1","type":"prop","x":264.0,"y":16,"width":0,"height":0,"rotation":0,"visible":true,"point":true,"properties":[{"name":"kind","type":"string","value":"tree.pine"},{"name":"fw","type":"int","value":16},{"name":"fh","type":"int","value":16},{"name":"solid","type":"bool","value":true}]},{"id":165,"name":"tree.pine#2","type":"prop","x":568.0,"y":464,"width":0,"height":0,"rotation":0,"visible":true,"point":true,"properties":[{"name":"kind","type":"string","value":"tree.pine"},{"name":"fw","type":"int","value":16},{"name":"fh","type":"int","value":16},{"name":"solid","type":"bool","value":true}]},{"id":166,"name":"tree.pine#1","type":"prop","x":40.0,"y":32,"width":0,"height":0,"rotation":0,"visible":true,"point":true,"properties":[{"name":"kind","type":"string","value":"tree.pine"},{"name":"fw","type":"int","value":16},{"name":"fh","type":"int","value":16},{"name":"solid","type":"bool","value":true}]},{"id":167,"name":"tree.pine#0","type":"prop","x":24.0,"y":416,"width":0,"height":0,"rotation":0,"visible":true,"point":true,"properties":[{"name":"kind","type":"string","value":"tree.pine"},{"name":"fw","type":"int","value":16},{"name":"fh","type":"int","value":16},{"name":"solid","type":"bool","value":true}]},{"id":168,"name":"tree.pine#1","type":"prop","x":632.0,"y":336,"width":0,"height":0,"rotation":0,"visible":true,"point":true,"properties":[{"name":"kind","type":"string","value":"tree.pine"},{"name":"fw","type":"int","value":16},{"name":"fh","type":"int","value":16},{"name":"solid","type":"bool","value":true}]},{"id":169,"name":"tree.pine#1","type":"prop","x":408.0,"y":464,"width":0,"height":0,"rotation":0,"visible":true,"point":true,"properties":[{"name":"kind","type":"string","value":"tree.pine"},{"name":"fw","type":"int","value":16},{"name":"fh","type":"int","value":16},{"name":"solid","type":"bool","value":true}]},{"id":170,"name":"plant.bush#1","type":"prop","x":88.0,"y":80,"width":0,"height":0,"rotation":0,"visible":true,"point":true,"properties":[{"name":"kind","type":"string","value":"plant.bush"},{"name":"fw","type":"int","value":16},{"name":"fh","type":"int","value":16},{"name":"solid","type":"bool","value":false}]},{"id":171,"name":"plant.bush#1","type":"prop","x":88.0,"y":336,"width":0,"height":0,"rotation":0,"visible":true,"point":true,"properties":[{"name":"kind","type":"string","value":"plant.bush"},{"name":"fw","type":"int","value":16},{"name":"fh","type":"int","value":16},{"name":"solid","type":"bool","value":false}]},{"id":172,"name":"plant.bush#1","type":"prop","x":312.0,"y":192,"width":0,"height":0,"rotation":0,"visible":true,"point":true,"properties":[{"name":"kind","type":"string","value":"plant.bush"},{"name":"fw","type":"int","value":16},{"name":"fh","type":"int","value":16},{"name":"solid","type":"bool","value":false}]},{"id":173,"name":"plant.bush#1","type":"prop","x":568.0,"y":400,"width":0,"height":0,"rotation":0,"visible":true,"point":true,"properties":[{"name":"kind","type":"string","value":"plant.bush"},{"name":"fw","type":"int","value":16},{"name":"fh","type":"int","value":16},{"name":"solid","type":"bool","value":false}]},{"id":174,"name":"plant.bush#0","type":"prop","x":120.0,"y":64,"width":0,"height":0,"rotation":0,"visible":true,"point":true,"properties":[{"name":"kind","type":"string","value":"plant.bush"},{"name":"fw","type":"int","value":16},{"name":"fh","type":"int","value":16},{"name":"solid","type":"bool","value":false}]},{"id":175,"name":"plant.bush#1","type":"prop","x":184.0,"y":384,"width":0,"height":0,"rotation":0,"visible":true,"point":true,"properties":[{"name":"kind","type":"string","value":"plant.bush"},{"name":"fw","type":"int","value":16},{"name":"fh","type":"int","value":16},{"name":"solid","type":"bool","value":false}]},{"id":176,"name":"plant.bush#0","type":"prop","x":552.0,"y":176,"width":0,"height":0,"rotation":0,"visible":true,"point":true,"properties":[{"name":"kind","type":"string","value":"plant.bush"},{"name":"fw","type":"int","value":16},{"name":"fh","type":"int","value":16},{"name":"solid","type":"bool","value":false}]},{"id":177,"name":"plant.bush#0","type":"prop","x":344.0,"y":400,"width":0,"height":0,"rotation":0,"visible":true,"point":true,"properties":[{"name":"kind","type":"string","value":"plant.bush"},{"name":"fw","type":"int","value":16},{"name":"fh","type":"int","value":16},{"name":"solid","type":"bool","value":false}]},{"id":178,"name":"plant.bush#0","type":"prop","x":280.0,"y":400,"width":0,"height":0,"rotation":0,"visible":true,"point":true,"properties":[{"name":"kind","type":"string","value":"plant.bush"},{"name":"fw","type":"int","value":16},{"name":"fh","type":"int","value":16},{"name":"solid","type":"bool","value":false}]},{"id":179,"name":"plant.grass#1","type":"prop","x":376.0,"y":448,"width":0,"height":0,"rotation":0,"visible":true,"point":true,"properties":[{"name":"kind","type":"string","value":"plant.grass"},{"name":"fw","type":"int","value":16},{"name":"fh","type":"int","value":16},{"name":"solid","type":"bool","value":false}]},{"id":180,"name":"plant.grass#1","type":"prop","x":232.0,"y":48,"width":0,"height":0,"rotation":0,"visible":true,"point":true,"properties":[{"name":"kind","type":"string","value":"plant.grass"},{"name":"fw","type":"int","value":16},{"name":"fh","type":"int","value":16},{"name":"solid","type":"bool","value":false}]},{"id":181,"name":"plant.grass#1","type":"prop","x":424.0,"y":400,"width":0,"height":0,"rotation":0,"visible":true,"point":true,"properties":[{"name":"kind","type":"string","value":"plant.grass"},{"name":"fw","type":"int","value":16},{"name":"fh","type":"int","value":16},{"name":"solid","type":"bool","value":false}]},{"id":182,"name":"plant.grass#0","type":"prop","x":536.0,"y":112,"width":0,"height":0,"rotation":0,"visible":true,"point":true,"properties":[{"name":"kind","type":"string","value":"plant.grass"},{"name":"fw","type":"int","value":16},{"name":"fh","type":"int","value":16},{"name":"solid","type":"bool","value":false}]},{"id":183,"name":"plant.grass#0","type":"prop","x":296.0,"y":448,"width":0,"height":0,"rotation":0,"visible":true,"point":true,"properties":[{"name":"kind","type":"string","value":"plant.grass"},{"name":"fw","type":"int","value":16},{"name":"fh","type":"int","value":16},{"name":"solid","type":"bool","value":false}]},{"id":184,"name":"plant.grass#0","type":"prop","x":216.0,"y":48,"width":0,"height":0,"rotation":0,"visible":true,"point":true,"properties":[{"name":"kind","type":"string","value":"plant.grass"},{"name":"fw","type":"int","value":16},{"name":"fh","type":"int","value":16},{"name":"solid","type":"bool","value":false}]},{"id":185,"name":"plant.grass#1","type":"prop","x":216.0,"y":400,"width":0,"height":0,"rotation":0,"visible":true,"point":true,"properties":[{"name":"kind","type":"string","value":"plant.grass"},{"name":"fw","type":"int","value":16},{"name":"fh","type":"int","value":16},{"name":"solid","type":"bool","value":false}]},{"id":186,"name":"plant.grass#0","type":"prop","x":72.0,"y":128,"width":0,"height":0,"rotation":0,"visible":true,"point":true,"properties":[{"name":"kind","type":"string","value":"plant.grass"},{"name":"fw","type":"int","value":16},{"name":"fh","type":"int","value":16},{"name":"solid","type":"bool","value":false}]},{"id":187,"name":"plant.grass#1","type":"prop","x":568.0,"y":64,"width":0,"height":0,"rotation":0,"visible":true,"point":true,"properties":[{"name":"kind","type":"string","value":"plant.grass"},{"name":"fw","type":"int","value":16},{"name":"fh","type":"int","value":16},{"name":"solid","type":"bool","value":false}]},{"id":188,"name":"plant.grass#0","type":"prop","x":136.0,"y":336,"width":0,"height":0,"rotation":0,"visible":true,"point":true,"properties":[{"name":"kind","type":"string","value":"plant.grass"},{"name":"fw","type":"int","value":16},{"name":"fh","type":"int","value":16},{"name":"solid","type":"bool","value":false}]},{"id":189,"name":"plant.grass#0","type":"prop","x":424.0,"y":384,"width":0,"height":0,"rotation":0,"visible":true,"point":true,"properties":[{"name":"kind","type":"string","value":"plant.grass"},{"name":"fw","type":"int","value":16},{"name":"fh","type":"int","value":16},{"name":"solid","type":"bool","value":false}]},{"id":190,"name":"plant.grass#0","type":"prop","x":136.0,"y":352,"width":0,"height":0,"rotation":0,"visible":true,"point":true,"properties":[{"name":"kind","type":"string","value":"plant.grass"},{"name":"fw","type":"int","value":16},{"name":"fh","type":"int","value":16},{"name":"solid","type":"bool","value":false}]},{"id":191,"name":"lamp.post#0","type":"prop","x":104.0,"y":288,"width":0,"height":0,"rotation":0,"visible":true,"point":true,"properties":[{"name":"kind","type":"string","value":"lamp.post"},{"name":"fw","type":"int","value":16},{"name":"fh","type":"int","value":16},{"name":"solid","type":"bool","value":true}]},{"id":192,"name":"lamp.post#0","type":"prop","x":72.0,"y":208,"width":0,"height":0,"rotation":0,"visible":true,"point":true,"properties":[{"name":"kind","type":"string","value":"lamp.post"},{"name":"fw","type":"int","value":16},{"name":"fh","type":"int","value":16},{"name":"solid","type":"bool","value":true}]},{"id":193,"name":"tree.small#2","type":"prop","x":184.0,"y":80,"width":0,"height":0,"rotation":0,"visible":true,"point":true,"properties":[{"name":"kind","type":"string","value":"tree.small"},{"name":"fw","type":"int","value":16},{"name":"fh","type":"int","value":16},{"name":"solid","type":"bool","value":true}]},{"id":194,"name":"tree.small#1","type":"prop","x":504.0,"y":144,"width":0,"height":0,"rotation":0,"visible":true,"point":true,"properties":[{"name":"kind","type":"string","value":"tree.small"},{"name":"fw","type":"int","value":16},{"name":"fh","type":"int","value":16},{"name":"solid","type":"bool","value":true}]},{"id":195,"name":"tree.small#0","type":"prop","x":104.0,"y":112,"width":0,"height":0,"rotation":0,"visible":true,"point":true,"properties":[{"name":"kind","type":"string","value":"tree.small"},{"name":"fw","type":"int","value":16},{"name":"fh","type":"int","value":16},{"name":"solid","type":"bool","value":true}]},{"id":196,"name":"citygate","type":"spot","x":288,"y":347.2,"width":0,"height":0,"rotation":0,"visible":true,"point":true,"properties":[{"name":"node","type":"string","value":"1-n4"},{"name":"label","type":"string","value":"The besieged city"},{"name":"label_zh","type":"string","value":"被围的城"}]},{"id":197,"name":"npc-1","type":"npc","x":312.0,"y":302.4,"width":0,"height":0,"rotation":0,"visible":true,"point":true,"properties":[{"name":"kind","type":"string","value":"folk.soldier"},{"name":"sprite","type":"string","value":"f_soldier"},{"name":"wander","type":"bool","value":true},{"name":"drawn","type":"bool","value":true},{"name":"say","type":"string","value":"[[\"n\", \"“The rebels have us surrounded. If only someone could draw them off…”\", \"“贼兵把我们围住了。要是有人能把他们引开就好了……”\", \"231106a9e179\"]]"}]},{"id":198,"name":"exit-daxing-mountain","type":"exit","x":0,"y":224,"width":16,"height":32,"rotation":0,"visible":true,"properties":[{"name":"to","type":"string","value":"daxing-mountain"},{"name":"side","type":"string","value":"W"}]},{"id":199,"name":"exit-guangzong-road","type":"exit","x":624,"y":240,"width":16,"height":32,"rotation":0,"visible":true,"properties":[{"name":"to","type":"string","value":"guangzong-road"},{"name":"side","type":"string","value":"E"}]},{"id":200,"name":"exit-qingzhou--hall-1","type":"exit","x":265.6,"y":189.6,"width":12.8,"height":7.2,"rotation":0,"visible":true,"properties":[{"name":"to","type":"string","value":"qingzhou--hall-1"},{"name":"side","type":"string","value":"N"}]},{"id":201,"name":"exit-qingzhou--house-1","type":"exit","x":377.6,"y":237.6,"width":12.8,"height":7.2,"rotation":0,"visible":true,"properties":[{"name":"to","type":"string","value":"qingzhou--house-1"},{"name":"side","type":"string","value":"N"}]},{"id":202,"name":"exit-qingzhou--house-2","type":"exit","x":153.6,"y":189.6,"width":12.8,"height":7.2,"rotation":0,"visible":true,"properties":[{"name":"to","type":"string","value":"qingzhou--house-2"},{"name":"side","type":"string","value":"N"}]},{"id":203,"name":"exit-qingzhou--inn-1","type":"exit","x":457.6,"y":205.6,"width":12.8,"height":7.2,"rotation":0,"visible":true,"properties":[{"name":"to","type":"string","value":"qingzhou--inn-1"},{"name":"side","type":"string","value":"N"}]},{"id":204,"name":"exit-qingzhou--shop-1","type":"exit","x":193.6,"y":285.6,"width":12.8,"height":7.2,"rotation":0,"visible":true,"properties":[{"name":"to","type":"string","value":"qingzhou--shop-1"},{"name":"side","type":"string","value":"N"}]},{"id":205,"name":"exit-qingzhou--house-3","type":"exit","x":553.6,"y":205.6,"width":12.8,"height":7.2,"rotation":0,"visible":true,"properties":[{"name":"to","type":"string","value":"qingzhou--house-3"},{"name":"side","type":"string","value":"N"}]},{"id":206,"name":"exit-qingzhou--shop-2","type":"exit","x":369.6,"y":333.6,"width":12.8,"height":7.2,"rotation":0,"visible":true,"properties":[{"name":"to","type":"string","value":"qingzhou--shop-2"},{"name":"side","type":"string","value":"N"}]},{"id":207,"name":"exit-qingzhou--house-4","type":"exit","x":153.6,"y":141.6,"width":12.8,"height":7.2,"rotation":0,"visible":true,"properties":[{"name":"to","type":"string","value":"qingzhou--house-4"},{"name":"side","type":"string","value":"N"}]},{"id":208,"name":"entry-daxing-mountain","type":"entry","x":40.0,"y":254.4,"width":0,"height":0,"rotation":0,"visible":true,"point":true,"properties":[{"name":"from","type":"string","value":"daxing-mountain"}]},{"id":209,"name":"entry-guangzong-road","type":"entry","x":600.0,"y":270.4,"width":0,"height":0,"rotation":0,"visible":true,"point":true,"properties":[{"name":"from","type":"string","value":"guangzong-road"}]},{"id":210,"name":"entry","type":"entry","x":600.0,"y":270.4,"width":0,"height":0,"rotation":0,"visible":true,"point":true},{"id":211,"name":"entry-qingzhou--hall-1","type":"entry","x":280.0,"y":206.4,"width":0,"height":0,"rotation":0,"visible":true,"point":true,"properties":[{"name":"from","type":"string","value":"qingzhou--hall-1"}]},{"id":212,"name":"entry-qingzhou--house-1","type":"entry","x":392.0,"y":254.4,"width":0,"height":0,"rotation":0,"visible":true,"point":true,"properties":[{"name":"from","type":"string","value":"qingzhou--house-1"}]},{"id":213,"name":"entry-qingzhou--house-2","type":"entry","x":168.0,"y":206.4,"width":0,"height":0,"rotation":0,"visible":true,"point":true,"properties":[{"name":"from","type":"string","value":"qingzhou--house-2"}]},{"id":214,"name":"entry-qingzhou--inn-1","type":"entry","x":472.0,"y":222.4,"width":0,"height":0,"rotation":0,"visible":true,"point":true,"properties":[{"name":"from","type":"string","value":"qingzhou--inn-1"}]},{"id":215,"name":"entry-qingzhou--shop-1","type":"entry","x":200.0,"y":302.4,"width":0,"height":0,"rotation":0,"visible":true,"point":true,"properties":[{"name":"from","type":"string","value":"qingzhou--shop-1"}]},{"id":216,"name":"entry-qingzhou--house-3","type":"entry","x":568.0,"y":222.4,"width":0,"height":0,"rotation":0,"visible":true,"point":true,"properties":[{"name":"from","type":"string","value":"qingzhou--house-3"}]},{"id":217,"name":"entry-qingzhou--shop-2","type":"entry","x":376.0,"y":350.4,"width":0,"height":0,"rotation":0,"visible":true,"point":true,"properties":[{"name":"from","type":"string","value":"qingzhou--shop-2"}]},{"id":218,"name":"entry-qingzhou--house-4","type":"entry","x":168.0,"y":158.4,"width":0,"height":0,"rotation":0,"visible":true,"point":true,"properties":[{"name":"from","type":"string","value":"qingzhou--house-4"}]}]}]}