{"type":"map","version":"1.10","tiledversion":"1.10.2","orientation":"orthogonal","renderorder":"right-down","width":88,"height":68,"tilewidth":16,"tileheight":16,"infinite":false,"nextlayerid":6,"nextobjectid":313,"properties":[{"name":"kit","type":"string","value":"xianxia"},{"name":"source","type":"string","value":"luoyang.map.json"},{"name":"states","type":"string","value":"[{\"id\": \"court\", \"light\": \"day\", \"exits_closed\": [\"beimang\", \"the-camps\", \"the-east-road\"], \"exits_closed_say\": {\"beimang\": [[\"n\", \"The north gate is shut. The whole city waits on He Jin.\", \"北门已闭。满城都在等何进的动静。\", \"880f36b67922\"]], \"the-camps\": [[\"n\", \"Outside the walls is no place for a colonel today. He Jin's council is sitting.\", \"今日不是校尉出城的时候。何进府中正在议事。\", \"8fa86723c301\"]], \"the-east-road\": [[\"n\", \"Not now. The council is sitting at He Jin's.\", \"现在不行。何进府中正在议事。\", \"c94fd8b8706d\"]]}}, {\"id\": \"burning\", \"when\": \"node:c2\", \"until\": \"node:c3\", \"light\": \"night\", \"weather\": \"smoke\", \"exits_closed\": [\"beimang\", \"the-camps\", \"the-east-road\"], \"exits_closed_say\": {\"beimang\": [[\"n\", \"The gates are barred. The Emperor is somewhere inside the burning palace.\", \"城门已闩。天子还在火海般的宫中某处。\", \"6993df04e225\"]], \"the-camps\": [[\"n\", \"The gates are barred. The Emperor is somewhere inside the burning palace.\", \"城门已闩。天子还在火海般的宫中某处。\", \"6993df04e225\"]], \"the-east-road\": [[\"n\", \"The gates are barred. The Emperor is somewhere inside the burning palace.\", \"城门已闩。天子还在火海般的宫中某处。\", \"6993df04e225\"]]}}, {\"id\": \"dong\", \"when\": \"node:c5\", \"until\": \"node:c16\", \"banners\": \"black\", \"light\": \"day\", \"exits_closed\": [\"beimang\", \"the-east-road\"], \"exits_closed_say\": {\"beimang\": [[\"n\", \"Xiliang horsemen hold the north gate. No one leaves without Dong Zhuo's word.\", \"西凉铁骑把守北门。没有董卓的话，谁也出不去。\", \"406cc37542aa\"]], \"the-east-road\": [[\"n\", \"Xiliang horsemen hold the East Gate. No one leaves without Dong Zhuo's word.\", \"西凉铁骑把守东门。没有董卓的话，谁也出不去。\", \"72f1f0a75e15\"]]}}, {\"id\": \"sword\", \"when\": \"node:c16\", \"until\": \"node:c17\", \"banners\": \"black\", \"light\": \"day\", \"exits_closed\": [\"beimang\", \"the-camps\", \"the-east-road\"], \"exits_closed_say\": {\"beimang\": [[\"n\", \"Not that way. East, out of the city, before they think to send for you.\", \"不是那边。往东出城，趁他们还没想起来派人找你。\", \"a78fb2fa6dbb\"]], \"the-camps\": [[\"n\", \"Not that way. East, out of the city, before they think to send for you.\", \"不是那边。往东出城，趁他们还没想起来派人找你。\", \"a78fb2fa6dbb\"]], \"the-east-road\": [[\"n\", \"The East Gate is ahead. Ride up to it as if you had every right.\", \"东门就在前面。大大方方地骑过去，仿佛理所当然。\", \"7a838f05ecef\"]]}}, {\"id\": \"wanted\", \"when\": \"node:c17\", \"banners\": \"black\", \"light\": \"day\", \"exits_closed\": [\"beimang\", \"the-camps\"], \"exits_closed_say\": {\"beimang\": [[\"n\", \"Your face is on every gate in Luoyang now. East, and keep going.\", \"如今洛阳每座城门都挂着你的画像。往东，不要停。\", \"b6d74038f4ec\"]], \"the-camps\": [[\"n\", \"Your face is on every gate in Luoyang now. East, and keep going.\", \"如今洛阳每座城门都挂着你的画像。往东，不要停。\", \"b6d74038f4ec\"]]}}]"},{"name":"ways","type":"string","value":"{\"nodes\":[[2.0,34.0],[10.0,34.0],[30.0,34.0],[34.0,34.0],[54.0,34.0],[66.0,34.0],[78.0,34.0],[86.0,34.0],[66.0,2.0],[30.0,10.0],[10.0,58.0],[34.0,58.0],[54.0,58.0],[78.0,58.0]],\"edges\":[[0,1],[1,2],[1,10],[2,3],[2,9],[3,4],[3,11],[4,5],[4,12],[5,6],[5,8],[6,7],[6,13],[10,11],[11,12],[12,13]]}"},{"name":"chase","type":"string","value":"{\"chase\":\"c17\",\"state\":\"sword\",\"from\":[21.5,57.7],\"to\":[77.5,33.7],\"pace\":{\"horse\":165,\"wave\":150,\"wave_after\":1.0,\"ambusher\":140,\"reach\":9,\"lead\":0.1,\"hold\":1.0,\"hit\":0.8},\"wave\":{\"from\":[21.5,57.7],\"kind\":\"folk.soldier\",\"count\":8},\"ambush\":[{\"id\":\"side-gate\",\"post\":[30.0,46.0],\"to\":[38.0,46.0],\"dash\":\"E\",\"kind\":\"folk.soldier\"},{\"id\":\"jiade\",\"post\":[45.5,29.5],\"to\":[45.5,36.5],\"dash\":\"S\",\"kind\":\"folk.soldier\"},{\"id\":\"lane-mouth\",\"post\":[53.5,37.5],\"to\":[53.5,29.5],\"dash\":\"N\",\"kind\":\"folk.soldier\"},{\"id\":\"market-n\",\"post\":[70.0,38.0],\"to\":[70.0,31.0],\"dash\":\"N\",\"kind\":\"folk.soldier\"},{\"id\":\"lodging\",\"post\":[74.0,30.0],\"to\":[74.0,36.0],\"dash\":\"S\",\"kind\":\"folk.soldier\"},{\"id\":\"ward-lane\",\"post\":[33.5,53.5],\"to\":[33.5,59.5],\"dash\":\"S\",\"kind\":\"folk.soldier\"},{\"id\":\"stairs-w\",\"post\":[46.0,59.5],\"to\":[46.0,55.5],\"dash\":\"N\",\"kind\":\"folk.soldier\"},{\"id\":\"lane-mouth-s\",\"post\":[53.5,53.5],\"to\":[53.5,59.5],\"dash\":\"S\",\"kind\":\"folk.soldier\"},{\"id\":\"market-s\",\"post\":[70.0,54.0],\"to\":[70.0,59.0],\"dash\":\"S\",\"kind\":\"folk.soldier\"},{\"id\":\"stairs-e\",\"post\":[62.0,59.5],\"to\":[62.0,55.5],\"dash\":\"N\",\"kind\":\"folk.soldier\"},{\"id\":\"market-e\",\"post\":[74.0,46.0],\"to\":[79.0,46.0],\"dash\":\"E\",\"kind\":\"folk.soldier\"},{\"id\":\"stall\",\"post\":[61.5,45.5],\"to\":[69.5,45.5],\"dash\":\"E\",\"kind\":\"folk.soldier\"}],\"routes\":{\"main street\":{\"tiles\":78,\"straight_hits\":[\"side-gate\",\"jiade\",\"lane-mouth\",\"market-n\",\"lodging\",\"ward-lane\"],\"clean_s\":7.7,\"sprung\":[\"side-gate\",\"jiade\",\"lane-mouth\",\"market-n\",\"lodging\",\"ward-lane\"]},\"south street\":{\"tiles\":79,\"straight_hits\":[\"ward-lane\",\"stairs-w\",\"lane-mouth-s\",\"market-s\",\"stairs-e\",\"market-e\"],\"clean_s\":8.0,\"sprung\":[\"ward-lane\",\"stairs-w\",\"lane-mouth-s\",\"market-s\",\"stairs-e\",\"market-e\"]},\"market\":{\"tiles\":78,\"straight_hits\":[\"market-n\",\"lodging\",\"ward-lane\",\"stairs-w\",\"lane-mouth-s\",\"stairs-e\",\"stall\"],\"clean_s\":8.0,\"sprung\":[\"lodging\",\"ward-lane\",\"stairs-w\",\"lane-mouth-s\",\"market-s\",\"stairs-e\",\"market-e\"]}}}"},{"name":"paths","type":"string","value":"0000000000000000000000000000000000000000000000000000000000000000111100000000000000000000|0000000000000000000000000000000000000000000000000000000000000000111100000000000000000000|0000000000000000000000000000000000000000000000000000000000000000111100000000000000000000|0000000000000000000000000000000000000000000000000000000000000000111100000000000000000000|0000000000000000000000000000000000000000000000000000000000000000111100000000000000000000|0000000000000000000000000000000000000000000000000000000000000000111100000000000000000000|0000000000000000000000000000000000000000000000000000000000000000111100000000000000000000|0000000000000000000000000000000000000000000000000000000000000000111100000000000000000000|0000000000000000000000000000000000000000000000000000000000000000111100000000000000000000|0000000000000000000000000000011000000000000000000000000000000000111100000000000000000000|0000000000000000000000000000011000000000000000000000000000000000111100000000000000000000|0000000000000000000000000000011000000000000000000000000000000000111100000000000000000000|0000000000000000000000000000011000000000000000000000000000000000111100000000000000000000|0000000000000000000000000000011000000000000000000000000000000000111100000000000000000000|0000000000000000000000000000011000000000000000000000000000000000111100000000000000000000|0000000000000000000000000000011000000000000000000000000000000000111100000000000000000000|0000000000000000000000000000011000000000000000000000000000000000111100000000000000000000|0000000000000000000000000000011000000000000000000000000000000000111100000000000000000000|0000000000000000000000000000011000000000000000000000000000000000111100000000000000000000|0000000000000000000000000000011000000000000000000000000000000000111100000000000000000000|0000000000000000000000000000011000000000000000000000000000000000111100000000000000000000|0000000000000000000000000000011000000000000000000000000000000000111100000000000000000000|0000000000000000000000000000011000000000000000000000000000000000111100000000000000000000|0000000000000000000000000000011000000000000000000000000000000000111100000000000000000000|0000000000000000000000000000011000000000000000000000000000000000111111111111000000000000|0000000000000000000000000000011000000000000000000000000000000000111111111111000000000000|0000000000000000000000000000011000000000000000000000000000000000111111111111000000000000|0000000000000000000000000000011000000000000000000000000000000000111111111111000000000000|0000000000000000000000000000011011111111111111111111111100000000111100000000000000000000|0000000000000000000000000000011011111111111111111111111100000000111100000110000000000000|0000000000000000000000000000011011111111111111111111111100000000111100000110000000000000|0000000000000000000000000000011011111111111111111111111100000000111100000000000000000000|1111111111111111111111111111111111111111111111111111111111111111111111111111111111111111|1111111111111111111111111111111111111111111111111111111111111111111111111111111111111111|1111111111111111111111111111111111111111111111111111111111111111111111111111111111111111|1111111111111111111111111111111111111111111111111111111111111111111111111111111111111111|0000000001100000000000000000000001100000000000000000011000000000000000000000011000000000|0000000001100000000000000000000001100000000000000000011000000000011001100000011000000000|0000000001100000000000000000000001100000000000000000011000000000011001100000011000000000|0000000001100000000000000000000001100000000000000000011000000000000000000000011000000000|0000000001100000000000000000000001100000111111110000011000001111111111110000011000000000|0000000001100000000000000000000001100000111111110000011000001111111111110000011000000000|0000000001100000000000000000000001100000111111110000011000001111111111110000011000000000|0000000001100000000000000000000001100000111111110000011000001111111111110000011000000000|0000000001100000000000000000000001100000111111110000011000001111111111110000011000000000|0000000001100000000000000000011001100110111111110110011000001111111111110110011000000000|0000000001100000000000000000011001100110111111110110011000001111111111110110011000000000|0000000001100000000000000000000001100000111111110000011000001111111111110000011000000000|0000000001100000111111111111000001100000111111110000011000001111111111110000011000000000|0000000001100000111111111111000001100000111111110000011000001111111111110000011000000000|0000000001100000111111111111000001100000111111110000011000001111111111110000011000000000|0000000001100000111111111111000001100000111111110000011000001111111111110000011000000000|0000000001100000000000000000000001100000000000000000011000000000000000000000011000000000|0000000001100000000001100000000001100000000000000000011000000000011001100000011000000000|0000000001100000000001100000000001100000000000000000011000000000011001100000011000000000|0000000001100000000000000000000001100000000000000000011000000000000000000000011000000000|0000000011111111111111111111111111111111111111111111111111111111111111111111111100000000|0000000011111111111111111111111111111111111111111111111111111111111111111111111100000000|0000000011111111111111111111111111111111111111111111111111111111111111111111111100000000|0000000011111111111111111111111111111111111111111111111111111111111111111111111100000000|0000000000000000000000000000000000000000000000000000000000000000000000000000000000000000|0000000000000000000000000000000000000000000000000000000000000000000000000000000000000000|0000000000000000000000000000000000000000000000000000000000000000000000000000000000000000|0000000000000000000000000000000000000000000000000000000000000000000000000000000000000000|0000000000000000000000000000000000000000000000000000000000000000000000000000000000000000|0000000000000000000000000000000000000000000000000000000000000000000000000000000000000000|0000000000000000000000000000000000000000000000000000000000000000000000000000000000000000|0000000000000000000000000000000000000000000000000000000000000000000000000000000000000000"}],"tilesets":[{"firstgid":1,"name":"x_tiles","tilewidth":16,"tileheight":16,"columns":4,"tilecount":20,"margin":0,"spacing":0,"image":"../../../../assets/tk/xianxia/tiles.png","imagewidth":64,"imageheight":80},{"firstgid":21,"name":"drawn_b2_tiles","tilewidth":16,"tileheight":16,"columns":2,"tilecount":18,"margin":0,"spacing":0,"image":"../../../../assets/tk/drawn_b2_tiles.png","imagewidth":32,"imageheight":144},{"firstgid":39,"name":"_swatch","tilewidth":16,"tileheight":16,"columns":64,"tilecount":64,"margin":0,"spacing":0,"image":"swatch.png","imagewidth":1024,"imageheight":16},{"firstgid":103,"name":"n_floor_in","tilewidth":16,"tileheight":16,"columns":22,"tilecount":374,"margin":0,"spacing":0,"image":"../../../../assets/tk/ninja/floor_in.png","imagewidth":352,"imageheight":272},{"firstgid":477,"name":"x_edges","tilewidth":16,"tileheight":16,"columns":30,"tilecount":300,"margin":0,"spacing":0,"image":"../../../../assets/tk/xianxia/edges.png","imagewidth":480,"imageheight":160},{"firstgid":777,"name":"n_wall_in","tilewidth":16,"tileheight":16,"columns":10,"tilecount":110,"margin":0,"spacing":0,"image":"../../../../assets/tk/ninja/wall_in.png","imagewidth":160,"imageheight":176}],"layers":[{"id":1,"name":"ground","type":"tilelayer","width":88,"height":68,"x":0,"y":0,"opacity":1,"visible":true,"data":[1,3,3,3,1,1,1,2,1,3,3,2,1,1,1,1,2,4,2,1,4,1,2,1,1,1,3,4,2,4,1,3,1,4,1,3,3,1,1,2,3,1,3,1,1,3,4,3,2,3,2,4,1,2,4,1,1,1,2,4,2,1,1,1,4,1,3,4,2,2,3,1,3,1,2,4,1,2,2,3,3,1,1,1,3,1,4,1,3,3,3,3,1,4,3,3,4,2,4,1,3,2,4,3,1,4,1,1,4,1,2,4,1,4,2,3,1,3,1,4,1,4,4,1,4,3,4,1,1,2,4,3,1,1,3,4,4,1,2,1,3,3,4,3,2,4,4,4,2,1,1,1,2,4,4,1,1,3,1,2,1,1,1,1,4,3,4,1,2,2,3,1,4,1,4,1,1,1,1,3,4,2,4,1,1,2,1,3,1,1,1,1,2,2,2,3,4,2,1,1,1,1,3,1,1,3,1,4,1,1,1,1,1,1,2,2,1,3,2,1,1,3,4,3,4,1,1,1,1,3,4,1,1,1,4,1,4,4,1,1,1,1,1,2,1,4,4,1,2,1,3,1,4,1,3,1,1,1,1,2,1,1,4,1,1,1,1,1,2,1,1,1,1,1,3,4,2,3,4,1,1,1,4,4,4,3,1,2,1,4,4,2,4,1,3,4,2,3,1,3,4,3,1,1,1,1,4,1,1,1,1,3,1,2,1,4,1,2,3,4,3,4,1,2,1,1,2,1,1,3,2,4,1,2,3,1,1,1,1,1,4,4,2,1,4,2,1,1,1,1,4,4,2,1,4,1,1,2,1,1,3,1,1,3,1,1,1,1,3,1,1,4,3,1,1,1,1,3,1,4,4,2,2,2,1,4,2,1,2,3,3,1,4,1,1,4,3,1,1,4,1,1,4,1,3,1,1,1,1,3,4,1,1,1,2,2,4,4,1,1,1,1,4,3,1,2,3,1,2,4,2,3,1,1,1,2,3,1,4,4,4,4,3,1,1,4,3,4,2,1,1,2,3,2,2,2,2,2,1,2,4,3,2,4,2,3,1,1,3,3,1,1,3,3,3,1,3,1,1,1,1,1,1,4,1,4,4,4,1,1,4,2,1,1,2,2,1,1,1,1,3,2,4,3,2,3,3,1,1,2,3,3,1,1,1,1,3,1,2,4,1,1,2,1,1,1,1,3,1,1,2,1,1,3,28,27,28,28,28,28,27,28,27,28,28,28,27,27,28,28,28,27,27,27,28,27,27,28,28,27,27,27,27,28,27,27,27,27,28,27,27,27,28,27,27,27,27,28,28,27,27,28,28,28,28,27,27,28,28,27,27,28,1,1,2,1,28,28,28,27,28,28,27,27,28,27,27,27,28,27,4,4,2,3,2,4,1,1,3,1,1,1,28,27,27,27,27,27,27,27,28,27,28,27,28,27,27,28,27,28,28,28,27,27,27,28,27,28,27,27,27,27,28,27,27,28,28,28,27,27,27,28,27,27,28,28,27,27,28,27,27,27,27,28,27,28,28,28,28,27,2,4,4,1,27,27,28,27,27,28,27,28,28,28,28,28,27,27,3,1,1,1,3,1,4,1,4,1,2,1,27,27,4,1,1,1,1,1,1,2,2,4,1,1,3,1,4,1,3,1,1,1,3,4,1,1,4,2,4,1,1,1,1,1,1,1,1,4,1,3,2,3,3,1,2,1,4,1,1,4,39,39,39,39,1,2,1,1,1,3,1,4,3,1,4,1,4,1,2,2,1,1,4,1,27,28,1,1,4,2,1,1,4,1,1,1,2,1,28,28,1,1,3,1,3,1,1,1,1,1,1,3,2,1,1,4,3,1,3,1,1,1,2,1,1,1,1,1,4,2,3,1,4,1,4,1,2,2,1,1,1,4,1,2,2,3,1,3,39,39,39,39,1,1,4,1,3,1,1,4,1,1,4,1,4,1,4,1,2,1,1,4,27,27,4,1,2,1,3,1,1,2,1,3,1,1,27,28,3,4,1,2,2,2,1,1,2,1,1,1,4,1,1,1,4,2,1,4,3,2,1,3,1,1,1,1,4,1,3,4,1,1,2,2,4,3,3,1,2,2,1,4,1,4,1,1,39,39,39,39,2,1,2,4,1,3,1,1,4,1,2,4,1,2,3,4,1,2,1,4,27,28,1,1,1,1,3,4,1,1,1,1,1,1,27,28,1,1,1,3,4,1,4,2,1,1,1,3,4,1,3,3,1,1,3,1,1,1,1,2,4,3,1,2,4,4,1,1,1,1,4,1,4,2,3,1,3,1,2,1,1,1,1,4,39,39,39,39,3,2,1,4,1,1,3,3,1,2,3,1,1,1,1,3,1,1,1,1,28,27,2,1,2,1,4,2,1,1,1,1,1,1,27,27,4,1,3,1,2,1,1,1,1,1,3,1,4,1,1,4,2,1,2,2,1,4,1,1,3,1,1,3,1,4,2,2,1,1,4,2,1,1,1,1,1,4,2,2,3,2,3,1,39,39,39,39,2,1,2,1,4,2,4,4,3,1,4,3,1,1,2,4,1,4,2,1,27,27,4,2,1,3,4,1,2,4,4,3,4,1,27,28,1,4,4,1,1,3,1,2,4,3,1,4,1,1,2,1,4,2,4,2,1,4,3,4,1,4,1,2,1,3,4,3,2,2,3,2,1,1,2,3,1,1,4,2,1,2,1,4,39,39,39,39,3,2,1,2,3,1,3,1,4,1,3,3,1,2,3,1,1,2,1,2,27,28,2,1,1,4,2,1,1,1,3,1,4,2,27,27,2,1,3,3,1,4,1,4,1,1,2,3,4,3,1,2,2,2,3,4,3,2,1,2,1,1,3,1,1,3,1,1,3,4,3,3,3,1,1,2,1,1,2,1,1,4,1,4,39,39,39,39,1,1,3,2,2,1,3,1,1,1,3,3,2,3,4,1,1,1,2,3,28,27,1,3,4,2,1,1,2,2,2,1,1,1,27,27,1,1,4,1,4,4,4,1,2,2,4,1,1,1,1,2,1,1,3,3,4,1,2,1,1,4,3,2,3,1,1,1,1,1,1,3,2,1,1,1,1,4,1,1,4,4,3,3,39,39,39,39,1,1,1,1,4,2,1,1,1,2,1,1,1,1,1,1,3,1,1,1,27,28,2,1,1,1,1,1,1,2,3,1,1,3,28,27,1,2,4,1,2,3,1,3,1,4,1,2,1,1,1,1,2,1,1,1,1,1,1,1,3,2,1,3,3,2,1,1,1,1,2,1,1,1,3,3,1,1,2,4,1,1,3,1,39,39,39,39,4,4,1,1,4,1,2,4,1,1,2,1,1,4,1,3,1,4,2,4,28,27,2,2,1,1,1,1,4,3,1,2,3,1,28,28,3,2,1,3,1,1,1,3,4,1,3,3,1,1,1,4,1,2,1,3,1,1,1,1,3,1,4,1,4,3,1,2,3,4,1,2,2,1,1,2,1,2,1,1,1,1,4,3,39,39,39,39,1,2,2,1,2,1,4,3,2,2,1,1,3,3,4,1,2,4,1,1,28,28,3,3,2,4,1,2,3,3,1,1,1,1,28,28,4,1,1,1,3,2,1,4,3,3,1,2,1,1,3,4,2,1,3,2,1,3,1,3,3,4,1,3,3,4,3,2,2,4,1,4,3,4,1,1,1,4,3,1,1,2,1,3,39,39,39,39,1,4,1,2,3,1,1,2,3,3,4,3,1,1,1,4,1,1,1,1,28,28,1,1,2,1,2,1,1,2,1,1,1,1,27,28,1,3,1,2,1,4,2,1,1,3,1,1,1,1,1,1,4,1,3,3,2,1,1,4,1,4,1,4,3,1,4,4,2,1,2,1,2,2,3,1,4,1,1,1,1,4,3,1,39,39,39,39,3,1,1,1,1,2,1,3,2,1,3,1,1,3,4,1,4,1,4,1,28,27,4,1,2,3,1,2,3,2,1,1,3,1,27,28,1,3,1,1,1,3,2,1,1,2,4,1,1,3,4,3,4,4,1,4,1,1,3,4,1,1,4,1,1,2,1,1,2,1,1,4,4,2,1,4,1,2,1,1,2,3,3,2,39,39,39,39,3,1,1,3,4,1,1,1,2,1,4,2,1,2,1,1,3,1,1,2,27,27,1,3,4,3,2,1,2,3,1,1,4,2,27,27,1,1,1,1,1,1,1,1,2,3,1,1,2,3,3,3,4,1,1,3,1,4,3,3,4,3,3,3,1,2,1,2,4,4,3,3,1,2,1,1,1,1,1,4,1,1,3,3,39,39,39,39,1,1,1,4,4,1,4,1,4,3,1,4,2,1,1,2,1,1,3,1,27,28,1,4,3,2,2,4,2,4,4,1,4,2,27,27,4,3,1,1,4,1,1,3,1,2,1,3,3,4,2,1,1,1,2,4,4,1,1,1,4,1,4,4,3,1,1,1,2,3,1,4,1,1,4,2,4,4,1,1,2,1,1,1,39,39,39,39,1,3,1,2,1,2,1,1,4,1,1,1,1,4,2,1,1,4,1,3,28,27,1,1,4,3,4,2,2,1,1,2,3,1,28,28,3,2,1,1,1,1,4,4,1,2,1,1,1,3,1,2,1,2,2,4,2,1,1,4,4,1,1,1,1,2,4,3,1,4,1,3,1,1,1,1,3,4,1,4,1,1,1,3,39,39,39,39,3,1,1,1,1,1,2,4,1,2,1,2,2,1,4,1,1,1,2,1,28,27,2,1,3,1,1,3,1,4,3,1,3,4,28,28,4,2,4,2,4,1,1,1,3,2,1,2,1,1,1,1,1,1,2,3,4,2,4,3,4,3,1,1,2,3,3,1,1,1,1,3,2,3,4,4,1,4,1,2,1,3,3,3,39,39,39,39,1,1,1,4,1,2,1,1,392,392,392,392,392,392,392,392,1,3,1,1,28,28,1,1,1,1,1,3,1,4,2,3,4,3,28,27,3,1,1,4,3,4,1,1,1,1,1,1,1,4,1,1,1,1,1,3,1,1,3,1,2,2,1,2,1,2,3,2,4,1,1,2,3,2,1,1,2,1,2,2,1,4,4,4,39,39,39,39,1,1,1,3,3,1,4,1,392,392,392,392,392,392,392,392,1,3,3,3,28,27,1,2,1,1,2,1,2,1,2,1,1,2,27,27,3,3,4,3,2,1,4,4,2,2,1,2,1,1,3,1,4,1,2,3,1,1,3,4,1,3,2,3,1,3,3,3,2,2,1,2,1,1,3,3,3,4,2,1,3,2,1,2,39,39,39,39,1,3,1,1,1,4,1,4,392,392,392,392,392,392,392,392,1,1,2,3,28,28,4,2,1,1,1,3,1,1,3,2,4,1,27,28,1,1,1,2,1,3,1,1,4,3,1,4,4,1,1,2,2,1,4,1,2,1,1,3,1,1,1,2,1,1,4,1,2,4,2,4,4,1,2,3,4,1,4,1,3,4,2,2,39,39,39,39,1,1,1,2,1,1,2,3,392,392,392,392,392,392,392,392,1,3,1,1,27,27,1,3,2,1,3,4,1,1,1,3,4,1,28,27,3,1,3,3,1,4,3,4,1,4,4,1,1,1,1,2,1,1,1,1,1,3,3,1,392,392,392,392,392,392,392,392,392,392,392,392,392,392,392,392,392,392,392,392,392,392,392,392,1,39,39,3,3,1,1,4,4,4,2,1,4,1,3,1,1,4,1,4,4,2,4,3,27,28,1,3,2,3,3,3,1,1,3,3,3,3,28,27,1,1,1,1,2,2,4,2,1,1,1,1,2,1,1,2,4,4,1,4,4,4,1,3,392,392,392,392,392,392,392,392,392,392,392,392,392,392,392,392,392,392,392,392,392,392,392,392,1,39,39,39,39,39,39,39,1,1,4,1,39,39,39,39,39,392,392,39,39,39,39,39,39,39,39,1,1,1,2,1,4,1,1,4,4,3,28,27,1,3,4,1,1,1,1,2,1,4,1,1,2,1,2,1,1,3,4,2,2,3,1,2,392,392,392,392,392,392,392,392,392,392,392,392,392,392,392,392,392,392,392,392,392,392,392,392,1,39,39,39,39,39,39,39,4,2,4,2,39,39,39,39,39,392,392,39,39,39,39,39,39,39,39,1,1,1,4,3,1,1,1,4,1,3,27,28,3,2,1,1,1,2,1,2,4,1,2,1,1,2,3,3,2,1,1,1,1,1,1,1,392,392,392,392,392,392,392,392,392,392,392,392,392,392,392,392,392,392,392,392,392,392,392,392,1,1,4,2,4,1,2,1,4,1,1,1,1,2,1,2,1,1,4,1,4,1,1,3,28,27,1,3,2,1,1,1,1,1,4,1,1,1,3,2,1,1,1,4,2,3,1,1,3,1,4,1,1,3,1,2,2,2,1,4,1,1,4,1,1,1,1,3,3,1,1,4,3,1,1,4,3,3,1,2,1,4,3,2,3,4,2,4,1,1,4,1,1,3,1,1,4,4,1,2,4,1,1,1,2,1,1,1,1,2,3,1,1,1,1,1,1,1,2,3,1,1,4,3,1,4,1,1,2,3,3,3,3,1,1,1,3,1,1,3,4,1,3,4,3,1,1,3,1,1,1,4,1,4,1,3,1,1,4,4,2,2,1,1,2,1,2,3,2,1,4,3,1,2,1,2,3,1,3,2,1,1,1,3,1,1,3,4,3,1,3,2,2,3,1,4,3,4,1,4,1,3,4,1,1,1,1,1,1,3,1,1,1,4,2,1,4,3,4,1,1,2,1,1,2,1,1,1,4,1,2,2,1,1,1,2,1,2,4,3,3,3,1,1,2,1,3,2,1,4,3,1,4,2,2,1,1,3,1,3,4,3,1,4,1,1,1,2,3,1,3,2,3,3,4,3,1,1,1,4,3,3,2,1,2,3,2,2,1,1,1,1,4,1,2,4,3,4,2,1,4,4,2,2,1,3,4,1,1,3,1,4,1,3,1,4,1,1,1,1,1,1,2,3,4,1,3,2,1,1,1,1,2,2,4,1,1,4,2,2,1,1,2,1,1,4,4,3,3,1,4,1,1,2,3,3,2,1,1,3,1,3,1,4,1,3,1,2,1,3,1,1,2,4,2,2,4,3,1,1,2,1,3,1,1,4,1,3,1,1,27,27,4,3,2,4,1,1,4,1,2,1,1,2,3,3,1,2,1,4,2,1,4,3,3,3,3,3,1,1,4,1,2,1,1,1,1,1,1,1,3,1,3,1,2,1,1,3,3,4,2,2,4,1,1,1,1,3,4,1,1,1,1,2,1,4,1,1,1,1,1,1,2,1,28,28,3,1,2,1,1,3,3,1,3,1,1,1,28,27,3,3,4,4,1,39,39,39,39,39,39,39,39,39,39,39,39,39,39,39,39,39,39,1,2,1,4,1,3,39,39,39,39,39,39,39,39,39,39,39,39,39,39,3,3,4,4,1,2,39,39,39,39,39,39,39,39,392,392,39,39,392,392,39,39,39,39,1,2,2,2,3,27,28,1,1,1,4,4,1,1,1,4,2,1,4,28,27,1,1,3,1,4,39,39,39,39,39,39,39,39,39,39,39,39,39,39,39,39,39,39,1,1,3,4,1,3,39,39,39,39,39,39,39,39,39,39,39,39,39,39,1,1,1,1,1,1,39,39,39,39,39,39,39,39,392,392,39,39,392,392,39,39,39,39,1,2,1,1,1,27,27,3,2,1,4,1,3,2,2,1,1,1,1,28,27,4,1,1,1,2,39,39,1,3,3,2,2,2,1,1,4,3,1,1,1,3,39,39,1,1,3,1,4,4,39,39,1,2,1,1,1,1,2,1,2,2,39,39,4,2,1,4,1,4,39,39,3,1,2,2,1,4,1,1,4,1,1,4,3,1,39,39,3,1,1,1,3,28,28,1,3,1,1,3,3,3,4,3,1,1,1,28,27,4,3,1,4,2,39,39,2,3,1,3,1,3,2,1,1,4,2,1,1,3,39,39,1,3,1,4,1,4,39,39,1,392,392,392,392,392,392,392,392,3,39,39,4,3,1,1,3,1,39,39,1,37,37,38,37,38,38,37,38,37,37,37,37,1,39,39,1,1,3,1,4,27,28,2,1,1,1,2,4,4,1,1,2,4,1,28,28,1,1,3,4,1,39,39,2,1,1,3,2,1,1,3,4,1,1,4,1,1,39,39,1,2,2,4,3,4,39,39,4,392,392,392,392,392,392,392,392,1,39,39,3,1,1,1,1,3,39,39,3,37,38,38,38,38,38,37,37,38,37,38,38,4,39,39,1,1,1,1,1,28,27,1,2,1,1,1,2,1,1,4,1,2,4,28,28,4,1,2,4,1,39,39,2,1,1,2,4,3,1,4,1,1,2,2,3,1,39,39,1,1,1,4,1,4,39,39,2,392,392,392,392,392,392,392,392,1,39,39,1,1,4,4,3,2,39,39,1,38,37,37,38,37,38,38,37,38,37,37,37,4,39,39,4,1,3,3,1,27,28,1,1,2,1,1,1,2,4,1,1,1,1,27,28,1,1,1,2,1,39,39,2,1,2,4,3,4,2,1,2,3,1,2,2,4,39,39,3,1,1,1,1,1,39,39,3,392,392,392,392,392,392,392,392,1,39,39,4,1,4,3,1,1,39,39,1,37,37,38,37,38,38,37,37,37,37,37,37,4,39,39,2,2,1,3,2,28,28,1,1,4,1,1,1,1,1,3,4,1,1,27,27,1,1,2,4,3,39,39,1,1,1,1,1,1,1,2,1,1,3,4,4,2,39,39,1,4,3,1,3,1,39,39,1,392,392,392,392,392,392,392,392,4,39,39,1,4,1,3,2,3,39,39,2,38,37,37,37,38,38,37,37,37,38,38,38,3,39,39,1,3,1,3,1,27,27,4,4,1,4,2,2,4,1,1,4,1,1,27,27,1,1,3,1,1,39,39,2,3,3,4,4,1,4,1,1,1,1,4,4,3,392,392,2,1,4,1,1,1,392,392,2,392,392,392,392,392,392,392,392,2,392,392,2,1,2,2,3,2,39,39,3,37,38,38,38,37,37,38,37,37,37,37,37,2,392,392,1,4,1,1,4,28,28,1,1,1,1,4,1,1,1,2,3,1,1,28,27,1,2,4,4,4,39,39,4,3,1,1,1,1,1,4,4,1,4,3,2,1,392,392,1,2,4,3,1,1,392,392,1,392,392,392,392,392,392,392,392,3,392,392,1,4,1,3,1,1,39,39,1,38,37,37,37,37,37,38,38,37,38,37,37,2,392,392,1,1,4,1,2,27,28,1,1,2,1,1,2,1,1,1,1,3,2,28,28,4,1,3,1,2,39,39,1,3,1,2,1,1,1,2,1,1,2,4,1,1,39,39,3,1,4,1,4,4,39,39,1,392,392,392,392,392,392,392,392,2,39,39,1,4,1,1,4,4,39,39,4,37,37,38,37,38,38,38,38,37,38,38,38,1,39,39,1,1,4,4,1,27,27,4,2,4,1,1,1,2,1,1,1,1,3,27,28,4,3,1,2,4,39,39,4,392,392,392,392,392,392,392,392,392,392,392,392,1,39,39,4,1,2,1,3,2,39,39,3,392,392,392,392,392,392,392,392,4,39,39,1,1,4,1,1,3,39,39,2,38,37,38,37,37,38,38,38,37,37,37,37,1,39,39,3,1,1,3,1,27,27,4,1,4,1,4,4,1,2,2,4,2,1,27,28,2,2,1,1,3,39,39,2,392,392,392,392,392,392,392,392,392,392,392,392,3,39,39,4,3,1,1,1,1,39,39,1,392,392,392,392,392,392,392,392,3,39,39,1,1,1,1,2,1,39,39,2,38,38,37,37,37,38,38,38,37,38,38,38,4,39,39,1,4,4,1,4,27,28,1,2,4,1,1,4,4,1,3,4,3,4,27,28,1,4,1,3,1,39,39,1,392,392,392,392,392,392,392,392,392,392,392,392,4,39,39,3,3,2,1,1,1,39,39,3,392,392,392,392,392,392,392,392,2,39,39,2,3,1,1,1,3,39,39,4,38,38,38,38,37,38,38,38,38,37,38,38,1,39,39,1,1,1,1,1,27,28,3,2,3,3,1,1,4,3,4,2,3,1,28,28,3,1,1,3,2,39,39,2,392,392,392,392,392,392,392,392,392,392,392,392,1,39,39,1,1,1,4,4,2,39,39,1,392,392,392,392,392,392,392,392,4,39,39,2,2,2,1,2,1,39,39,1,37,37,37,38,37,38,37,38,37,37,38,38,4,39,39,1,4,2,3,3,27,28,1,4,2,1,1,1,2,2,4,1,1,2,27,28,1,2,1,1,3,39,39,4,2,3,1,3,1,3,2,1,4,3,1,1,1,39,39,2,1,1,1,3,3,39,39,1,2,1,4,2,4,1,1,1,2,39,39,2,4,1,4,1,3,39,39,2,1,1,4,1,3,4,4,2,2,1,1,1,1,39,39,1,2,1,1,1,27,27,4,3,3,4,2,4,1,3,1,1,1,1,27,28,1,1,1,1,3,39,39,39,39,39,39,39,39,392,392,39,39,39,39,39,39,39,39,1,3,1,4,4,1,39,39,39,39,39,39,39,39,39,39,39,39,39,39,1,1,1,1,1,1,39,39,39,39,39,39,39,39,392,392,39,39,392,392,39,39,39,39,1,4,4,1,2,27,27,1,3,1,1,2,1,1,2,1,1,1,1,28,28,1,1,2,4,1,39,39,39,39,39,39,39,39,392,392,39,39,39,39,39,39,39,39,4,1,4,1,3,2,39,39,39,39,39,39,39,39,39,39,39,39,39,39,4,1,4,3,1,2,39,39,39,39,39,39,39,39,392,392,39,39,392,392,39,39,39,39,1,4,1,2,1,27,27,2,4,1,1,4,1,3,3,4,1,4,3,27,28,3,1,4,2,1,3,3,4,1,1,2,2,4,4,1,1,4,1,4,3,4,4,2,3,4,1,1,1,1,3,1,1,2,4,4,1,1,2,4,3,1,2,4,1,4,4,3,2,1,2,1,1,1,2,4,1,4,2,4,4,4,1,2,4,1,1,2,3,4,3,4,3,28,27,3,2,4,1,2,3,2,4,4,1,1,1,27,28,1,3,1,1,1,4,1,4,2,2,1,1,1,2,1,1,1,4,2,1,3,1,1,1,2,3,1,1,4,1,1,4,1,4,1,1,2,1,3,4,1,1,2,4,1,3,3,1,2,1,1,1,4,3,1,1,2,2,3,1,2,1,1,1,1,1,1,1,1,3,4,1,28,28,1,1,1,1,1,2,1,1,1,1,1,3,28,28,1,1,1,1,1,2,4,2,3,2,4,1,1,4,1,3,3,1,1,1,3,3,1,1,1,3,1,4,2,2,1,4,4,1,3,4,2,1,4,4,2,2,1,3,1,1,1,4,1,1,1,2,4,1,3,3,4,4,1,1,2,2,1,3,1,2,2,4,1,3,3,1,28,27,1,3,4,2,4,1,2,4,1,1,2,2,28,28,2,2,1,1,1,1,4,1,3,4,1,4,1,1,3,1,2,3,1,1,4,3,2,4,2,4,4,1,4,2,2,2,4,1,1,1,1,1,1,1,1,1,2,2,1,1,2,1,1,1,2,1,1,4,2,4,2,1,3,3,1,1,3,4,4,3,3,1,1,1,2,1,27,28,2,4,3,2,1,2,1,2,1,1,2,4,28,27,2,3,3,1,1,1,3,1,1,1,1,1,1,1,2,2,4,4,1,4,2,2,1,1,1,1,2,3,1,1,3,1,1,1,3,3,3,1,1,3,3,1,4,1,3,3,2,1,1,3,1,4,2,2,3,4,3,3,4,1,1,1,1,2,1,1,1,1,1,1,1,3,27,28,1,2,1,4,1,2,2,1,1,3,3,4,27,28,27,27,27,27,28,27,27,28,28,28,27,28,28,28,28,27,28,27,28,27,28,27,28,28,28,28,27,28,28,27,28,27,28,27,28,28,28,28,27,27,27,28,28,28,27,27,28,27,27,27,27,27,28,28,28,27,28,27,27,28,27,27,27,28,27,27,28,27,27,28,28,28,28,28,3,3,3,1,1,1,1,1,4,4,1,1,28,27,28,27,27,28,27,27,28,28,27,28,27,27,28,27,27,28,27,27,27,28,27,28,28,27,28,27,28,27,27,27,28,28,27,28,27,28,28,28,27,27,28,27,28,27,28,27,28,28,28,28,28,28,28,27,28,28,27,27,27,27,27,27,27,27,27,28,27,27,28,28,28,27,27,27,4,1,4,1,1,2,1,2,4,1,3,2,1,1,1,4,1,4,1,1,1,1,2,1,1,4,1,3,3,1,3,2,4,1,2,1,1,1,1,3,3,1,1,1,1,3,3,2,1,1,4,4,1,1,1,3,1,4,1,1,3,2,3,1,2,1,1,3,1,1,1,1,1,2,2,4,4,4,1,4,4,1,4,1,1,1,1,4,1,3,3,4,1,3,1,4,4,1,4,1,1,3,2,3,2,1,1,1,1,1,1,1,1,1,1,2,1,4,2,1,1,4,1,1,1,1,1,3,1,3,1,3,1,1,1,4,4,1,1,1,3,1,1,4,2,1,3,1,3,4,1,1,2,1,3,2,1,2,1,1,4,1,4,1,1,2,1,4,1,2,4,1,3,1,4,1,1,1,1,1,2,1,1,1,3,1,4,1,1,3,1,2,1,2,2,3,1,2,1,1,1,3,4,1,1,2,4,4,1,4,4,4,1,1,1,1,4,1,1,1,1,2,2,1,1,1,2,1,1,1,3,1,3,4,2,3,1,1,3,4,3,1,4,4,1,3,2,1,1,2,4,2,3,1,1,1,4,1,2,4,1,2,1,3,1,1,3,2,2,1,1,3,4,1,1,2,3,3,2,1,1,1,1,3,1,1,3,3,3,3,1,1,2,1,1,1,2,1,1,2,1,2,2,4,1,4,1,1,2,1,1,1,4,1,1,1,1,1,1,4,4,4,4,1,1,1,3,3,1,1,3,1,4,1,1,3,4,3,1,4,1,1,2,1,1,3,1,1,1,1,4,1,1,2,1,1,4,1,1,2,1,4,4,2,1,1,1,3,2,1,1,1,1,2,1,4,4,1,3,1,1,2,2,4,1,2,3,3,1,4,1,2,2,3,1,2,1,4,2,1,1,1,1,4,2,3,1,4,4,1,1,1,4,1,1,1,1,2,2,1,4,4,1,3,3,3,1,2,1,1,2,2,1,4,4,1,1,1,4,4,1,2,3,1,3,1,2,1,1,2,4,1,2,3,1,1,2,4,4,2,4,1,1,1,1,1,1,2,1,1,1,2,3,2,1,1,1,1,3,1,1,4,1,3,1,3,1,3,1,1,1,2,2,1,4,1,4,1,4,1,1,2,2,1,4,1,4,1,1,1,4,1,1,3,3,2,1,1,4,3,3,1,3,3,1,3,1,1,1,2,4,1,3,1]},{"id":2,"name":"dirt","type":"tilelayer","width":88,"height":68,"x":0,"y":0,"opacity":1,"visible":true,"data":[0,0,0,0,0,0,0,0,0,0,0,0,0,0,0,0,0,0,0,0,0,0,0,0,0,0,0,0,0,0,0,0,0,0,0,0,0,0,0,0,0,0,0,0,0,0,0,0,0,0,0,0,0,0,0,0,0,0,0,0,0,0,0,0,635,749,749,687,0,0,0,0,0,0,0,0,0,0,0,0,0,0,0,0,0,0,0,0,0,0,0,0,0,0,0,0,0,0,0,0,0,0,0,0,0,0,0,0,0,0,0,0,0,0,0,0,0,0,0,0,0,0,0,0,0,0,0,0,0,0,0,0,0,0,0,0,0,0,0,0,0,0,0,0,0,0,0,0,0,0,0,0,635,749,749,688,0,0,0,0,0,0,0,0,0,0,0,0,0,0,0,0,0,0,0,0,0,0,0,0,0,0,0,0,0,0,0,0,0,0,0,0,0,0,0,0,0,0,0,0,0,0,0,0,0,0,0,0,0,0,0,0,0,0,0,0,0,0,0,0,0,0,0,0,0,0,0,0,0,0,0,0,0,0,0,0,0,0,0,0,636,749,749,688,0,0,0,0,0,0,0,0,0,0,0,0,0,0,0,0,0,0,0,0,0,0,0,0,0,0,0,0,0,0,0,0,0,0,0,0,0,0,0,0,0,0,0,0,0,0,0,0,0,0,0,0,0,0,0,0,0,0,0,0,0,0,0,0,0,0,0,0,0,0,0,0,0,0,0,0,0,0,0,0,0,0,0,0,635,749,749,687,0,0,0,0,0,0,0,0,0,0,0,0,0,0,0,0,0,0,0,0,0,0,0,0,0,0,0,0,0,0,0,0,0,0,0,0,0,0,0,0,0,0,0,0,0,0,0,0,0,0,0,0,0,0,0,0,0,0,0,0,0,0,0,0,0,0,0,0,0,0,0,0,0,0,0,0,0,0,0,0,0,0,0,0,636,749,749,688,0,0,0,0,0,0,0,0,0,0,0,0,0,0,0,0,0,0,0,0,0,0,0,0,0,0,0,0,0,0,0,0,0,0,0,0,0,0,0,0,0,0,0,0,0,0,0,0,0,0,0,0,0,0,0,0,0,0,0,0,0,0,0,0,0,0,0,0,0,0,0,0,0,0,0,0,0,0,0,0,0,0,0,0,635,749,749,687,0,0,0,0,0,0,0,0,0,0,0,0,0,0,0,0,0,0,0,0,0,0,0,0,0,0,0,0,0,0,0,0,0,0,0,0,0,0,0,0,0,0,0,0,0,0,0,0,0,0,0,0,0,0,0,0,0,0,0,0,0,0,0,0,0,0,0,0,0,0,0,0,0,0,0,0,0,0,0,0,0,0,0,0,635,749,749,688,0,0,0,0,0,0,0,0,0,0,0,0,0,0,0,0,0,0,0,0,0,0,0,0,0,0,0,0,0,0,0,0,0,0,0,0,0,0,0,0,0,0,0,0,0,0,0,0,0,0,0,0,0,0,0,0,0,0,0,0,0,0,0,0,0,0,0,0,0,0,0,0,0,0,0,0,0,0,0,0,0,0,0,0,636,749,749,688,0,0,0,0,0,0,0,0,0,0,0,0,0,0,0,0,0,0,0,0,0,0,0,0,0,0,0,0,0,0,0,0,0,0,0,0,0,0,0,0,0,0,0,0,0,0,0,0,545,665,666,665,666,665,665,666,665,665,666,665,665,666,666,665,666,666,665,666,666,666,665,665,666,665,665,573,0,0,0,0,545,666,666,666,726,749,749,748,666,666,666,665,665,666,665,665,666,666,666,573,0,0,0,0,0,0,0,0,0,0,0,0,0,0,0,0,0,0,0,0,0,0,0,0,0,0,0,0,0,0,0,0,0,0,0,0,635,749,749,749,749,749,749,749,749,749,749,749,749,749,749,749,749,749,749,749,749,749,749,749,749,749,749,688,0,0,0,0,636,749,749,749,749,749,749,749,749,749,749,749,749,749,749,749,749,749,749,687,0,0,0,0,0,0,0,0,0,0,0,0,0,0,0,0,0,0,0,0,0,0,0,0,0,0,0,0,0,0,0,0,0,0,0,0,636,749,749,749,749,749,749,749,749,749,749,749,749,749,749,749,749,749,749,749,749,749,749,749,749,749,749,687,0,0,0,0,635,749,749,749,749,749,749,749,749,749,749,749,749,749,749,749,749,749,749,687,0,0,0,0,0,0,0,0,0,0,0,0,0,0,0,0,0,0,0,0,0,0,0,0,0,0,0,0,0,0,0,0,0,0,0,0,635,749,749,749,749,749,749,749,749,749,749,749,749,749,749,749,749,749,749,749,749,749,749,749,749,749,749,688,0,0,0,0,635,749,749,749,749,749,749,749,749,749,749,749,749,749,749,749,749,749,749,688,0,0,0,0,0,0,0,0,0,0,0,0,0,0,0,0,0,0,0,0,0,0,0,0,0,0,0,0,0,0,0,0,0,0,0,0,636,749,749,749,749,749,749,749,749,749,749,749,749,749,749,749,749,749,749,749,749,749,749,749,749,749,749,688,0,0,0,0,635,749,749,749,749,749,749,749,749,749,749,749,749,749,749,749,749,749,749,688,0,0,0,0,0,0,0,0,0,0,0,0,0,0,0,0,0,0,0,0,0,0,0,0,0,0,0,0,0,0,0,0,0,0,0,0,635,749,749,749,749,749,749,749,749,749,749,749,749,749,749,749,749,749,749,749,749,749,749,749,749,749,749,688,0,0,0,0,635,749,749,749,749,749,749,749,749,749,749,749,749,749,749,749,749,749,749,688,0,0,0,0,0,0,0,0,0,0,0,0,0,0,0,0,0,0,0,0,0,0,0,0,0,0,0,0,0,0,0,0,0,0,0,0,636,749,749,749,749,749,749,749,749,749,749,749,749,749,749,749,749,749,749,749,749,749,749,749,749,749,749,688,0,0,0,0,636,749,749,749,749,749,749,749,749,749,749,749,749,749,749,749,749,749,749,687,0,0,0,0,0,0,0,0,0,0,0,0,0,0,0,0,0,0,0,0,0,0,0,0,0,0,0,0,0,0,0,0,0,0,0,0,635,749,749,749,749,749,749,749,749,749,749,749,749,749,749,749,749,749,749,749,749,749,749,749,749,749,749,687,0,0,0,0,636,749,749,749,749,749,749,749,749,749,749,749,749,749,749,749,749,749,749,687,0,0,0,0,0,0,0,0,0,0,0,0,0,0,0,0,0,0,0,0,0,0,0,0,0,0,0,0,0,0,0,0,0,0,0,0,636,749,749,749,749,749,749,749,749,749,749,749,749,749,749,749,749,749,749,749,749,749,749,749,749,749,749,687,0,0,0,0,635,749,749,749,749,749,749,749,749,749,749,749,749,749,749,749,749,749,749,687,0,0,0,0,0,0,0,0,0,0,0,0,0,0,0,0,0,0,0,0,0,0,0,0,0,0,0,0,0,0,0,0,0,0,0,0,636,749,749,749,749,749,749,749,749,749,749,749,749,749,749,749,749,749,749,749,749,749,749,749,749,749,749,688,0,0,0,0,636,749,749,749,749,749,749,749,749,749,749,749,749,749,749,749,749,749,749,687,0,0,0,0,0,0,0,0,0,0,0,0,0,0,0,0,0,0,0,0,0,0,0,0,0,0,0,0,0,0,0,0,0,0,0,0,636,749,749,749,749,749,749,749,749,749,749,749,749,749,749,749,749,749,749,749,749,749,749,749,749,749,749,687,0,0,0,0,636,749,749,749,749,749,749,749,749,749,749,749,749,749,749,749,749,749,749,688,0,0,0,0,0,0,0,0,0,0,0,0,0,0,0,0,0,0,0,0,0,0,0,0,0,0,0,0,0,0,0,0,0,0,0,0,636,749,749,749,749,749,749,749,749,749,749,749,749,749,749,749,749,749,749,749,749,749,749,749,749,749,749,687,0,0,0,0,636,749,749,749,749,749,749,749,749,749,749,749,749,749,749,749,749,749,749,687,0,0,0,0,0,0,0,0,0,0,0,0,0,0,0,0,545,666,666,665,665,665,666,666,666,665,666,666,666,666,666,666,666,666,665,666,726,749,749,749,749,749,749,749,749,749,749,749,749,749,749,749,749,749,749,749,749,749,749,749,749,749,749,687,0,0,0,0,635,749,749,749,749,749,749,749,749,749,749,749,749,749,749,749,749,749,749,688,0,0,0,0,0,0,0,0,0,0,0,0,0,0,0,0,636,749,749,749,749,749,749,749,749,749,749,749,749,749,749,749,749,749,749,749,749,749,749,749,749,749,749,749,749,749,749,749,749,749,749,749,749,749,749,749,749,749,749,749,749,749,749,687,0,0,0,0,635,749,749,749,749,749,749,749,749,749,749,749,749,749,749,749,749,749,749,687,0,0,0,0,0,0,0,0,0,0,0,0,0,0,0,0,635,749,749,749,749,749,749,749,749,749,749,749,749,749,749,749,749,749,749,749,749,749,749,749,749,749,749,749,749,749,749,749,749,749,749,749,749,749,749,749,749,749,749,749,749,749,749,688,0,0,0,0,635,749,749,749,749,749,749,749,749,749,749,749,749,749,749,749,749,749,749,688,0,0,0,0,0,0,0,0,0,0,0,0,0,0,0,0,635,749,749,749,749,749,749,749,749,749,749,749,749,749,749,749,749,749,749,749,749,749,749,749,749,749,749,749,749,749,749,749,749,749,749,749,749,749,749,749,749,749,749,749,749,749,749,687,0,0,0,0,635,749,749,749,749,749,749,723,633,633,634,633,634,633,634,634,722,749,749,688,0,0,0,0,0,0,0,0,0,0,0,0,0,0,0,0,636,749,749,749,749,749,749,749,749,749,749,749,749,749,749,749,749,749,749,749,749,749,749,749,749,749,749,749,749,749,749,749,749,749,749,749,749,749,749,749,749,749,749,749,749,749,749,688,0,0,0,0,635,749,749,749,749,749,749,687,0,0,0,0,0,0,0,0,635,749,749,687,0,0,0,0,0,0,0,0,0,0,0,0,0,0,0,0,635,749,749,749,749,749,749,749,749,749,749,749,749,749,749,749,749,749,749,749,749,749,749,749,749,749,749,749,749,749,749,749,749,749,749,749,749,749,749,749,749,749,749,749,749,749,749,688,0,0,0,0,635,749,749,749,749,749,749,688,0,0,0,0,0,0,0,0,635,749,749,687,0,0,0,0,0,0,0,0,0,0,0,0,0,0,0,0,635,749,749,749,749,749,749,749,749,749,749,749,749,749,749,749,749,749,749,749,749,749,749,749,749,749,749,749,749,749,749,749,749,749,749,749,749,749,749,749,749,749,749,749,749,749,749,688,0,0,0,0,636,749,749,749,749,749,749,688,0,0,0,0,0,0,0,0,636,749,749,687,0,0,0,0,0,0,0,0,0,0,0,0,0,0,0,0,635,749,749,749,749,749,749,749,749,749,749,749,749,749,749,749,749,749,749,749,749,749,749,724,633,633,634,634,633,633,633,634,633,633,634,634,633,633,634,634,634,633,633,634,634,633,633,569,0,0,0,0,635,749,749,749,749,749,749,688,0,0,0,0,0,0,0,0,636,749,749,687,0,0,0,0,0,0,0,0,0,0,0,0,0,0,0,0,636,749,749,749,749,749,749,749,749,749,749,749,749,749,749,749,749,749,749,749,749,749,749,688,0,0,0,0,0,0,0,0,0,0,0,0,0,0,0,0,0,0,0,0,0,0,0,0,483,0,0,480,597,633,634,633,721,749,749,717,512,512,511,511,512,511,512,512,598,634,634,570,0,0,0,0,0,0,0,0,0,0,0,0,0,0,0,0,636,749,749,749,749,749,749,749,749,749,749,749,749,749,749,749,749,749,749,749,749,749,749,687,0,0,0,0,0,0,0,0,0,0,0,0,0,0,0,0,0,0,0,0,0,0,0,0,513,0,0,0,0,0,0,0,636,749,749,688,0,0,0,0,0,0,0,0,0,0,0,0,0,0,0,0,0,0,0,0,0,0,0,0,0,0,0,0,636,749,749,749,749,749,749,749,749,749,749,749,749,749,749,749,749,749,749,749,749,749,749,688,0,0,0,0,0,0,0,0,0,0,0,0,0,0,0,0,0,0,0,0,0,0,0,0,514,0,0,0,0,0,0,0,635,749,749,687,0,0,0,0,0,0,0,0,0,0,0,0,0,0,0,0,0,0,0,0,0,0,0,0,0,0,0,0,635,749,749,749,749,749,749,749,749,749,749,749,749,749,749,749,749,749,749,749,749,749,749,688,0,0,0,0,0,0,0,0,0,0,0,0,0,0,0,0,0,0,0,0,0,0,0,0,602,666,665,666,665,665,665,666,726,749,749,747,666,666,665,666,666,665,665,665,665,666,666,574,0,0,0,0,0,0,0,0,666,665,666,665,665,666,665,665,725,749,749,749,749,749,749,749,749,749,749,749,749,749,749,749,749,749,749,749,749,749,749,747,666,666,666,665,665,666,665,666,665,665,665,665,666,666,666,665,666,665,665,666,665,666,666,665,726,749,749,749,749,749,749,749,749,749,749,749,749,749,749,749,749,749,749,749,749,749,749,747,665,665,665,665,665,665,665,666,749,749,749,749,749,749,749,749,749,749,749,749,749,749,749,749,749,749,749,749,749,749,749,749,749,749,749,749,749,749,749,749,749,749,749,749,749,749,749,749,749,749,749,749,749,749,749,749,749,749,749,749,749,749,749,749,749,749,749,749,749,749,749,749,749,749,749,749,749,749,749,749,749,749,749,749,749,749,749,749,749,749,749,749,749,749,749,749,749,749,749,749,749,749,749,749,749,749,749,749,749,749,749,749,749,749,749,749,749,749,749,749,749,749,749,749,749,749,749,749,749,749,749,749,749,749,749,749,749,749,749,749,749,749,749,749,749,749,749,749,749,749,749,749,749,749,749,749,749,749,749,749,749,749,749,749,749,749,749,749,749,749,749,749,749,749,749,749,749,749,749,749,749,749,749,749,633,634,634,634,633,634,633,634,722,749,749,749,749,749,749,749,749,749,749,749,749,749,749,749,749,749,749,749,749,749,749,749,749,749,749,749,749,749,749,749,749,749,749,749,749,749,749,749,749,749,749,749,749,749,749,749,749,749,749,749,749,749,749,749,749,749,749,749,749,749,749,749,749,749,749,749,749,749,749,724,633,634,633,634,634,634,634,634,0,0,0,0,0,0,0,0,636,749,749,749,724,633,633,633,634,633,633,634,633,633,633,634,634,634,633,634,634,633,633,722,749,749,749,749,723,633,634,633,634,634,634,634,634,633,633,634,634,633,633,722,749,749,749,749,724,634,633,634,633,634,634,634,633,633,634,634,634,634,634,634,633,633,634,721,749,749,749,688,0,0,0,0,0,0,0,0,0,0,0,0,0,0,0,0,636,749,749,749,687,0,0,0,0,0,0,0,0,0,0,0,0,0,0,0,0,0,0,635,749,749,749,749,688,0,0,0,0,0,0,0,0,0,0,0,0,0,0,636,749,749,749,749,687,0,0,0,0,0,0,0,0,0,0,0,0,0,0,0,0,0,0,635,749,749,749,688,0,0,0,0,0,0,0,0,0,0,0,0,0,0,0,0,635,749,749,749,688,0,0,0,0,0,0,0,0,0,0,0,0,0,0,0,0,0,0,636,749,749,749,749,687,0,0,0,0,0,0,0,0,0,0,0,0,0,0,636,749,749,749,749,688,0,0,0,0,0,0,0,0,0,0,0,0,0,0,0,0,0,0,636,749,749,749,688,0,0,0,0,0,0,0,0,0,0,0,0,0,0,0,0,635,749,749,749,687,0,0,545,665,665,666,666,666,665,666,665,666,665,666,666,574,0,0,636,749,749,749,749,687,0,0,509,511,512,511,511,511,512,511,511,538,0,0,636,749,749,749,749,688,0,0,510,512,512,512,511,512,512,511,512,512,511,512,512,538,0,0,636,749,749,749,688,0,0,0,0,0,0,0,0,0,0,0,0,0,0,0,0,635,749,749,749,687,0,0,636,749,749,749,749,749,749,749,749,749,749,749,749,688,0,0,635,749,749,749,749,688,0,0,514,0,0,0,0,0,0,0,0,513,0,0,635,749,749,749,749,688,0,0,513,0,0,0,0,0,0,0,0,0,0,0,0,513,0,0,636,749,749,749,687,0,0,0,0,0,0,0,0,0,0,0,0,0,0,0,0,636,749,749,749,687,0,0,635,749,749,749,749,749,749,749,749,749,749,749,749,688,0,0,636,749,749,749,749,688,0,0,513,0,0,0,0,0,0,0,0,514,0,0,635,749,749,749,749,687,0,0,514,0,0,0,0,0,0,0,0,0,0,0,0,513,0,0,636,749,749,749,687,0,0,0,0,0,0,0,0,0,0,0,0,0,0,0,0,635,749,749,749,688,0,0,635,749,749,749,749,749,749,749,749,749,749,749,749,688,0,0,635,749,749,749,749,687,0,0,513,0,0,0,0,0,0,0,0,513,0,0,635,749,749,749,749,688,0,0,513,0,0,0,0,0,0,0,0,0,0,0,0,513,0,0,635,749,749,749,688,0,0,0,0,0,0,0,0,0,0,0,0,0,0,0,0,635,749,749,749,688,0,0,635,749,749,749,749,749,749,749,749,749,749,749,749,687,0,0,636,749,749,749,749,687,0,0,514,0,0,0,0,0,0,0,0,513,0,0,636,749,749,749,749,687,0,0,513,0,0,0,0,0,0,0,0,0,0,0,0,513,0,0,636,749,749,749,688,0,0,0,0,0,0,0,0,0,0,0,0,0,0,0,0,635,749,749,749,687,0,0,636,749,749,749,749,749,749,749,749,749,749,749,749,688,0,0,636,749,749,749,749,688,0,0,514,0,0,0,0,0,0,0,0,514,0,0,635,749,749,749,749,687,0,0,513,0,0,0,0,0,0,0,0,0,0,0,0,514,0,0,635,749,749,749,687,0,0,0,0,0,0,0,0,0,0,0,0,0,0,0,0,636,749,749,749,687,0,0,635,749,749,749,749,749,749,749,749,749,749,749,749,688,0,0,636,749,749,749,749,688,0,0,513,0,0,0,0,0,0,0,0,513,0,0,636,749,749,749,749,688,0,0,514,0,0,0,0,0,0,0,0,0,0,0,0,514,0,0,635,749,749,749,687,0,0,0,0,0,0,0,0,0,0,0,0,0,0,0,0,636,749,749,749,688,0,0,635,749,749,749,749,749,749,749,749,749,749,749,749,688,0,0,635,749,749,749,749,687,0,0,514,0,0,0,0,0,0,0,0,513,0,0,635,749,749,749,749,688,0,0,513,0,0,0,0,0,0,0,0,0,0,0,0,513,0,0,636,749,749,749,688,0,0,0,0,0,0,0,0,0,0,0,0,0,0,0,0,636,749,749,749,688,0,0,575,634,634,633,634,633,633,634,633,633,634,634,634,630,0,0,635,749,749,749,749,688,0,0,513,0,0,0,0,0,0,0,0,514,0,0,636,749,749,749,749,687,0,0,514,0,0,0,0,0,0,0,0,0,0,0,0,514,0,0,636,749,749,749,688,0,0,0,0,0,0,0,0,0,0,0,0,0,0,0,0,636,749,749,749,687,0,0,514,0,0,0,0,0,0,0,0,0,0,0,0,513,0,0,635,749,749,749,749,687,0,0,513,0,0,0,0,0,0,0,0,514,0,0,636,749,749,749,749,687,0,0,513,0,0,0,0,0,0,0,0,0,0,0,0,513,0,0,635,749,749,749,688,0,0,0,0,0,0,0,0,0,0,0,0,0,0,0,0,636,749,749,749,688,0,0,513,0,0,0,0,0,0,0,0,0,0,0,0,513,0,0,635,749,749,749,749,687,0,0,513,0,0,0,0,0,0,0,0,513,0,0,636,749,749,749,749,688,0,0,514,0,0,0,0,0,0,0,0,0,0,0,0,513,0,0,636,749,749,749,688,0,0,0,0,0,0,0,0,0,0,0,0,0,0,0,0,636,749,749,749,687,0,0,513,0,0,0,0,0,0,0,0,0,0,0,0,514,0,0,635,749,749,749,749,687,0,0,514,0,0,0,0,0,0,0,0,513,0,0,636,749,749,749,749,688,0,0,513,0,0,0,0,0,0,0,0,0,0,0,0,513,0,0,636,749,749,749,687,0,0,0,0,0,0,0,0,0,0,0,0,0,0,0,0,636,749,749,749,687,0,0,514,0,0,0,0,0,0,0,0,0,0,0,0,513,0,0,636,749,749,749,749,687,0,0,514,0,0,0,0,0,0,0,0,513,0,0,635,749,749,749,749,687,0,0,513,0,0,0,0,0,0,0,0,0,0,0,0,514,0,0,636,749,749,749,688,0,0,0,0,0,0,0,0,0,0,0,0,0,0,0,0,635,749,749,749,688,0,0,508,511,512,512,512,511,512,512,511,511,511,511,512,516,0,0,636,749,749,749,749,688,0,0,507,512,512,512,511,511,511,512,511,516,0,0,635,749,749,749,749,687,0,0,507,511,511,511,511,512,512,511,511,512,511,512,512,516,0,0,636,749,749,749,688,0,0,0,0,0,0,0,0,0,0,0,0,0,0,0,0,635,749,749,749,688,0,0,0,0,0,0,0,0,0,0,0,0,0,0,0,0,0,0,635,749,749,749,749,688,0,0,0,0,0,0,0,0,0,0,0,0,0,0,635,749,749,749,749,687,0,0,0,0,0,0,0,0,0,0,0,0,0,0,0,0,0,0,635,749,749,749,688,0,0,0,0,0,0,0,0,0,0,0,0,0,0,0,0,636,749,749,749,687,0,0,0,0,0,0,0,0,0,0,0,0,0,0,0,0,0,0,636,749,749,749,749,687,0,0,0,0,0,0,0,0,0,0,0,0,0,0,636,749,749,749,749,688,0,0,0,0,0,0,0,0,0,0,0,0,0,0,0,0,0,0,636,749,749,749,688,0,0,0,0,0,0,0,0,0,0,0,0,0,0,0,0,636,749,749,749,748,666,665,666,666,666,666,665,666,665,665,665,666,666,666,666,665,666,665,726,749,749,749,749,748,666,666,665,665,665,665,665,665,665,665,665,666,665,666,725,749,749,749,749,747,666,666,666,665,666,666,665,666,665,666,665,666,666,666,666,666,666,665,726,749,749,749,688,0,0,0,0,0,0,0,0,0,0,0,0,0,0,0,0,635,749,749,749,749,749,749,749,749,749,749,749,749,749,749,749,749,749,749,749,749,749,749,749,749,749,749,749,749,749,749,749,749,749,749,749,749,749,749,749,749,749,749,749,749,749,749,749,749,749,749,749,749,749,749,749,749,749,749,749,749,749,749,749,749,749,749,749,749,749,749,688,0,0,0,0,0,0,0,0,0,0,0,0,0,0,0,0,635,749,749,749,749,749,749,749,749,749,749,749,749,749,749,749,749,749,749,749,749,749,749,749,749,749,749,749,749,749,749,749,749,749,749,749,749,749,749,749,749,749,749,749,749,749,749,749,749,749,749,749,749,749,749,749,749,749,749,749,749,749,749,749,749,749,749,749,749,749,749,688,0,0,0,0,0,0,0,0,0,0,0,0,0,0,0,0,635,749,749,749,749,749,749,749,749,749,749,749,749,749,749,749,749,749,749,749,749,749,749,749,749,749,749,749,749,749,749,749,749,749,749,749,749,749,749,749,749,749,749,749,749,749,749,749,749,749,749,749,749,749,749,749,749,749,749,749,749,749,749,749,749,749,749,749,749,749,749,687,0,0,0,0,0,0,0,0,0,0,0,0,0,0,0,0,539,634,634,634,634,633,634,633,634,633,633,633,633,633,633,633,634,633,634,633,634,634,633,633,634,633,633,634,633,633,634,634,633,633,634,634,633,633,634,634,634,633,633,633,634,634,633,634,634,633,634,634,633,634,634,633,634,633,634,633,634,633,633,634,633,634,633,634,634,634,634,569,0,0,0,0,0,0,0,0,0,0,0,0,0,0,0,0,0,0,0,0,0,0,0,0,0,0,0,0,0,0,0,0,0,0,0,0,0,0,0,0,0,0,0,0,0,0,0,0,0,0,0,0,0,0,0,0,0,0,0,0,0,0,0,0,0,0,0,0,0,0,0,0,0,0,0,0,0,0,0,0,0,0,0,0,0,0,0,0,0,0,0,0,0,0,0,0,0,0,0,0,0,0,0,0,0,0,0,0,0,0,0,0,0,0,0,0,0,0,0,0,0,0,0,0,0,0,0,0,0,0,0,0,0,0,0,0,0,0,0,0,0,0,0,0,0,0,0,0,0,0,0,0,0,0,0,0,0,0,0,0,0,0,0,0,0,0,0,0,0,0,0,0,0,0,0,0,0,0,0,0,0,0,0,0,0,0,0,0,0,0,0,0,0,0,0,0,0,0,0,0,0,0,0,0,0,0,0,0,0,0,0,0,0,0,0,0,0,0,0,0,0,0,0,0,0,0,0,0,0,0,0,0,0,0,0,0,0,0,0,0,0,0,0,0,0,0,0,0,0,0,0,0,0,0,0,0,0,0,0,0,0,0,0,0,0,0,0,0,0,0,0,0,0,0,0,0,0,0,0,0,0,0,0,0,0,0,0,0,0,0,0,0,0,0,0,0,0,0,0,0,0,0,0,0,0,0,0,0,0,0,0,0,0,0,0,0,0,0,0,0,0,0,0,0,0,0,0,0,0,0,0,0,0,0,0,0,0,0,0,0,0,0,0,0,0,0,0,0,0,0,0,0,0,0,0,0,0,0,0,0,0,0,0,0,0,0,0,0,0,0,0,0,0,0,0,0,0,0,0,0,0,0,0,0,0,0,0,0,0,0,0,0,0,0,0,0,0,0,0,0,0,0,0,0,0,0,0,0,0,0,0,0,0,0,0,0,0,0,0,0,0,0,0,0,0,0,0,0,0,0,0,0,0,0,0,0,0,0,0,0,0,0,0,0,0,0,0,0,0,0,0,0,0,0,0,0,0,0,0,0,0,0,0,0,0,0,0,0,0,0,0,0,0,0,0,0,0,0,0,0,0,0,0,0,0,0,0,0,0,0,0,0,0,0,0,0,0,0,0,0,0,0,0,0,0,0,0,0,0,0,0,0,0,0,0,0,0,0,0,0,0,0,0,0,0,0,0,0,0,0,0,0,0,0,0,0,0,0,0,0,0,0,0,0,0,0,0,0,0,0,0,0,0,0,0,0,0,0,0,0,0,0,0,0,0,0,0,0,0,0,0,0,0,0,0,0,0,0,0,0,0,0,0,0,0,0,0,0,0,0,0,0,0,0,0,0,0,0,0,0,0,0,0,0,0,0,0,0,0,0,0,0,0,0,0,0,0,0,0,0,0,0,0,0,0,0,0,0,0,0,0,0,0,0,0,0,0,0,0,0,0,0,0,0,0,0,0,0,0,0,0,0,0,0,0,0,0,0,0,0,0,0,0,0,0,0,0,0,0,0,0,0,0,0,0,0,0,0,0,0,0,0,0,0,0,0,0,0,0,0,0,0,0,0,0,0,0,0,0,0,0,0,0,0,0,0,0,0,0,0,0,0]},{"id":3,"name":"detail","type":"tilelayer","width":88,"height":68,"x":0,"y":0,"opacity":1,"visible":true,"data":[0,0,0,0,0,0,0,0,17,0,0,0,17,0,0,17,0,0,0,0,0,0,0,0,0,0,0,0,0,0,0,18,0,0,0,0,0,0,17,0,0,0,0,0,0,0,17,0,0,0,0,0,0,0,18,0,0,0,0,0,0,0,0,0,0,0,0,0,0,0,0,0,0,0,0,0,0,0,0,0,0,0,0,0,0,18,0,0,0,0,0,0,0,0,0,0,0,0,0,0,0,0,0,0,0,0,17,0,0,0,0,17,0,18,18,0,0,0,0,0,17,18,0,0,0,0,0,0,0,0,0,0,0,0,18,0,0,0,0,0,0,0,0,0,0,0,0,0,0,0,0,0,0,0,0,0,0,0,0,0,0,18,0,0,0,0,0,0,0,0,17,0,0,0,0,0,0,0,0,0,18,0,0,0,0,0,0,0,0,0,0,0,0,0,0,0,0,0,18,0,0,17,0,0,0,17,0,0,0,0,0,0,0,0,0,0,0,0,0,0,0,0,0,0,0,0,0,0,0,0,0,18,0,0,0,18,0,0,0,0,0,0,0,0,0,0,0,0,0,0,0,0,0,0,0,17,0,0,0,0,0,0,0,0,0,0,0,0,0,0,0,18,0,0,0,0,0,0,0,0,0,0,0,0,0,0,0,0,0,0,0,0,0,0,18,17,0,0,0,0,0,0,0,17,0,0,0,0,0,0,0,0,0,0,0,0,0,0,0,0,0,0,0,0,0,0,0,0,0,0,0,0,0,0,0,18,0,0,0,0,0,17,17,17,0,0,18,0,0,0,0,0,0,0,0,0,0,0,0,0,0,0,0,0,0,0,0,0,0,0,0,0,0,17,0,0,0,0,0,0,0,0,0,18,0,17,17,0,0,18,0,0,0,0,0,0,0,0,0,0,0,17,0,18,0,0,0,0,0,17,17,0,0,0,0,0,0,0,0,0,0,0,0,0,0,0,0,0,0,0,0,0,0,0,0,0,0,0,0,0,0,0,0,0,0,0,0,0,0,0,0,0,0,0,0,0,0,0,0,0,0,0,0,0,0,18,0,0,0,0,0,0,0,0,0,18,0,0,0,0,18,0,0,0,0,0,18,0,0,0,0,0,0,0,0,0,0,0,0,0,0,0,0,0,0,0,0,0,0,0,0,0,0,0,0,0,0,0,0,18,0,18,0,0,0,0,0,0,0,0,0,0,0,0,0,0,0,0,0,0,0,0,0,0,0,0,0,0,0,0,0,0,0,0,0,0,0,0,0,0,0,0,0,0,0,0,0,0,0,0,0,0,0,0,0,0,0,0,0,0,0,0,0,0,0,0,0,0,0,0,0,0,0,0,0,0,0,0,0,0,0,0,0,0,0,0,0,0,0,0,0,0,0,0,0,0,0,0,0,0,0,0,0,0,0,0,0,0,0,0,0,0,0,0,0,0,0,0,0,0,0,0,0,0,0,0,0,0,0,0,0,0,0,0,0,0,0,0,0,0,0,0,0,0,0,0,0,0,0,0,0,0,0,0,0,0,0,0,0,0,0,0,0,0,0,0,0,0,0,0,0,0,0,0,0,0,0,0,0,0,0,0,0,0,0,17,0,0,0,0,0,0,17,0,0,18,18,0,0,0,0,0,0,0,0,0,0,0,0,0,0,0,0,0,0,0,0,0,0,0,0,0,0,0,0,0,0,0,0,0,0,0,0,0,0,0,0,0,0,0,0,0,0,0,0,0,0,0,0,0,0,0,0,0,0,0,0,0,0,0,0,0,0,0,0,0,17,0,0,17,0,0,0,0,0,17,0,0,0,0,0,0,0,0,0,0,0,0,0,0,0,0,0,0,0,0,0,0,0,0,0,0,0,0,0,0,0,0,0,0,0,0,0,0,0,0,0,0,0,0,0,0,0,0,0,0,0,0,0,0,0,0,0,0,0,0,0,0,0,0,0,0,0,0,0,0,0,0,0,0,0,0,0,0,17,0,0,0,0,0,18,0,0,0,0,0,0,0,0,18,18,0,0,0,0,0,0,0,0,0,0,0,0,0,0,0,0,0,0,0,0,0,0,0,0,0,0,0,0,0,0,0,0,0,0,0,0,0,0,0,0,0,0,0,0,0,0,0,0,0,0,0,0,0,0,0,0,0,0,0,0,0,0,0,0,0,0,0,0,0,0,0,0,0,0,18,0,0,0,0,0,0,0,0,0,0,0,0,0,0,0,0,17,0,0,0,0,0,0,0,0,0,0,0,0,0,0,0,0,0,0,0,0,0,0,0,0,0,0,0,0,0,0,0,0,0,0,0,0,0,0,0,0,0,0,0,0,0,0,0,0,0,0,0,0,0,0,0,0,0,0,0,0,0,0,0,0,0,0,0,0,0,17,0,0,0,0,0,0,0,0,0,0,0,0,0,0,18,0,0,0,0,0,0,0,0,0,0,0,0,0,0,0,0,0,0,0,0,0,0,0,0,0,0,0,0,0,0,0,0,0,0,0,0,0,0,0,0,0,0,0,0,0,0,0,0,0,0,0,0,0,0,0,0,0,0,0,0,0,0,0,0,0,0,0,0,0,0,0,0,0,18,0,0,0,0,0,0,0,0,0,0,0,0,0,0,0,0,0,0,0,0,18,0,0,17,0,0,0,0,18,0,0,0,0,0,0,0,0,0,0,0,0,0,0,0,0,0,0,0,0,0,0,0,0,0,0,0,0,0,0,0,0,0,0,0,0,0,0,0,0,0,0,0,0,0,0,0,0,0,0,0,0,0,0,0,0,0,0,0,0,0,18,0,0,0,17,0,0,0,0,0,0,0,0,0,0,0,17,0,0,0,0,0,0,0,0,0,0,0,0,0,0,0,0,0,0,0,0,0,0,0,0,0,0,0,0,0,0,0,0,0,0,0,0,0,0,0,0,0,0,0,0,0,0,0,0,0,0,0,0,0,0,0,0,0,0,0,0,0,0,0,0,0,0,17,0,0,0,0,0,0,0,0,17,0,0,0,0,0,0,17,0,0,18,0,0,0,0,0,0,18,0,0,0,0,0,0,0,0,0,0,0,0,0,0,0,0,0,0,0,0,0,0,0,0,0,0,0,0,0,0,0,0,0,0,0,0,0,0,0,0,0,0,0,0,0,0,0,0,0,0,0,0,0,0,0,0,0,0,0,0,0,0,0,0,0,0,0,0,0,0,0,0,0,0,0,0,0,0,0,17,0,17,0,0,0,0,0,0,0,18,0,0,0,0,0,0,0,0,0,0,0,0,0,0,0,0,0,0,0,0,0,0,0,0,0,0,0,0,0,0,0,0,0,0,0,0,0,0,0,0,0,0,0,0,0,0,0,0,0,0,0,0,0,0,0,0,0,0,0,18,0,0,0,0,0,0,0,0,0,0,0,0,0,0,0,0,0,0,0,0,0,0,0,0,0,0,0,0,0,0,0,0,0,0,0,0,0,0,0,0,0,0,0,0,0,0,0,0,0,0,0,0,0,0,0,0,0,0,0,0,0,0,0,0,0,0,0,0,0,0,0,0,0,0,0,0,0,0,0,0,0,0,0,0,0,0,18,0,0,0,0,0,0,0,0,0,0,0,0,0,0,0,0,0,0,0,0,0,0,0,0,0,0,0,0,0,0,0,0,0,0,0,0,0,0,0,0,0,0,0,0,0,0,0,0,0,0,0,0,0,0,0,0,0,0,0,0,0,0,0,0,0,0,0,0,0,0,0,0,0,0,0,0,0,0,0,0,0,0,0,0,0,0,0,0,0,17,0,17,0,0,0,0,0,0,0,0,0,18,0,0,0,0,0,0,0,0,0,0,0,0,0,0,0,0,0,0,0,0,0,0,0,0,0,0,0,0,0,0,0,0,0,0,0,0,0,0,0,0,0,0,0,0,0,0,0,0,0,0,0,0,0,0,0,0,0,0,0,0,0,0,0,0,0,0,0,0,0,0,0,0,0,0,0,0,17,0,0,0,0,17,0,0,18,0,0,0,0,0,0,0,0,0,0,0,0,0,0,0,0,0,0,0,0,0,0,0,0,0,0,0,0,0,0,0,0,0,0,0,0,0,0,0,0,0,0,0,0,0,0,0,0,0,0,0,0,0,0,0,0,0,0,0,0,0,0,0,0,0,0,0,0,0,0,0,0,0,0,0,0,0,0,0,0,0,0,0,0,0,0,0,0,0,0,0,0,0,0,0,0,0,0,0,0,0,0,0,0,0,0,0,0,0,0,0,0,0,0,0,0,0,0,0,0,0,0,0,0,0,0,0,0,0,0,0,0,0,0,0,0,0,0,0,0,0,0,0,0,0,0,0,0,0,0,0,0,0,0,0,0,0,0,0,0,0,0,0,0,17,0,0,0,0,0,0,0,0,0,0,0,0,0,0,0,0,0,0,0,0,0,0,0,0,0,0,0,0,0,0,0,0,0,0,0,0,0,0,0,0,0,0,0,0,0,0,0,0,0,0,0,0,0,0,0,0,0,0,0,0,0,0,0,0,0,0,0,0,0,0,0,0,0,0,0,0,0,0,0,0,0,0,0,0,0,0,0,18,0,18,0,0,0,17,0,0,0,0,18,0,0,0,0,0,0,0,0,0,0,0,0,0,0,0,0,0,0,0,0,0,0,0,0,0,0,0,0,0,0,0,0,0,0,0,0,0,0,0,0,0,0,0,0,0,0,0,0,0,0,0,0,0,0,0,0,0,0,0,0,0,0,0,0,0,0,0,0,0,0,0,0,0,0,0,0,0,18,0,0,0,0,0,0,0,17,0,0,0,0,0,0,0,0,0,0,0,0,0,0,0,0,0,0,0,0,0,0,0,0,0,0,0,0,0,0,0,0,0,0,0,0,0,0,0,0,0,0,0,0,0,0,0,0,0,0,0,0,0,0,0,0,0,0,0,0,0,0,0,0,0,0,0,0,0,0,0,0,0,0,0,0,0,0,0,0,0,0,0,0,0,0,0,17,0,18,0,0,0,0,0,0,0,0,0,0,0,0,0,0,0,0,0,0,0,0,0,0,0,0,0,0,0,0,0,0,0,0,0,0,0,0,0,0,0,0,0,0,0,0,0,0,0,0,0,0,0,0,0,0,0,0,0,0,0,0,0,0,0,0,0,0,0,0,0,0,0,0,0,0,0,0,0,0,0,0,0,17,0,0,0,0,0,0,0,0,0,0,0,0,0,0,0,0,0,0,0,0,0,0,0,0,0,0,0,0,0,0,0,0,0,0,0,0,0,0,0,0,0,0,0,0,0,0,0,0,0,0,0,0,0,0,0,0,0,0,0,0,0,0,0,0,0,0,0,0,0,0,0,0,0,0,0,0,0,0,0,0,0,0,0,0,0,0,0,0,0,0,0,0,0,0,0,0,0,0,0,0,0,0,0,0,0,0,0,0,0,0,0,0,0,0,0,0,0,0,0,0,0,0,0,0,0,0,0,0,0,0,0,0,0,0,0,0,0,0,0,0,0,0,0,0,0,0,0,0,0,0,0,0,0,0,0,0,0,0,0,0,0,0,0,0,0,0,0,0,0,0,0,0,0,17,0,0,0,0,17,0,0,0,0,0,0,0,0,0,0,0,0,0,0,0,0,0,0,0,0,0,0,0,0,0,0,0,0,0,0,0,0,0,0,0,0,0,0,0,0,0,0,0,0,0,0,0,0,0,0,0,0,0,0,0,0,0,0,0,0,0,0,0,0,0,0,0,0,0,0,0,0,0,0,0,0,0,0,0,0,0,0,0,0,0,0,0,0,0,18,0,0,0,0,0,0,0,0,0,0,0,0,0,0,0,0,0,0,0,0,0,0,0,0,0,0,0,0,0,0,0,0,0,0,0,0,0,0,0,0,0,0,0,0,0,0,0,0,0,0,0,0,0,0,0,0,0,0,0,0,0,0,0,0,0,0,0,0,0,0,0,0,0,0,0,0,0,0,0,0,0,18,0,0,0,18,0,0,0,0,0,0,0,0,0,0,0,0,0,0,0,0,0,0,0,0,0,0,0,0,0,0,0,0,0,0,0,0,0,0,0,0,0,0,0,0,0,0,0,0,0,0,0,0,0,0,0,0,0,0,0,0,0,0,0,0,0,0,0,0,0,0,0,0,0,0,0,0,0,0,0,0,0,0,0,0,0,0,0,0,0,0,0,0,0,18,0,0,0,0,0,0,0,0,0,0,0,0,0,0,0,0,0,0,0,0,0,0,0,0,0,0,0,0,0,0,0,0,0,0,0,0,0,0,0,0,0,0,0,0,0,0,0,0,0,0,0,0,0,0,0,0,0,0,0,0,0,0,0,0,0,0,0,0,0,0,0,0,0,0,0,0,0,0,0,0,0,0,0,0,0,0,0,0,0,0,0,0,0,0,0,0,0,0,0,0,0,0,0,0,0,0,0,0,0,0,0,0,0,0,0,0,0,0,0,0,0,0,0,0,0,0,0,0,0,0,0,0,0,0,0,0,0,0,0,0,0,0,0,0,0,0,0,0,0,0,0,0,0,0,0,0,0,0,0,0,0,0,0,0,0,0,0,0,0,0,0,0,0,0,0,0,0,0,0,0,0,0,0,0,0,0,0,0,0,0,0,0,0,0,0,0,0,0,0,0,0,0,0,0,0,0,0,0,0,0,0,0,0,0,0,0,0,0,0,0,0,0,0,0,0,0,0,0,0,0,0,0,0,0,0,0,0,0,0,0,0,0,0,0,0,0,0,0,0,0,0,0,0,0,0,0,0,0,0,0,0,0,0,0,0,0,0,0,0,0,0,0,0,0,0,0,0,0,0,0,0,0,0,0,0,0,0,0,0,0,0,0,0,0,0,0,0,0,0,0,0,0,0,0,0,0,0,0,0,0,0,0,0,0,0,0,0,0,0,0,0,0,0,0,0,0,0,0,0,0,0,0,0,0,0,0,0,0,0,0,0,0,0,0,0,0,0,0,0,0,0,0,0,0,0,0,0,0,0,0,0,0,0,0,0,0,0,0,0,0,0,0,0,0,0,0,0,0,0,0,0,0,0,0,0,0,0,0,0,0,0,0,0,0,0,0,0,0,0,0,0,0,0,0,0,0,0,0,0,0,0,0,0,0,0,0,0,0,0,0,0,0,0,0,0,0,0,0,0,0,0,0,0,0,0,0,0,0,0,0,0,0,0,0,0,0,0,0,0,0,0,0,0,0,0,0,0,0,0,0,0,0,0,0,0,0,0,0,0,0,0,0,0,0,0,0,0,0,0,0,0,0,0,0,0,0,0,0,0,0,0,0,0,0,0,0,0,0,0,0,0,0,0,0,0,0,0,0,0,0,0,0,0,0,0,0,0,17,0,0,0,0,0,0,0,0,0,0,0,0,0,0,0,0,0,0,0,0,0,0,0,0,0,0,0,0,0,0,0,0,0,0,0,0,0,0,0,0,0,0,0,0,0,0,0,0,0,0,0,0,0,0,0,0,0,0,0,0,0,0,0,0,0,0,0,0,0,0,0,0,0,0,0,0,0,0,0,0,0,0,0,0,0,0,0,0,0,0,0,0,0,0,0,0,0,0,0,0,0,0,0,0,0,0,0,0,0,0,0,0,0,0,0,0,0,0,0,0,0,0,0,0,0,0,0,0,0,0,0,0,0,0,0,0,0,0,0,0,0,0,0,0,0,0,0,0,0,0,0,0,0,0,0,0,0,0,0,0,0,0,0,0,0,0,0,0,0,0,0,0,0,0,0,0,0,17,0,0,0,0,18,0,0,0,0,0,0,0,0,0,0,0,0,0,0,0,0,0,0,0,0,0,0,0,0,0,0,0,0,0,0,0,0,0,0,0,0,0,0,0,0,0,0,0,0,0,0,0,0,0,0,0,0,0,0,0,0,0,0,0,0,0,0,0,0,0,0,0,0,0,0,0,0,0,0,0,0,0,0,0,0,0,0,0,0,0,0,17,0,0,0,0,0,0,0,0,0,0,0,0,0,0,0,0,0,0,0,0,0,0,0,0,0,0,0,0,0,0,0,0,0,0,0,0,0,0,0,0,0,0,0,0,0,0,0,0,0,0,0,0,0,0,0,0,0,0,0,0,0,0,0,0,0,0,0,0,0,0,0,0,0,0,0,0,0,0,0,0,0,0,0,0,0,0,0,0,0,18,0,0,0,0,0,0,0,0,0,0,0,0,0,0,0,0,0,0,0,0,0,0,0,0,0,0,0,0,0,0,0,0,0,0,0,0,0,0,0,0,0,0,0,0,0,0,0,0,0,0,0,0,0,0,0,0,0,0,0,0,0,0,0,0,0,0,0,0,0,0,0,0,0,0,0,0,0,0,0,0,0,0,0,0,0,0,0,0,0,0,0,0,0,0,0,0,0,0,0,0,0,0,0,0,0,0,0,0,0,0,0,0,0,0,0,0,0,0,0,0,0,0,0,0,0,0,0,0,0,0,0,0,0,0,0,0,0,0,0,0,0,0,0,0,0,0,0,0,0,0,0,0,0,0,0,0,0,0,0,0,0,0,0,0,0,0,0,0,0,17,17,0,0,0,0,17,0,0,0,0,0,0,0,0,0,0,0,0,0,0,0,0,0,0,0,0,0,0,0,0,0,0,0,0,0,0,0,0,0,0,0,0,0,0,0,0,0,0,0,0,0,0,0,0,0,0,0,0,0,0,0,0,0,0,0,0,0,0,0,0,0,0,0,0,0,0,0,0,0,0,0,0,0,0,0,0,0,0,0,0,0,0,0,0,0,18,0,0,0,0,0,0,0,0,0,0,0,0,0,0,0,0,0,0,0,0,0,0,0,0,0,0,0,0,0,0,0,0,0,0,0,0,0,0,0,0,0,0,0,0,0,0,0,0,0,0,0,0,0,0,0,0,0,0,0,0,0,0,0,0,0,0,0,0,0,0,0,0,0,0,0,0,0,0,0,0,0,0,18,0,0,0,0,0,0,0,0,0,0,0,0,0,0,0,0,0,0,0,0,0,0,0,0,0,0,0,0,0,0,0,0,0,0,0,0,0,0,0,0,0,0,0,0,0,0,0,0,0,0,0,0,0,0,0,0,0,0,0,0,0,0,0,0,0,0,0,0,0,0,0,0,0,0,0,0,0,0,0,0,0,0,0,0,0,0,0,0,0,0,0,0,0,0,0,0,0,0,0,0,0,0,0,0,0,0,0,0,0,0,0,0,0,0,0,0,0,0,0,0,0,0,0,0,0,0,0,0,0,0,0,0,0,0,0,0,0,0,0,0,0,0,0,0,0,0,0,0,0,0,0,0,0,0,0,0,0,0,0,0,0,0,0,0,0,0,0,0,0,0,0,0,0,0,0,17,0,17,0,0,0,0,0,0,0,0,0,0,0,0,0,0,0,0,0,0,0,0,0,0,0,0,0,0,0,0,0,0,0,0,0,0,0,0,0,0,0,0,0,0,0,0,0,0,0,0,0,0,0,0,0,0,0,0,0,0,0,0,0,0,0,0,0,0,0,0,0,0,0,0,0,0,0,0,0,0,0,0,0,0,18,0,0,0,0,0,0,0,0,0,0,0,0,0,0,0,0,0,0,0,0,0,0,0,0,0,0,0,0,0,0,0,0,0,0,0,0,0,0,0,0,0,0,0,0,0,0,0,0,0,0,0,0,0,0,0,0,0,0,0,0,0,0,0,0,0,0,0,0,0,0,0,0,0,0,0,0,0,0,0,0,0,0,0,0,0,0,0,18,0,0,0,0,0,0,18,0,0,0,0,0,0,0,0,0,0,0,0,0,0,0,0,0,0,0,0,0,0,0,0,0,0,0,0,0,0,0,0,0,0,0,0,0,0,0,0,0,0,0,0,0,0,0,0,0,0,0,0,0,0,0,0,0,0,0,0,0,0,0,0,0,0,0,0,0,0,0,0,0,0,0,0,0,0,0,0,17,0,18,0,0,17,0,0,0,0,0,0,0,0,0,0,0,0,0,0,0,0,0,0,0,0,0,0,0,0,0,0,0,0,0,0,0,0,0,0,0,0,0,0,0,0,0,0,0,0,0,0,0,0,0,0,0,0,0,0,0,0,0,0,0,0,0,0,0,0,0,0,0,0,0,0,0,0,0,0,0,0,0,0,0,0,0,0,0,0,17,0,0,0,0,0,0,0,0,0,0,0,0,0,0,0,0,0,0,0,0,0,0,0,0,0,0,0,0,0,0,0,0,0,0,0,0,0,0,0,0,0,0,0,0,0,0,0,0,0,0,0,0,0,0,0,0,0,0,0,0,0,0,0,0,0,0,0,0,0,0,0,0,0,0,0,0,0,0,0,0,0,0,0,0,0,0,0,0,0,18,0,0,0,0,0,0,0,0,0,0,0,0,0,0,0,0,0,0,0,0,0,0,0,0,0,0,0,0,0,0,0,0,0,0,0,0,0,0,0,0,0,0,0,0,0,0,0,0,0,0,0,0,0,0,0,0,0,0,0,0,0,0,0,0,0,0,0,0,0,0,0,0,0,0,0,0,0,0,0,0,0,0,0,0,0,0,0,0,18,0,0,0,0,0,0,0,0,0,0,0,0,0,0,0,0,0,0,0,0,0,0,0,0,0,0,0,0,0,0,0,0,0,0,0,0,0,0,0,0,0,0,0,0,0,0,0,0,0,0,0,0,0,0,0,0,0,0,0,0,0,0,0,0,0,0,0,0,0,0,0,0,0,0,0,0,0,0,0,0,0,0,0,0,0,0,0,0,0,0,0,0,0,0,0,0,0,0,0,0,0,0,0,0,0,0,0,0,0,0,0,0,0,0,0,0,0,0,0,0,0,0,0,0,0,0,0,0,0,0,0,0,0,0,0,0,0,0,0,0,0,0,0,0,0,0,0,0,0,0,0,0,0,0,0,0,0,0,0,0,0,0,0,0,0,0,0,0,0,0,0,0,0,17,0,0,0,0,17,0,0,0,0,0,0,0,0,0,0,0,0,0,0,0,0,0,0,0,0,0,0,0,0,0,0,0,0,0,0,0,0,0,0,0,0,0,0,0,0,0,0,0,0,0,0,0,0,0,0,0,0,0,0,0,0,0,0,0,0,0,0,0,0,0,0,0,0,0,0,0,0,0,0,0,0,0,0,17,0,0,0,0,0,0,0,0,17,0,0,0,0,0,0,0,0,0,0,0,0,0,0,0,0,0,0,0,0,0,0,0,0,0,0,0,0,0,0,0,0,0,0,0,0,0,0,0,0,0,0,0,0,0,0,0,0,0,0,0,0,0,0,0,0,0,0,0,0,0,0,0,0,0,0,0,0,0,0,0,0,0,0,0,0,0,0,0,0,0,0,0,0,0,0,0,0,0,0,0,0,0,0,0,0,0,0,0,0,0,0,0,0,0,0,0,0,0,0,0,0,0,0,0,0,0,0,0,0,0,0,0,0,0,0,0,0,0,0,0,0,0,0,0,0,0,0,0,0,0,0,0,0,0,0,0,0,0,0,0,0,0,0,0,0,0,0,0,0,0,0,0,0,0,0,0,0,17,0,0,0,0,0,0,0,0,0,0,0,0,0,0,0,0,0,0,0,0,0,0,0,0,0,0,0,0,0,0,0,0,0,0,0,0,0,0,0,0,0,0,0,0,0,0,0,0,0,0,0,0,0,0,0,0,0,0,0,0,0,0,0,0,0,0,0,0,0,0,0,0,0,0,0,0,0,0,0,0,0,0,0,0,0,0,0,0,0,0,0,0,0,0,0,18,0,0,0,0,0,0,0,0,0,0,0,0,0,0,0,0,0,0,0,0,0,0,0,0,0,0,0,0,0,0,0,0,0,0,0,0,0,0,0,0,0,0,0,0,0,0,0,0,0,0,0,0,0,0,0,0,0,0,0,0,0,0,0,0,0,0,0,0,0,0,0,0,0,0,0,0,0,0,0,0,0,0,0,0,0,0,0,0,0,0,0,0,0,0,0,0,0,0,0,0,0,0,0,0,0,0,0,0,0,0,0,0,0,0,0,0,0,0,0,0,0,0,0,0,0,0,0,0,0,0,0,0,0,0,0,0,0,0,0,0,0,0,0,0,0,0,0,0,0,0,0,0,0,0,0,0,0,0,0,0,0,0,0,0,0,0,0,0,0,18,18,0,0,0,0,0,0,0,0,0,0,0,0,0,0,0,0,0,0,0,0,0,0,0,0,0,0,0,0,0,0,0,0,0,0,0,0,0,0,0,0,0,0,0,0,0,0,0,0,0,0,0,0,0,0,0,0,0,0,0,0,0,0,0,0,0,0,0,0,0,0,0,0,0,0,0,0,0,0,0,0,0,18,0,18,0,0,0,0,0,0,0,0,17,0,0,0,0,0,0,18,0,18,0,0,0,0,0,0,0,0,0,17,0,18,18,0,0,0,18,0,0,0,0,0,0,0,0,0,0,18,0,0,0,0,0,18,0,0,17,0,0,0,0,18,0,0,18,0,17,0,0,0,0,0,0,0,0,0,0,0,0,0,17,0,0,0,17,0,0,17,18,0,0,0,0,0,18,0,0,0,17,0,0,0,0,0,0,0,0,0,0,0,0,0,0,17,0,0,0,0,0,0,0,18,0,17,0,0,0,0,0,0,0,0,0,0,0,0,0,0,0,0,0,0,17,0,0,0,0,0,0,0,0,0,17,0,0,17,0,0,0,0,17,18,0,0,0,17,0,0,0,0,0,0,0,0,0,18,17,0,0,17,0,0,0,0,0,0,0,0,0,0,0,0,0,0,0,0,17,0,0,18,0,18,0,0,17,0,0,0,17,0,0,0,0,0,0,0,0,18,0,0,18,0,0,0,0,0,0,0,0,17,0,18,17,0,0,0,0,0,18,0,0,0,0,0,0,0,0,0,0,18,18,0,0,18,0,0,0,0,0,0,17,0,0,0,0,0,0,0,0,0,0,0,0,0,0,18,0,0,0,0,0,0,17,17,0,0,0,0,0,0,0,0,0,0,0,0,0,0,17,0,0,0,0,0,0,18,0,0,0,0,0,0,0,0,0,0,0,17,17,0,0,0,0,0,0,17,0,0,0,0,0,0,0,0,0,0,0,0,0,0,0,0,0,17,0,18,0,17,0,0,18,0,0,0,0,0,0,0,0,0,0,0,0,0,18,0,0,0,0,17,0,0,0,0,0,0,0,0,0,0,0,17,0,0,0,0,0,0,0,0,0,0,0,17,0,0,0,0,0,0,0,0,0,0,18,0,0,18,0,18,0,0,0,0,0,18,0,0,0,0,0,0,18,0,0,0,0,0,0,0,0,0,17,0,0,0,18,0,0,0,0,0,0,0,0,0,0,17,17,0,0,0,0,0,0,0,17,0,0,17,0,0,0,0,0,0,0,0,0,0,17,0,0,18,17,0,0,0,0,0,0,18,0,0,0,0,0,0,0,0,18,0,0,0,0,0,0,17,0,0,0,0,0,0,0,0,0,0,0,17,0,0,0,0,0,0,0,0,17,18,0,0,0,0,0,0,0,0,0,0,0,0,0]},{"id":4,"name":"wall","type":"tilelayer","width":88,"height":68,"x":0,"y":0,"opacity":1,"visible":true,"data":[0,0,0,0,0,0,0,0,0,0,0,0,0,0,0,0,0,0,0,0,0,0,0,0,0,0,0,0,0,0,0,0,0,0,0,0,0,0,0,0,0,0,0,0,0,0,0,0,0,0,0,0,0,0,0,0,0,0,0,0,0,0,0,0,0,0,0,0,0,0,0,0,0,0,0,0,0,0,0,0,0,0,0,0,0,0,0,0,0,0,0,0,0,0,0,0,0,0,0,0,0,0,0,0,0,0,0,0,0,0,0,0,0,0,0,0,0,0,0,0,0,0,0,0,0,0,0,0,0,0,0,0,0,0,0,0,0,0,0,0,0,0,0,0,0,0,0,0,0,0,0,0,0,0,0,0,0,0,0,0,0,0,0,0,0,0,0,0,0,0,0,0,0,0,0,0,0,0,0,0,0,0,0,0,0,0,0,0,0,0,0,0,0,0,0,0,0,0,0,0,0,0,0,0,0,0,0,0,0,0,0,0,0,0,0,0,0,0,0,0,0,0,0,0,0,0,0,0,0,0,0,0,0,0,0,0,0,0,0,0,0,0,0,0,0,0,0,0,0,0,0,0,0,0,0,0,0,0,0,0,0,0,0,0,0,0,0,0,0,0,0,0,0,0,0,0,0,0,0,0,0,0,0,0,0,0,0,0,0,0,0,0,0,0,0,0,0,0,0,0,0,0,0,0,0,0,0,0,0,0,0,0,0,0,0,0,0,0,0,0,0,0,0,0,0,0,0,0,0,0,0,0,0,0,0,0,0,0,0,0,0,0,0,0,0,0,0,0,0,0,0,0,0,0,0,0,0,0,0,0,0,0,0,0,0,0,0,0,0,0,0,0,0,0,0,0,0,0,0,0,0,0,0,0,0,0,0,0,0,0,0,0,0,0,0,0,0,0,0,0,0,0,0,0,0,0,0,0,0,0,0,0,0,0,0,0,0,0,0,0,0,0,0,0,0,0,0,0,0,0,0,0,0,0,0,0,0,0,0,0,0,0,0,0,0,0,0,0,0,0,0,0,0,0,0,0,0,0,0,0,0,0,0,0,0,0,0,0,0,0,0,0,0,0,0,0,0,0,0,0,0,0,0,0,0,0,0,0,0,0,0,0,0,0,0,0,0,0,0,0,0,0,0,0,0,0,0,0,0,0,0,0,0,0,0,0,0,0,0,0,0,0,0,0,0,0,0,0,0,0,0,0,0,0,0,0,0,0,0,0,0,0,0,0,0,0,0,0,0,0,0,0,0,0,0,0,0,0,0,0,0,0,0,0,0,0,0,0,0,0,0,0,0,0,0,0,0,0,0,0,0,0,0,0,0,0,0,0,0,0,0,0,0,0,0,0,0,0,0,0,0,0,0,0,0,0,0,0,0,0,0,0,0,0,0,0,0,0,0,0,0,0,0,0,0,0,0,0,0,0,0,0,0,0,0,0,0,0,0,0,0,0,0,0,0,0,0,0,0,0,0,0,0,0,0,0,0,0,0,0,0,0,0,0,0,0,0,0,0,0,0,0,0,0,0,0,0,0,0,0,0,0,0,0,0,0,0,0,0,0,0,0,0,0,0,0,0,0,0,0,0,0,0,0,0,0,0,0,0,0,0,0,0,0,0,0,0,0,0,0,0,0,0,0,0,0,0,0,0,0,0,0,0,0,0,0,0,0,0,0,0,0,0,0,0,0,0,0,0,0,0,0,0,0,0,0,0,0,0,0,791,821,821,787,0,0,0,0,0,0,0,0,0,0,0,0,0,0,0,0,0,0,0,0,0,0,0,0,0,0,0,0,0,0,0,0,0,0,0,0,0,0,0,0,0,0,0,0,0,0,0,0,0,0,0,0,0,0,0,0,0,0,0,0,0,0,0,0,0,0,0,0,0,0,0,0,0,0,0,0,0,0,0,0,0,0,0,0,791,821,821,787,0,0,0,0,0,0,0,0,0,0,0,0,0,0,0,0,0,0,0,0,0,0,0,0,0,0,0,0,0,0,0,0,0,0,0,0,0,0,0,0,0,0,0,0,0,0,0,0,0,0,0,0,0,0,0,0,0,0,0,0,0,0,0,0,0,0,0,0,0,0,0,0,0,0,0,0,0,0,0,0,0,0,0,0,791,821,821,787,0,0,0,0,0,0,0,0,0,0,0,0,0,0,0,0,0,0,0,0,0,0,0,0,0,0,0,0,0,0,0,0,0,0,0,0,0,0,0,0,0,0,0,0,0,0,0,0,0,0,0,0,0,0,0,0,0,0,0,0,0,0,0,0,0,0,0,0,0,0,0,0,0,0,0,0,0,0,0,0,0,0,0,0,791,821,821,787,0,0,0,0,0,0,0,0,0,0,0,0,0,0,0,0,0,0,0,0,0,0,0,0,0,0,0,0,0,0,0,0,0,0,0,0,0,0,0,0,0,0,0,0,0,0,0,0,0,0,0,0,0,0,0,0,0,0,0,0,0,0,0,0,0,0,0,0,0,0,0,0,0,0,0,0,0,0,0,0,0,0,0,0,791,821,821,787,0,0,0,0,0,0,0,0,0,0,0,0,0,0,0,0,0,0,0,0,0,0,0,0,0,0,0,0,0,0,0,0,0,0,0,0,0,0,0,0,0,0,0,0,0,0,0,0,0,0,0,0,0,0,0,0,0,0,0,0,0,0,0,0,0,0,0,0,0,0,0,0,0,0,0,0,0,0,0,0,0,0,0,0,791,821,821,787,0,0,0,0,0,0,0,0,0,0,0,0,0,0,0,0,0,0,0,0,0,0,0,0,0,0,0,0,0,0,0,0,0,0,0,0,0,0,0,0,0,0,0,0,0,0,0,0,0,0,0,0,0,0,0,0,0,0,0,0,0,0,0,0,0,0,0,0,0,0,0,0,0,0,0,0,0,0,0,0,0,0,0,0,791,821,821,787,0,0,0,0,0,0,0,0,0,0,0,0,0,0,0,0,0,0,0,0,0,0,0,0,0,0,0,0,0,0,0,0,0,0,0,0,0,0,0,0,0,0,0,0,0,0,0,0,0,0,0,0,0,0,0,0,0,0,0,0,0,0,0,0,0,0,0,0,0,0,0,0,0,0,0,0,0,0,0,0,0,0,0,0,791,821,821,787,0,0,0,0,0,0,0,0,0,0,0,0,0,0,0,0,0,0,0,0,0,0,0,0,0,0,0,0,0,0,0,0,0,0,0,0,0,0,0,0,0,0,0,0,0,0,0,0,0,0,0,0,0,0,0,0,0,0,0,0,0,0,0,0,0,0,0,0,0,0,0,0,0,0,0,0,0,0,0,0,0,0,0,0,791,821,821,787,0,0,0,0,0,0,0,0,0,0,0,0,0,0,0,0,0,0,0,0,0,0,0,0,0,0,0,0,0,0,0,0,0,0,0,0,0,0,0,0,0,0,0,0,0,0,0,0,0,0,0,0,0,0,0,0,0,0,0,0,0,0,0,0,0,0,0,0,0,0,0,0,0,0,0,0,0,0,0,0,0,0,0,0,791,821,821,787,0,0,0,0,0,0,0,0,0,0,0,0,0,0,0,0,0,0,0,0,0,0,0,0,0,0,0,0,0,0,0,0,0,0,0,0,0,0,0,0,0,0,0,0,0,0,0,0,0,0,0,0,0,0,0,0,0,0,0,0,0,0,0,0,0,0,0,0,0,0,0,0,0,0,0,0,0,0,0,0,0,0,0,0,791,821,821,787,0,0,0,0,0,0,0,0,0,0,0,0,0,0,0,0,0,0,0,0,0,0,0,0,0,0,0,0,0,0,0,0,0,0,0,0,0,0,0,0,0,0,0,0,0,0,0,0,0,0,0,0,0,0,0,0,0,0,0,0,0,0,0,0,0,0,0,0,0,0,0,0,0,0,0,0,0,0,0,0,0,0,0,0,791,821,821,787,0,0,0,0,0,0,0,0,0,0,0,0,0,0,0,0,0,0,0,0,0,0,0,0,0,0,0,0,0,0,0,0,0,0,0,0,0,0,0,0,0,0,0,0,0,0,0,0,0,0,0,0,0,0,0,0,0,0,0,0,0,0,0,0,0,0,0,0,0,0,0,0,0,0,0,0,0,0,0,0,0,0,0,0,791,821,821,787,0,0,0,0,0,0,0,0,0,0,0,0,0,0,0,0,0,0,0,0,0,0,0,0,0,0,0,0,0,0,0,0,0,0,0,0,0,0,0,0,0,0,0,0,0,0,0,0,0,0,0,0,0,0,0,0,0,0,0,0,0,0,0,0,0,0,0,0,0,0,0,0,0,0,0,0,0,0,0,0,0,0,0,0,791,821,821,787,0,0,0,0,0,0,0,0,0,0,0,0,0,0,0,0,0,0,0,0,0,0,0,0,0,0,0,0,0,0,0,0,0,0,0,0,0,0,0,0,0,0,0,0,0,0,0,0,0,0,0,0,0,0,0,0,0,0,0,0,0,0,0,0,0,0,0,0,0,0,0,0,0,0,0,0,0,0,0,0,0,0,0,0,791,821,821,787,0,0,0,0,0,0,0,0,0,0,0,0,0,0,0,0,0,0,0,0,0,0,0,0,0,0,0,0,0,0,0,0,0,0,0,0,0,0,0,0,0,0,0,0,0,0,0,0,0,0,0,0,0,0,0,0,0,0,0,0,0,0,0,0,0,0,0,0,0,0,0,0,0,0,0,0,0,0,0,0,0,0,0,0,791,821,821,787,0,0,0,0,0,0,0,0,0,0,0,0,0,0,0,0,0,0,0,0,0,0,0,0,0,0,0,0,0,0,0,0,0,0,0,0,0,0,0,0,0,0,0,0,0,0,0,0,0,0,0,0,0,0,0,0,0,0,0,0,0,0,0,0,0,0,0,0,0,0,0,0,0,0,0,0,0,0,0,0,0,0,0,0,791,821,821,787,0,0,0,0,0,0,0,0,0,0,0,0,0,0,0,0,0,0,0,0,0,0,0,0,0,0,0,0,0,0,0,0,0,0,0,0,0,0,0,0,0,0,0,0,0,0,0,0,0,0,0,0,0,0,0,0,0,0,0,0,0,0,0,0,0,0,0,0,0,0,0,0,0,0,0,0,0,0,0,0,0,0,0,0,791,821,821,787,0,0,0,0,0,0,0,0,0,0,0,0,0,0,0,0,0,0,0,0,0,0,0,0,0,0,0,0,0,0,0,0,0,0,0,0,0,0,0,0,0,0,0,0,0,0,0,0,0,0,0,0,0,0,0,0,0,0,0,0,0,0,0,0,0,0,0,0,0,0,0,0,0,0,0,0,0,0,0,0,0,0,0,0,791,821,821,787,0,0,0,0,0,0,0,0,0,0,0,0,0,0,0,0,0,0,0,0,0,0,0,0,0,0,0,0,0,0,0,0,0,0,0,0,0,0,0,0,0,0,0,0,0,0,0,0,0,0,0,0,0,0,0,0,0,0,0,0,0,0,0,0,0,0,0,0,0,0,0,0,0,0,0,0,0,0,0,0,0,0,0,0,778,781,777,778,0,0,0,0,0,0,0,0,0,0,0,0,0,0,0,0,0,0,0,0,0,0,0,0,0,0,0,0,0,0,0,0,0,0,0,0,0,0,0,0,0,0,0,0,0,0,0,0,0,0,0,0,0,0,0,0,0,0,0,0,0,0,0,0,0,0,0,0,0,0,0,0,0,0,0,0,0,0,0,0,0,0,0,0,0,791,787,0,0,0,0,0,0,0,0,0,0,0,0,0,0,0,0,0,0,0,0,0,0,0,0,0,0,0,0,0,0,0,0,0,0,0,0,0,0,0,0,0,0,0,0,0,0,0,0,0,0,0,0,0,0,0,0,0,0,0,0,0,0,0,0,0,0,0,0,0,0,0,0,0,0,0,0,0,0,0,0,0,0,0,0,0,0,791,817,818,818,818,818,818,0,0,0,0,818,818,818,818,818,0,0,818,818,818,818,818,821,817,818,0,0,0,0,0,0,0,0,0,0,0,0,0,0,0,0,0,0,0,0,0,0,0,0,0,0,0,0,0,0,0,0,0,0,0,0,0,0,0,0,0,0,0,0,0,0,0,0,0,0,0,0,0,0,0,0,0,0,0,0,0,0,778,778,778,778,778,778,778,0,0,0,0,778,778,778,778,778,0,0,778,778,778,778,778,781,777,778,0,0,0,0,0,0,0,0,0,0,0,0,0,0,0,0,0,0,0,0,0,0,0,0,0,0,0,0,0,0,0,0,0,0,0,0,0,0,0,0,0,0,0,0,0,0,0,0,0,0,0,0,0,0,0,0,0,0,0,0,0,0,0,0,0,0,0,0,0,0,0,0,0,0,0,0,0,0,0,0,0,0,0,0,0,0,0,0,0,0,0,0,0,0,0,0,0,0,0,0,0,0,0,0,0,0,0,0,0,0,0,0,0,0,0,0,0,0,0,0,0,0,0,0,0,0,0,0,0,0,0,0,0,0,0,0,0,0,0,0,0,0,0,0,0,0,0,0,0,0,0,0,0,0,0,0,0,0,0,0,0,0,0,0,0,0,0,0,0,0,0,0,0,0,0,0,0,0,0,0,0,0,0,0,0,0,0,0,0,0,0,0,0,0,0,0,0,0,0,0,0,0,0,0,0,0,0,0,0,0,0,0,0,0,0,0,0,0,0,0,0,0,0,0,0,0,0,0,0,0,0,0,0,0,0,0,0,0,0,0,0,0,0,0,0,0,0,0,0,0,0,0,0,0,0,0,0,0,0,0,0,0,0,0,0,0,0,0,0,0,0,0,0,0,0,0,0,0,0,0,0,0,0,0,0,0,0,0,0,0,0,0,0,0,0,0,0,0,0,0,0,0,0,0,0,0,0,0,0,0,0,0,0,0,0,0,0,0,0,0,0,0,0,0,0,0,0,0,0,0,0,0,0,0,0,0,0,0,0,0,0,0,0,0,0,0,0,0,0,0,0,0,0,0,0,0,0,0,0,0,0,0,0,0,0,0,0,0,0,0,0,0,0,0,0,0,0,0,0,0,0,0,0,0,0,0,0,0,0,0,0,0,0,0,0,0,0,0,0,0,0,0,0,0,0,0,0,0,0,0,0,0,0,0,0,0,0,0,0,0,0,0,0,0,0,0,0,0,0,0,0,0,0,0,0,0,0,0,0,0,0,0,0,0,0,0,0,0,0,0,0,0,0,0,0,0,0,0,0,0,0,0,0,0,0,0,0,0,0,0,0,0,0,0,0,0,0,0,0,0,0,0,0,0,0,0,0,0,0,0,0,0,0,0,0,0,0,0,0,0,0,0,0,0,0,0,0,0,0,0,0,0,0,0,0,0,0,0,0,0,0,0,0,0,0,0,0,0,0,0,0,0,0,0,0,0,0,0,0,0,0,0,0,0,0,0,818,818,818,818,818,818,818,818,818,818,818,818,818,818,818,818,818,818,0,0,0,0,0,0,818,818,818,818,818,818,818,818,818,818,818,818,818,818,0,0,0,0,0,0,818,818,818,818,818,818,818,818,0,0,818,818,0,0,818,818,818,818,0,0,0,0,0,0,0,0,0,0,0,0,0,0,0,0,0,0,0,0,0,0,0,0,0,0,791,777,778,778,778,778,778,778,778,778,778,778,778,778,778,778,781,787,0,0,0,0,0,0,791,777,778,778,778,778,778,778,778,778,778,778,781,787,0,0,0,0,0,0,791,777,778,778,778,778,778,778,0,0,778,778,0,0,778,778,781,787,0,0,0,0,0,0,0,0,0,0,0,0,0,0,0,0,0,0,0,0,0,0,0,0,0,0,791,787,0,0,0,0,0,0,0,0,0,0,0,0,0,0,791,787,0,0,0,0,0,0,791,787,0,0,0,0,0,0,0,0,0,0,791,787,0,0,0,0,0,0,791,787,0,0,0,0,0,0,0,0,0,0,0,0,0,0,791,787,0,0,0,0,0,0,0,0,0,0,0,0,0,0,0,0,0,0,0,0,0,0,0,0,0,0,791,787,0,0,0,0,0,0,0,0,0,0,0,0,0,0,791,787,0,0,0,0,0,0,791,787,0,0,0,0,0,0,0,0,0,0,791,787,0,0,0,0,0,0,791,787,0,0,0,0,0,0,0,0,0,0,0,0,0,0,791,787,0,0,0,0,0,0,0,0,0,0,0,0,0,0,0,0,0,0,0,0,0,0,0,0,0,0,791,787,0,0,0,0,0,0,0,0,0,0,0,0,0,0,791,787,0,0,0,0,0,0,791,787,0,0,0,0,0,0,0,0,0,0,791,787,0,0,0,0,0,0,791,787,0,0,0,0,0,0,0,0,0,0,0,0,0,0,791,787,0,0,0,0,0,0,0,0,0,0,0,0,0,0,0,0,0,0,0,0,0,0,0,0,0,0,791,787,0,0,0,0,0,0,0,0,0,0,0,0,0,0,791,787,0,0,0,0,0,0,791,787,0,0,0,0,0,0,0,0,0,0,791,787,0,0,0,0,0,0,791,787,0,0,0,0,0,0,0,0,0,0,0,0,0,0,791,787,0,0,0,0,0,0,0,0,0,0,0,0,0,0,0,0,0,0,0,0,0,0,0,0,0,0,791,787,0,0,0,0,0,0,0,0,0,0,0,0,0,0,791,787,0,0,0,0,0,0,791,787,0,0,0,0,0,0,0,0,0,0,791,787,0,0,0,0,0,0,791,787,0,0,0,0,0,0,0,0,0,0,0,0,0,0,791,787,0,0,0,0,0,0,0,0,0,0,0,0,0,0,0,0,0,0,0,0,0,0,0,0,0,0,791,787,0,0,0,0,0,0,0,0,0,0,0,0,0,0,778,778,0,0,0,0,0,0,778,778,0,0,0,0,0,0,0,0,0,0,778,778,0,0,0,0,0,0,791,787,0,0,0,0,0,0,0,0,0,0,0,0,0,0,778,778,0,0,0,0,0,0,0,0,0,0,0,0,0,0,0,0,0,0,0,0,0,0,0,0,0,0,791,787,0,0,0,0,0,0,0,0,0,0,0,0,0,0,0,0,0,0,0,0,0,0,0,0,0,0,0,0,0,0,0,0,0,0,0,0,0,0,0,0,0,0,791,787,0,0,0,0,0,0,0,0,0,0,0,0,0,0,0,0,0,0,0,0,0,0,0,0,0,0,0,0,0,0,0,0,0,0,0,0,0,0,0,0,0,0,791,787,0,0,0,0,0,0,0,0,0,0,0,0,0,0,0,0,0,0,0,0,0,0,0,0,0,0,0,0,0,0,0,0,0,0,0,0,0,0,0,0,0,0,791,787,0,0,0,0,0,0,0,0,0,0,0,0,0,0,0,0,0,0,0,0,0,0,0,0,0,0,0,0,0,0,0,0,0,0,0,0,0,0,0,0,0,0,791,787,0,0,0,0,0,0,0,0,0,0,0,0,0,0,818,818,0,0,0,0,0,0,818,818,0,0,0,0,0,0,0,0,0,0,818,818,0,0,0,0,0,0,791,787,0,0,0,0,0,0,0,0,0,0,0,0,0,0,818,818,0,0,0,0,0,0,0,0,0,0,0,0,0,0,0,0,0,0,0,0,0,0,0,0,0,0,791,787,0,0,0,0,0,0,0,0,0,0,0,0,0,0,791,787,0,0,0,0,0,0,791,787,0,0,0,0,0,0,0,0,0,0,791,787,0,0,0,0,0,0,791,787,0,0,0,0,0,0,0,0,0,0,0,0,0,0,791,787,0,0,0,0,0,0,0,0,0,0,0,0,0,0,0,0,0,0,0,0,0,0,0,0,0,0,791,787,0,0,0,0,0,0,0,0,0,0,0,0,0,0,791,787,0,0,0,0,0,0,791,787,0,0,0,0,0,0,0,0,0,0,791,787,0,0,0,0,0,0,791,787,0,0,0,0,0,0,0,0,0,0,0,0,0,0,791,787,0,0,0,0,0,0,0,0,0,0,0,0,0,0,0,0,0,0,0,0,0,0,0,0,0,0,791,787,0,0,0,0,0,0,0,0,0,0,0,0,0,0,791,787,0,0,0,0,0,0,791,787,0,0,0,0,0,0,0,0,0,0,791,787,0,0,0,0,0,0,791,787,0,0,0,0,0,0,0,0,0,0,0,0,0,0,791,787,0,0,0,0,0,0,0,0,0,0,0,0,0,0,0,0,0,0,0,0,0,0,0,0,0,0,791,787,0,0,0,0,0,0,0,0,0,0,0,0,0,0,791,787,0,0,0,0,0,0,791,787,0,0,0,0,0,0,0,0,0,0,791,787,0,0,0,0,0,0,791,787,0,0,0,0,0,0,0,0,0,0,0,0,0,0,791,787,0,0,0,0,0,0,0,0,0,0,0,0,0,0,0,0,0,0,0,0,0,0,0,0,0,0,791,787,0,0,0,0,0,0,0,0,0,0,0,0,0,0,791,787,0,0,0,0,0,0,791,787,0,0,0,0,0,0,0,0,0,0,791,787,0,0,0,0,0,0,791,787,0,0,0,0,0,0,0,0,0,0,0,0,0,0,791,787,0,0,0,0,0,0,0,0,0,0,0,0,0,0,0,0,0,0,0,0,0,0,0,0,0,0,791,817,818,818,818,818,818,818,0,0,818,818,818,818,818,818,821,787,0,0,0,0,0,0,791,817,818,818,818,818,818,818,818,818,818,818,821,787,0,0,0,0,0,0,791,817,818,818,818,818,818,818,0,0,818,818,0,0,818,818,821,787,0,0,0,0,0,0,0,0,0,0,0,0,0,0,0,0,0,0,0,0,0,0,0,0,0,0,778,778,778,778,778,778,778,778,0,0,778,778,778,778,778,778,778,778,0,0,0,0,0,0,778,778,778,778,778,778,778,778,778,778,778,778,778,778,0,0,0,0,0,0,778,778,778,778,778,778,778,778,0,0,778,778,0,0,778,778,778,778,0,0,0,0,0,0,0,0,0,0,0,0,0,0,0,0,0,0,0,0,0,0,0,0,0,0,0,0,0,0,0,0,0,0,0,0,0,0,0,0,0,0,0,0,0,0,0,0,0,0,0,0,0,0,0,0,0,0,0,0,0,0,0,0,0,0,0,0,0,0,0,0,0,0,0,0,0,0,0,0,0,0,0,0,0,0,0,0,0,0,0,0,0,0,0,0,0,0,0,0,0,0,0,0,0,0,0,0,0,0,0,0,0,0,0,0,0,0,0,0,0,0,0,0,0,0,0,0,0,0,0,0,0,0,0,0,0,0,0,0,0,0,0,0,0,0,0,0,0,0,0,0,0,0,0,0,0,0,0,0,0,0,0,0,0,0,0,0,0,0,0,0,0,0,0,0,0,0,0,0,0,0,0,0,0,0,0,0,0,0,0,0,0,0,0,0,0,0,0,0,0,0,0,0,0,0,0,0,0,0,0,0,0,0,0,0,0,0,0,0,0,0,0,0,0,0,0,0,0,0,0,0,0,0,0,0,0,0,0,0,0,0,0,0,0,0,0,0,0,0,0,0,0,0,0,0,0,0,0,0,0,0,0,0,0,0,0,0,0,0,0,0,0,0,0,0,0,0,0,0,0,0,0,0,0,0,0,0,0,0,0,0,0,0,0,0,0,0,0,0,0,0,0,0,0,0,0,0,0,0,0,0,0,0,0,0,0,0,0,0,0,0,0,0,0,0,0,0,0,0,0,0,0,0,0,0,0,0,0,0,0,0,0,0,0,0,0,0,0,0,0,0,0,0,0,0,0,0,0,0,0,0,0,0,0,0,0,0,0,0,0,0,0,0,0,0,0,0,0,0,0,0,0,0,0,0,0,0,0,0,0,0,0,0,0,0,0,0,0,0,0,0,0,0,0,0,0,0,0,0,0,0,0,0,0,0,0,0,0,0,0,0,0,0,0,0,0,0,0,0,0,0,0,0,0,0,0,0,0,0,0,0,0,0,0,0,0,0,0,0,0,0,0,0,0,0,0,0,0,0,0,0,0,0,0,0,0,0,0,0,0,0,0,0,0,0,0,0,0,0,0,0,0,0,0,0,0,0,0,0,0,0,0,0,0,0,0,0,0,0,0,0,0,0,0,0,0,0,0,0,0,0,0,0,0,0,0,0,0,0,0,0,0,0,0,0,0,0,0,0,0,0,0,0,0,0,0,0,0,0,0,0,0,0,0,0,0,0,0,0,0,0,0,0,0,0,0,0,0,0,0,0,0,0,0,0,0,0,0,0,0,0,0,0,0,0,0,0,0,0,0,0,0,0,0,0,0,0,0,0,0,0,0,0,0,0,0,0,0,0,0,0,0,0,0,0,0,0,0,0,0,0,0,0,0,0,0,0,0,0,0,0,0,0,0,0,0,0,0,0,0,0,0,0,0,0,0,0,0,0,0,0,0,0,0,0,0,0,0,0,0,0,0,0,0,0,0,0,0,0,0,0,0,0,0,0,0,0,0,0,0,0,0,0,0,0,0,0,0,0,0,0,0,0,0,0,0,0,0,0,0,0,0,0,0,0,0,0,0,0,0,0,0,0,0,0,0,0,0,0,0,0,0,0,0,0,0,0,0,0,0,0,0,0,0,0,0,0,0,0,0,0,0,0,0,0,0,0,0,0,0,0,0,0,0,0,0,0,0,0,0,0,0,0,0,0,0,0,0,0,0,0,0,0,0,0,0,0,0,0,0,0,0,0,0,0,0,0,0,0,0,0,0,0,0,0,0,0,0,0,0,0,0,0,0,0,0,0,0,0,0,0,0,0,0,0,0,0,0,0,0,0,0,0,0,0,0,0,0,0,0,0,0,0,0,0,0,0,0,0,0,0,0,0,0,0,0,0,0,0,0,0,0,0,0,0,0,0,0,0,0,0,0,0,0,0,0,0,0,0,0,0,0,0,0,0,0,0,0,0,0,0,0,0,0,0,0,0,0,0,0,0,0,0,0,0,0,0,0,0,0,0,0,0,0,0,0,0,0,0,0,0,0,0,0,0,0,0,0,0,0,0,0,0,0,0,0,0,0,0,0,0,0,0,0,0,0,0,0,0,0,0,0,0,0,0,0,0,0,0,0,0,0,0,0,0,0,0,0,0,0,0,0,0,0,0,0,0,0,0,0,0,0,0,0,0,0,0,0,0,0,0,0,0,0,0,0,0,0,0,0,0,0,0,0,0,0,0,0,0,0,0,0,0,0,0,0,0,0,0,0,0,0,0,0,0,0,0,0,0,0,0,0,0,0,0,0,0,0,0,0,0,0,0,0,0,0,0,0,0,0,0,0,0,0,0,0,0,0,0,0,0,0,0,0,0,0,0,0,0,0,0,0,0,0,0,0,0,0,0,0,0,0,0,0,0,0,0,0,0,0,0,0,0,0,0,0,0,0,0,0,0,0,0,0,0,0,0,0,0,0,0,0,0,0,0,0,0,0,0,0,0,0,0,0,0,0,0,0,0,0,0,0,0,0,0,0,0,0,0,0,0,0,0,0,0,0,0,0,0,0,0,0,0,0,0,0,0,0,0,0,0,0,0,0,0,0,0,0,0,0,0,0,0,0,0,0]},{"id":5,"name":"objects","type":"objectgroup","draworder":"topdown","x":0,"y":0,"opacity":1,"visible":true,"objects":[{"id":1,"name":"building.gate#0","type":"prop","x":1056.0,"y":128,"width":0,"height":0,"rotation":0,"visible":true,"point":true,"properties":[{"name":"kind","type":"string","value":"building.gate"},{"name":"fw","type":"int","value":64},{"name":"fh","type":"int","value":32},{"name":"solid","type":"bool","value":false},{"name":"ref","type":"string","value":"north-gate"}]},{"id":2,"name":"building.gate#0","type":"prop","x":112.0,"y":576,"width":0,"height":0,"rotation":0,"visible":true,"point":true,"properties":[{"name":"kind","type":"string","value":"building.gate"},{"name":"fw","type":"int","value":32},{"name":"fh","type":"int","value":64},{"name":"solid","type":"bool","value":false},{"name":"ref","type":"string","value":"west-gate"}]},{"id":3,"name":"building.gate#0","type":"prop","x":1296.0,"y":576,"width":0,"height":0,"rotation":0,"visible":true,"point":true,"properties":[{"name":"kind","type":"string","value":"building.gate"},{"name":"fw","type":"int","value":32},{"name":"fh","type":"int","value":64},{"name":"solid","type":"bool","value":false},{"name":"ref","type":"string","value":"east-gate"}]},{"id":4,"name":"building.gate#0","type":"prop","x":1184.0,"y":496,"width":0,"height":0,"rotation":0,"visible":true,"point":true,"properties":[{"name":"kind","type":"string","value":"building.gatehouse"},{"name":"fw","type":"int","value":32},{"name":"fh","type":"int","value":16},{"name":"solid","type":"bool","value":false},{"name":"ref","type":"string","value":"lodging-gate"}]},{"id":5,"name":"building.gate#0","type":"prop","x":352.0,"y":880,"width":0,"height":0,"rotation":0,"visible":true,"point":true,"properties":[{"name":"kind","type":"string","value":"building.gatehouse"},{"name":"fw","type":"int","value":32},{"name":"fh","type":"int","value":16},{"name":"solid","type":"bool","value":false},{"name":"ref","type":"string","value":"chancellor-gate"}]},{"id":6,"name":"building.gate#0","type":"prop","x":480.0,"y":744.0,"width":0,"height":0,"rotation":0,"visible":true,"point":true,"properties":[{"name":"kind","type":"string","value":"building.gatehouse"},{"name":"fw","type":"int","value":32},{"name":"fh","type":"int","value":16},{"name":"solid","type":"bool","value":false},{"name":"ref","type":"string","value":"side-gate"}]},{"id":7,"name":"building.gate#0","type":"prop","x":608.0,"y":744.0,"width":0,"height":0,"rotation":0,"visible":true,"point":true,"properties":[{"name":"kind","type":"string","value":"building.gatehouse"},{"name":"fw","type":"int","value":32},{"name":"fh","type":"int","value":16},{"name":"solid","type":"bool","value":false},{"name":"ref","type":"string","value":"ward-w-gate"}]},{"id":8,"name":"building.gate#0","type":"prop","x":800.0,"y":744.0,"width":0,"height":0,"rotation":0,"visible":true,"point":true,"properties":[{"name":"kind","type":"string","value":"building.gatehouse"},{"name":"fw","type":"int","value":32},{"name":"fh","type":"int","value":16},{"name":"solid","type":"bool","value":false},{"name":"ref","type":"string","value":"ward-e-gate"}]},{"id":9,"name":"building.gate#0","type":"prop","x":1056.0,"y":624,"width":0,"height":0,"rotation":0,"visible":true,"point":true,"properties":[{"name":"kind","type":"string","value":"building.gatehouse"},{"name":"fw","type":"int","value":32},{"name":"fh","type":"int","value":16},{"name":"solid","type":"bool","value":false},{"name":"ref","type":"string","value":"market-n-gate"}]},{"id":10,"name":"building.gate#0","type":"prop","x":1120.0,"y":624,"width":0,"height":0,"rotation":0,"visible":true,"point":true,"properties":[{"name":"kind","type":"string","value":"building.gatehouse"},{"name":"fw","type":"int","value":32},{"name":"fh","type":"int","value":16},{"name":"solid","type":"bool","value":false},{"name":"ref","type":"string","value":"market-ne-gate"}]},{"id":11,"name":"building.gate#0","type":"prop","x":1056.0,"y":880,"width":0,"height":0,"rotation":0,"visible":true,"point":true,"properties":[{"name":"kind","type":"string","value":"building.gatehouse"},{"name":"fw","type":"int","value":32},{"name":"fh","type":"int","value":16},{"name":"solid","type":"bool","value":false},{"name":"ref","type":"string","value":"market-s-gate"}]},{"id":12,"name":"building.gate#0","type":"prop","x":1120.0,"y":880,"width":0,"height":0,"rotation":0,"visible":true,"point":true,"properties":[{"name":"kind","type":"string","value":"building.gatehouse"},{"name":"fw","type":"int","value":32},{"name":"fh","type":"int","value":16},{"name":"solid","type":"bool","value":false},{"name":"ref","type":"string","value":"market-se-gate"}]},{"id":13,"name":"building.gate#0","type":"prop","x":1184.0,"y":744.0,"width":0,"height":0,"rotation":0,"visible":true,"point":true,"properties":[{"name":"kind","type":"string","value":"building.gatehouse"},{"name":"fw","type":"int","value":32},{"name":"fh","type":"int","value":16},{"name":"solid","type":"bool","value":false},{"name":"ref","type":"string","value":"market-e-gate"}]},{"id":14,"name":"camp.table#1","type":"prop","x":288.0,"y":176,"width":0,"height":0,"rotation":0,"visible":true,"point":true,"properties":[{"name":"kind","type":"string","value":"camp.banquet"},{"name":"fw","type":"int","value":160},{"name":"fh","type":"int","value":32},{"name":"solid","type":"bool","value":true},{"name":"ref","type":"string","value":"banquet"}]},{"id":15,"name":"building.hall#0","type":"prop","x":224.0,"y":496,"width":0,"height":0,"rotation":0,"visible":true,"point":true,"properties":[{"name":"kind","type":"string","value":"building.hall_grand"},{"name":"fw","type":"int","value":64},{"name":"fh","type":"int","value":32},{"name":"solid","type":"bool","value":true},{"name":"ref","type":"string","value":"hejin"},{"name":"plaque","type":"string","value":"何府"}]},{"id":16,"name":"building.hall#0","type":"prop","x":384.0,"y":496,"width":0,"height":0,"rotation":0,"visible":true,"point":true,"properties":[{"name":"kind","type":"string","value":"building.hall"},{"name":"fw","type":"int","value":64},{"name":"fh","type":"int","value":32},{"name":"solid","type":"bool","value":true},{"name":"ref","type":"string","value":"wangyun"},{"name":"plaque","type":"string","value":"王府"}]},{"id":17,"name":"building.hall#0","type":"prop","x":704.0,"y":432,"width":0,"height":0,"rotation":0,"visible":true,"point":true,"properties":[{"name":"kind","type":"string","value":"building.palace"},{"name":"fw","type":"int","value":64},{"name":"fh","type":"int","value":32},{"name":"solid","type":"bool","value":true},{"name":"ref","type":"string","value":"palace"},{"name":"plaque","type":"string","value":"嘉德门"}]},{"id":18,"name":"building.hall#0","type":"prop","x":1144.0,"y":240,"width":0,"height":0,"rotation":0,"visible":true,"point":true,"properties":[{"name":"kind","type":"string","value":"building.tower"},{"name":"fw","type":"int","value":48},{"name":"fh","type":"int","value":32},{"name":"solid","type":"bool","value":true},{"name":"ref","type":"string","value":"yongan"}]},{"id":19,"name":"building.house#1","type":"prop","x":1152.0,"y":368,"width":0,"height":0,"rotation":0,"visible":true,"point":true,"properties":[{"name":"kind","type":"string","value":"building.house"},{"name":"fw","type":"int","value":64},{"name":"fh","type":"int","value":32},{"name":"solid","type":"bool","value":true},{"name":"ref","type":"string","value":"lodging"},{"name":"cl","type":"float","value":23.5},{"name":"cr","type":"float","value":23.5}]},{"id":20,"name":"building.hall#0","type":"prop","x":352.0,"y":752,"width":0,"height":0,"rotation":0,"visible":true,"point":true,"properties":[{"name":"kind","type":"string","value":"building.compound"},{"name":"fw","type":"int","value":64},{"name":"fh","type":"int","value":32},{"name":"solid","type":"bool","value":true},{"name":"ref","type":"string","value":"xiangfu"},{"name":"plaque","type":"string","value":"相府"}]},{"id":21,"name":"building.house#0","type":"prop","x":704.0,"y":688,"width":0,"height":0,"rotation":0,"visible":true,"point":true,"properties":[{"name":"kind","type":"string","value":"building.house"},{"name":"fw","type":"int","value":64},{"name":"fh","type":"int","value":32},{"name":"solid","type":"bool","value":true},{"name":"ref","type":"string","value":"house-1"},{"name":"cl","type":"float","value":23.0},{"name":"cr","type":"float","value":23.0}]},{"id":22,"name":"building.house#0","type":"prop","x":704.0,"y":816,"width":0,"height":0,"rotation":0,"visible":true,"point":true,"properties":[{"name":"kind","type":"string","value":"building.house"},{"name":"fw","type":"int","value":64},{"name":"fh","type":"int","value":32},{"name":"solid","type":"bool","value":true},{"name":"ref","type":"string","value":"house-2"},{"name":"cl","type":"float","value":23.0},{"name":"cr","type":"float","value":23.0}]},{"id":23,"name":"building.shop#0","type":"prop","x":1024.0,"y":688,"width":0,"height":0,"rotation":0,"visible":true,"point":true,"properties":[{"name":"kind","type":"string","value":"market.stalls"},{"name":"fw","type":"int","value":96},{"name":"fh","type":"int","value":32},{"name":"solid","type":"bool","value":true},{"name":"ref","type":"string","value":"stalls"}]},{"id":24,"name":"building.shop#0","type":"prop","x":1088.0,"y":816,"width":0,"height":0,"rotation":0,"visible":true,"point":true,"properties":[{"name":"kind","type":"string","value":"market.stalls"},{"name":"fw","type":"int","value":96},{"name":"fh","type":"int","value":32},{"name":"solid","type":"bool","value":true},{"name":"ref","type":"string","value":"stalls-2"}]},{"id":25,"name":"furniture.gotable#1","type":"prop","x":1112.0,"y":672,"width":0,"height":0,"rotation":0,"visible":true,"point":true,"properties":[{"name":"kind","type":"string","value":"furniture.gotable"},{"name":"fw","type":"int","value":16},{"name":"fh","type":"int","value":16},{"name":"solid","type":"bool","value":true},{"name":"ref","type":"string","value":"gotable"}]},{"id":26,"name":"wall.stairs#0","type":"prop","x":736.0,"y":976,"width":0,"height":0,"rotation":0,"visible":true,"point":true,"properties":[{"name":"kind","type":"string","value":"wall.stairs"},{"name":"fw","type":"int","value":64},{"name":"fh","type":"int","value":16},{"name":"solid","type":"bool","value":true},{"name":"ref","type":"string","value":"stairs-w"}]},{"id":27,"name":"wall.stairs#0","type":"prop","x":992.0,"y":976,"width":0,"height":0,"rotation":0,"visible":true,"point":true,"properties":[{"name":"kind","type":"string","value":"wall.stairs"},{"name":"fw","type":"int","value":64},{"name":"fh","type":"int","value":16},{"name":"solid","type":"bool","value":true},{"name":"ref","type":"string","value":"stairs-e"}]},{"id":28,"name":"tree.willow#0","type":"prop","x":184.0,"y":192,"width":0,"height":0,"rotation":0,"visible":true,"point":true,"properties":[{"name":"kind","type":"string","value":"tree.willow"},{"name":"fw","type":"int","value":16},{"name":"fh","type":"int","value":16},{"name":"solid","type":"bool","value":true}]},{"id":29,"name":"tree.willow#0","type":"prop","x":248.0,"y":192,"width":0,"height":0,"rotation":0,"visible":true,"point":true,"properties":[{"name":"kind","type":"string","value":"tree.willow"},{"name":"fw","type":"int","value":16},{"name":"fh","type":"int","value":16},{"name":"solid","type":"bool","value":true}]},{"id":30,"name":"tree.willow#0","type":"prop","x":216.0,"y":224,"width":0,"height":0,"rotation":0,"visible":true,"point":true,"properties":[{"name":"kind","type":"string","value":"tree.willow"},{"name":"fw","type":"int","value":16},{"name":"fh","type":"int","value":16},{"name":"solid","type":"bool","value":true}]},{"id":31,"name":"tree.willow#0","type":"prop","x":264.0,"y":144,"width":0,"height":0,"rotation":0,"visible":true,"point":true,"properties":[{"name":"kind","type":"string","value":"tree.willow"},{"name":"fw","type":"int","value":16},{"name":"fh","type":"int","value":16},{"name":"solid","type":"bool","value":true}]},{"id":32,"name":"plant.flower#0","type":"prop","x":424.0,"y":304,"width":0,"height":0,"rotation":0,"visible":true,"point":true,"properties":[{"name":"kind","type":"string","value":"plant.flower"},{"name":"fw","type":"int","value":16},{"name":"fh","type":"int","value":16},{"name":"solid","type":"bool","value":false}]},{"id":33,"name":"plant.flower#0","type":"prop","x":392.0,"y":192,"width":0,"height":0,"rotation":0,"visible":true,"point":true,"properties":[{"name":"kind","type":"string","value":"plant.flower"},{"name":"fw","type":"int","value":16},{"name":"fh","type":"int","value":16},{"name":"solid","type":"bool","value":false}]},{"id":34,"name":"plant.flower#0","type":"prop","x":408.0,"y":240,"width":0,"height":0,"rotation":0,"visible":true,"point":true,"properties":[{"name":"kind","type":"string","value":"plant.flower"},{"name":"fw","type":"int","value":16},{"name":"fh","type":"int","value":16},{"name":"solid","type":"bool","value":false}]},{"id":35,"name":"plant.flower#0","type":"prop","x":248.0,"y":256,"width":0,"height":0,"rotation":0,"visible":true,"point":true,"properties":[{"name":"kind","type":"string","value":"plant.flower"},{"name":"fw","type":"int","value":16},{"name":"fh","type":"int","value":16},{"name":"solid","type":"bool","value":false}]},{"id":36,"name":"plant.flower#0","type":"prop","x":136.0,"y":288,"width":0,"height":0,"rotation":0,"visible":true,"point":true,"properties":[{"name":"kind","type":"string","value":"plant.flower"},{"name":"fw","type":"int","value":16},{"name":"fh","type":"int","value":16},{"name":"solid","type":"bool","value":false}]},{"id":37,"name":"plant.flower#0","type":"prop","x":200.0,"y":240,"width":0,"height":0,"rotation":0,"visible":true,"point":true,"properties":[{"name":"kind","type":"string","value":"plant.flower"},{"name":"fw","type":"int","value":16},{"name":"fh","type":"int","value":16},{"name":"solid","type":"bool","value":false}]},{"id":38,"name":"plant.flower#0","type":"prop","x":440.0,"y":240,"width":0,"height":0,"rotation":0,"visible":true,"point":true,"properties":[{"name":"kind","type":"string","value":"plant.flower"},{"name":"fw","type":"int","value":16},{"name":"fh","type":"int","value":16},{"name":"solid","type":"bool","value":false}]},{"id":39,"name":"plant.flower#0","type":"prop","x":360.0,"y":208,"width":0,"height":0,"rotation":0,"visible":true,"point":true,"properties":[{"name":"kind","type":"string","value":"plant.flower"},{"name":"fw","type":"int","value":16},{"name":"fh","type":"int","value":16},{"name":"solid","type":"bool","value":false}]},{"id":40,"name":"banner.red#0","type":"prop","x":1016.0,"y":144,"width":0,"height":0,"rotation":0,"visible":true,"point":true,"properties":[{"name":"kind","type":"string","value":"banner.red"},{"name":"fw","type":"int","value":16},{"name":"fh","type":"int","value":16},{"name":"solid","type":"bool","value":true}]},{"id":41,"name":"banner.red#0","type":"prop","x":88.0,"y":592,"width":0,"height":0,"rotation":0,"visible":true,"point":true,"properties":[{"name":"kind","type":"string","value":"banner.red"},{"name":"fw","type":"int","value":16},{"name":"fh","type":"int","value":16},{"name":"solid","type":"bool","value":true}]},{"id":42,"name":"banner.red#0","type":"prop","x":1272.0,"y":592,"width":0,"height":0,"rotation":0,"visible":true,"point":true,"properties":[{"name":"kind","type":"string","value":"banner.red"},{"name":"fw","type":"int","value":16},{"name":"fh","type":"int","value":16},{"name":"solid","type":"bool","value":true}]},{"id":43,"name":"banner.red#0","type":"prop","x":1160.0,"y":512,"width":0,"height":0,"rotation":0,"visible":true,"point":true,"properties":[{"name":"kind","type":"string","value":"banner.red"},{"name":"fw","type":"int","value":16},{"name":"fh","type":"int","value":16},{"name":"solid","type":"bool","value":true}]},{"id":44,"name":"banner.red#0","type":"prop","x":328.0,"y":896,"width":0,"height":0,"rotation":0,"visible":true,"point":true,"properties":[{"name":"kind","type":"string","value":"banner.red"},{"name":"fw","type":"int","value":16},{"name":"fh","type":"int","value":16},{"name":"solid","type":"bool","value":true}]},{"id":45,"name":"banner.red#0","type":"prop","x":456.0,"y":768,"width":0,"height":0,"rotation":0,"visible":true,"point":true,"properties":[{"name":"kind","type":"string","value":"banner.red"},{"name":"fw","type":"int","value":16},{"name":"fh","type":"int","value":16},{"name":"solid","type":"bool","value":true}]},{"id":46,"name":"banner.red#0","type":"prop","x":584.0,"y":768,"width":0,"height":0,"rotation":0,"visible":true,"point":true,"properties":[{"name":"kind","type":"string","value":"banner.red"},{"name":"fw","type":"int","value":16},{"name":"fh","type":"int","value":16},{"name":"solid","type":"bool","value":true}]},{"id":47,"name":"banner.red#0","type":"prop","x":776.0,"y":768,"width":0,"height":0,"rotation":0,"visible":true,"point":true,"properties":[{"name":"kind","type":"string","value":"banner.red"},{"name":"fw","type":"int","value":16},{"name":"fh","type":"int","value":16},{"name":"solid","type":"bool","value":true}]},{"id":48,"name":"banner.red#0","type":"prop","x":1032.0,"y":640,"width":0,"height":0,"rotation":0,"visible":true,"point":true,"properties":[{"name":"kind","type":"string","value":"banner.red"},{"name":"fw","type":"int","value":16},{"name":"fh","type":"int","value":16},{"name":"solid","type":"bool","value":true}]},{"id":49,"name":"banner.red#0","type":"prop","x":1096.0,"y":640,"width":0,"height":0,"rotation":0,"visible":true,"point":true,"properties":[{"name":"kind","type":"string","value":"banner.red"},{"name":"fw","type":"int","value":16},{"name":"fh","type":"int","value":16},{"name":"solid","type":"bool","value":true}]},{"id":50,"name":"banner.red#0","type":"prop","x":1032.0,"y":896,"width":0,"height":0,"rotation":0,"visible":true,"point":true,"properties":[{"name":"kind","type":"string","value":"banner.red"},{"name":"fw","type":"int","value":16},{"name":"fh","type":"int","value":16},{"name":"solid","type":"bool","value":true}]},{"id":51,"name":"banner.red#0","type":"prop","x":1096.0,"y":896,"width":0,"height":0,"rotation":0,"visible":true,"point":true,"properties":[{"name":"kind","type":"string","value":"banner.red"},{"name":"fw","type":"int","value":16},{"name":"fh","type":"int","value":16},{"name":"solid","type":"bool","value":true}]},{"id":52,"name":"banner.red#0","type":"prop","x":1160.0,"y":768,"width":0,"height":0,"rotation":0,"visible":true,"point":true,"properties":[{"name":"kind","type":"string","value":"banner.red"},{"name":"fw","type":"int","value":16},{"name":"fh","type":"int","value":16},{"name":"solid","type":"bool","value":true}]},{"id":53,"name":"banner.red#0","type":"prop","x":680.0,"y":448,"width":0,"height":0,"rotation":0,"visible":true,"point":true,"properties":[{"name":"kind","type":"string","value":"banner.red"},{"name":"fw","type":"int","value":16},{"name":"fh","type":"int","value":16},{"name":"solid","type":"bool","value":true}]},{"id":54,"name":"banner.red#0","type":"prop","x":744.0,"y":448,"width":0,"height":0,"rotation":0,"visible":true,"point":true,"properties":[{"name":"kind","type":"string","value":"banner.red"},{"name":"fw","type":"int","value":16},{"name":"fh","type":"int","value":16},{"name":"solid","type":"bool","value":true}]},{"id":55,"name":"banner.black#0","type":"prop","x":328.0,"y":768,"width":0,"height":0,"rotation":0,"visible":true,"point":true,"properties":[{"name":"kind","type":"string","value":"banner.black"},{"name":"fw","type":"int","value":16},{"name":"fh","type":"int","value":16},{"name":"solid","type":"bool","value":true}]},{"id":56,"name":"banner.black#0","type":"prop","x":392.0,"y":768,"width":0,"height":0,"rotation":0,"visible":true,"point":true,"properties":[{"name":"kind","type":"string","value":"banner.black"},{"name":"fw","type":"int","value":16},{"name":"fh","type":"int","value":16},{"name":"solid","type":"bool","value":true}]},{"id":57,"name":"landmark.notice#0","type":"prop","x":1320.0,"y":464,"width":0,"height":0,"rotation":0,"visible":true,"point":true,"properties":[{"name":"kind","type":"string","value":"landmark.notice"},{"name":"fw","type":"int","value":16},{"name":"fh","type":"int","value":16},{"name":"solid","type":"bool","value":true},{"name":"in","type":"string","value":"[\"dong\"]"}]},{"id":58,"name":"","type":"prop","x":928.0,"y":144,"width":0,"height":0,"rotation":0,"visible":true,"point":true,"properties":[{"name":"kind","type":"string","value":"wall"},{"name":"fw","type":"int","value":64},{"name":"fh","type":"int","value":16},{"name":"solid","type":"bool","value":true}]},{"id":59,"name":"","type":"prop","x":928.0,"y":160,"width":0,"height":0,"rotation":0,"visible":true,"point":true,"properties":[{"name":"kind","type":"string","value":"wall"},{"name":"fw","type":"int","value":64},{"name":"fh","type":"int","value":16},{"name":"solid","type":"bool","value":true}]},{"id":60,"name":"","type":"prop","x":928.0,"y":176,"width":0,"height":0,"rotation":0,"visible":true,"point":true,"properties":[{"name":"kind","type":"string","value":"wall"},{"name":"fw","type":"int","value":64},{"name":"fh","type":"int","value":16},{"name":"solid","type":"bool","value":true}]},{"id":61,"name":"","type":"prop","x":928.0,"y":192,"width":0,"height":0,"rotation":0,"visible":true,"point":true,"properties":[{"name":"kind","type":"string","value":"wall"},{"name":"fw","type":"int","value":64},{"name":"fh","type":"int","value":16},{"name":"solid","type":"bool","value":true}]},{"id":62,"name":"","type":"prop","x":928.0,"y":208,"width":0,"height":0,"rotation":0,"visible":true,"point":true,"properties":[{"name":"kind","type":"string","value":"wall"},{"name":"fw","type":"int","value":64},{"name":"fh","type":"int","value":16},{"name":"solid","type":"bool","value":true}]},{"id":63,"name":"","type":"prop","x":928.0,"y":224,"width":0,"height":0,"rotation":0,"visible":true,"point":true,"properties":[{"name":"kind","type":"string","value":"wall"},{"name":"fw","type":"int","value":64},{"name":"fh","type":"int","value":16},{"name":"solid","type":"bool","value":true}]},{"id":64,"name":"","type":"prop","x":928.0,"y":240,"width":0,"height":0,"rotation":0,"visible":true,"point":true,"properties":[{"name":"kind","type":"string","value":"wall"},{"name":"fw","type":"int","value":64},{"name":"fh","type":"int","value":16},{"name":"solid","type":"bool","value":true}]},{"id":65,"name":"","type":"prop","x":928.0,"y":256,"width":0,"height":0,"rotation":0,"visible":true,"point":true,"properties":[{"name":"kind","type":"string","value":"wall"},{"name":"fw","type":"int","value":64},{"name":"fh","type":"int","value":16},{"name":"solid","type":"bool","value":true}]},{"id":66,"name":"","type":"prop","x":928.0,"y":272,"width":0,"height":0,"rotation":0,"visible":true,"point":true,"properties":[{"name":"kind","type":"string","value":"wall"},{"name":"fw","type":"int","value":64},{"name":"fh","type":"int","value":16},{"name":"solid","type":"bool","value":true}]},{"id":67,"name":"","type":"prop","x":928.0,"y":288,"width":0,"height":0,"rotation":0,"visible":true,"point":true,"properties":[{"name":"kind","type":"string","value":"wall"},{"name":"fw","type":"int","value":64},{"name":"fh","type":"int","value":16},{"name":"solid","type":"bool","value":true}]},{"id":68,"name":"","type":"prop","x":928.0,"y":304,"width":0,"height":0,"rotation":0,"visible":true,"point":true,"properties":[{"name":"kind","type":"string","value":"wall"},{"name":"fw","type":"int","value":64},{"name":"fh","type":"int","value":16},{"name":"solid","type":"bool","value":true}]},{"id":69,"name":"","type":"prop","x":928.0,"y":320,"width":0,"height":0,"rotation":0,"visible":true,"point":true,"properties":[{"name":"kind","type":"string","value":"wall"},{"name":"fw","type":"int","value":64},{"name":"fh","type":"int","value":16},{"name":"solid","type":"bool","value":true}]},{"id":70,"name":"","type":"prop","x":928.0,"y":336,"width":0,"height":0,"rotation":0,"visible":true,"point":true,"properties":[{"name":"kind","type":"string","value":"wall"},{"name":"fw","type":"int","value":64},{"name":"fh","type":"int","value":16},{"name":"solid","type":"bool","value":true}]},{"id":71,"name":"","type":"prop","x":928.0,"y":352,"width":0,"height":0,"rotation":0,"visible":true,"point":true,"properties":[{"name":"kind","type":"string","value":"wall"},{"name":"fw","type":"int","value":64},{"name":"fh","type":"int","value":16},{"name":"solid","type":"bool","value":true}]},{"id":72,"name":"","type":"prop","x":928.0,"y":368,"width":0,"height":0,"rotation":0,"visible":true,"point":true,"properties":[{"name":"kind","type":"string","value":"wall"},{"name":"fw","type":"int","value":64},{"name":"fh","type":"int","value":16},{"name":"solid","type":"bool","value":true}]},{"id":73,"name":"","type":"prop","x":928.0,"y":384,"width":0,"height":0,"rotation":0,"visible":true,"point":true,"properties":[{"name":"kind","type":"string","value":"wall"},{"name":"fw","type":"int","value":64},{"name":"fh","type":"int","value":16},{"name":"solid","type":"bool","value":true}]},{"id":74,"name":"","type":"prop","x":928.0,"y":400,"width":0,"height":0,"rotation":0,"visible":true,"point":true,"properties":[{"name":"kind","type":"string","value":"wall"},{"name":"fw","type":"int","value":64},{"name":"fh","type":"int","value":16},{"name":"solid","type":"bool","value":true}]},{"id":75,"name":"","type":"prop","x":928.0,"y":416,"width":0,"height":0,"rotation":0,"visible":true,"point":true,"properties":[{"name":"kind","type":"string","value":"wall"},{"name":"fw","type":"int","value":64},{"name":"fh","type":"int","value":16},{"name":"solid","type":"bool","value":true}]},{"id":76,"name":"","type":"prop","x":928.0,"y":432,"width":0,"height":0,"rotation":0,"visible":true,"point":true,"properties":[{"name":"kind","type":"string","value":"wall"},{"name":"fw","type":"int","value":64},{"name":"fh","type":"int","value":16},{"name":"solid","type":"bool","value":true}]},{"id":77,"name":"","type":"prop","x":928.0,"y":448,"width":0,"height":0,"rotation":0,"visible":true,"point":true,"properties":[{"name":"kind","type":"string","value":"wall"},{"name":"fw","type":"int","value":64},{"name":"fh","type":"int","value":16},{"name":"solid","type":"bool","value":true}]},{"id":78,"name":"","type":"prop","x":928.0,"y":464,"width":0,"height":0,"rotation":0,"visible":true,"point":true,"properties":[{"name":"kind","type":"string","value":"wall"},{"name":"fw","type":"int","value":32},{"name":"fh","type":"int","value":16},{"name":"solid","type":"bool","value":true}]},{"id":79,"name":"","type":"prop","x":968.0,"y":480,"width":0,"height":0,"rotation":0,"visible":true,"point":true,"properties":[{"name":"kind","type":"string","value":"wall"},{"name":"fw","type":"int","value":112},{"name":"fh","type":"int","value":16},{"name":"solid","type":"bool","value":true}]},{"id":80,"name":"","type":"prop","x":1128.0,"y":480,"width":0,"height":0,"rotation":0,"visible":true,"point":true,"properties":[{"name":"kind","type":"string","value":"wall"},{"name":"fw","type":"int","value":80},{"name":"fh","type":"int","value":16},{"name":"solid","type":"bool","value":true}]},{"id":81,"name":"","type":"prop","x":1264.0,"y":480,"width":0,"height":0,"rotation":0,"visible":true,"point":true,"properties":[{"name":"kind","type":"string","value":"wall"},{"name":"fw","type":"int","value":128},{"name":"fh","type":"int","value":16},{"name":"solid","type":"bool","value":true}]},{"id":82,"name":"","type":"prop","x":968.0,"y":496,"width":0,"height":0,"rotation":0,"visible":true,"point":true,"properties":[{"name":"kind","type":"string","value":"wall"},{"name":"fw","type":"int","value":112},{"name":"fh","type":"int","value":16},{"name":"solid","type":"bool","value":true}]},{"id":83,"name":"","type":"prop","x":1128.0,"y":496,"width":0,"height":0,"rotation":0,"visible":true,"point":true,"properties":[{"name":"kind","type":"string","value":"wall"},{"name":"fw","type":"int","value":80},{"name":"fh","type":"int","value":16},{"name":"solid","type":"bool","value":true}]},{"id":84,"name":"","type":"prop","x":1264.0,"y":496,"width":0,"height":0,"rotation":0,"visible":true,"point":true,"properties":[{"name":"kind","type":"string","value":"wall"},{"name":"fw","type":"int","value":128},{"name":"fh","type":"int","value":16},{"name":"solid","type":"bool","value":true}]},{"id":85,"name":"","type":"prop","x":352.0,"y":608,"width":0,"height":0,"rotation":0,"visible":true,"point":true,"properties":[{"name":"kind","type":"string","value":"wall"},{"name":"fw","type":"int","value":288},{"name":"fh","type":"int","value":16},{"name":"solid","type":"bool","value":true}]},{"id":86,"name":"","type":"prop","x":704.0,"y":608,"width":0,"height":0,"rotation":0,"visible":true,"point":true,"properties":[{"name":"kind","type":"string","value":"wall"},{"name":"fw","type":"int","value":224},{"name":"fh","type":"int","value":16},{"name":"solid","type":"bool","value":true}]},{"id":87,"name":"","type":"prop","x":976.0,"y":608,"width":0,"height":0,"rotation":0,"visible":true,"point":true,"properties":[{"name":"kind","type":"string","value":"wall"},{"name":"fw","type":"int","value":128},{"name":"fh","type":"int","value":16},{"name":"solid","type":"bool","value":true}]},{"id":88,"name":"","type":"prop","x":1088.0,"y":608,"width":0,"height":0,"rotation":0,"visible":true,"point":true,"properties":[{"name":"kind","type":"string","value":"wall"},{"name":"fw","type":"int","value":32},{"name":"fh","type":"int","value":16},{"name":"solid","type":"bool","value":true}]},{"id":89,"name":"","type":"prop","x":1168.0,"y":608,"width":0,"height":0,"rotation":0,"visible":true,"point":true,"properties":[{"name":"kind","type":"string","value":"wall"},{"name":"fw","type":"int","value":64},{"name":"fh","type":"int","value":16},{"name":"solid","type":"bool","value":true}]},{"id":90,"name":"","type":"prop","x":352.0,"y":624,"width":0,"height":0,"rotation":0,"visible":true,"point":true,"properties":[{"name":"kind","type":"string","value":"wall"},{"name":"fw","type":"int","value":288},{"name":"fh","type":"int","value":16},{"name":"solid","type":"bool","value":true}]},{"id":91,"name":"","type":"prop","x":704.0,"y":624,"width":0,"height":0,"rotation":0,"visible":true,"point":true,"properties":[{"name":"kind","type":"string","value":"wall"},{"name":"fw","type":"int","value":224},{"name":"fh","type":"int","value":16},{"name":"solid","type":"bool","value":true}]},{"id":92,"name":"","type":"prop","x":976.0,"y":624,"width":0,"height":0,"rotation":0,"visible":true,"point":true,"properties":[{"name":"kind","type":"string","value":"wall"},{"name":"fw","type":"int","value":128},{"name":"fh","type":"int","value":16},{"name":"solid","type":"bool","value":true}]},{"id":93,"name":"","type":"prop","x":1088.0,"y":624,"width":0,"height":0,"rotation":0,"visible":true,"point":true,"properties":[{"name":"kind","type":"string","value":"wall"},{"name":"fw","type":"int","value":32},{"name":"fh","type":"int","value":16},{"name":"solid","type":"bool","value":true}]},{"id":94,"name":"","type":"prop","x":1168.0,"y":624,"width":0,"height":0,"rotation":0,"visible":true,"point":true,"properties":[{"name":"kind","type":"string","value":"wall"},{"name":"fw","type":"int","value":64},{"name":"fh","type":"int","value":16},{"name":"solid","type":"bool","value":true}]},{"id":95,"name":"","type":"prop","x":224.0,"y":640,"width":0,"height":0,"rotation":0,"visible":true,"point":true,"properties":[{"name":"kind","type":"string","value":"wall"},{"name":"fw","type":"int","value":32},{"name":"fh","type":"int","value":16},{"name":"solid","type":"bool","value":true}]},{"id":96,"name":"","type":"prop","x":480.0,"y":640,"width":0,"height":0,"rotation":0,"visible":true,"point":true,"properties":[{"name":"kind","type":"string","value":"wall"},{"name":"fw","type":"int","value":32},{"name":"fh","type":"int","value":16},{"name":"solid","type":"bool","value":true}]},{"id":97,"name":"","type":"prop","x":608.0,"y":640,"width":0,"height":0,"rotation":0,"visible":true,"point":true,"properties":[{"name":"kind","type":"string","value":"wall"},{"name":"fw","type":"int","value":32},{"name":"fh","type":"int","value":16},{"name":"solid","type":"bool","value":true}]},{"id":98,"name":"","type":"prop","x":800.0,"y":640,"width":0,"height":0,"rotation":0,"visible":true,"point":true,"properties":[{"name":"kind","type":"string","value":"wall"},{"name":"fw","type":"int","value":32},{"name":"fh","type":"int","value":16},{"name":"solid","type":"bool","value":true}]},{"id":99,"name":"","type":"prop","x":928.0,"y":640,"width":0,"height":0,"rotation":0,"visible":true,"point":true,"properties":[{"name":"kind","type":"string","value":"wall"},{"name":"fw","type":"int","value":32},{"name":"fh","type":"int","value":16},{"name":"solid","type":"bool","value":true}]},{"id":100,"name":"","type":"prop","x":1184.0,"y":640,"width":0,"height":0,"rotation":0,"visible":true,"point":true,"properties":[{"name":"kind","type":"string","value":"wall"},{"name":"fw","type":"int","value":32},{"name":"fh","type":"int","value":16},{"name":"solid","type":"bool","value":true}]},{"id":101,"name":"","type":"prop","x":224.0,"y":656,"width":0,"height":0,"rotation":0,"visible":true,"point":true,"properties":[{"name":"kind","type":"string","value":"wall"},{"name":"fw","type":"int","value":32},{"name":"fh","type":"int","value":16},{"name":"solid","type":"bool","value":true}]},{"id":102,"name":"","type":"prop","x":480.0,"y":656,"width":0,"height":0,"rotation":0,"visible":true,"point":true,"properties":[{"name":"kind","type":"string","value":"wall"},{"name":"fw","type":"int","value":32},{"name":"fh","type":"int","value":16},{"name":"solid","type":"bool","value":true}]},{"id":103,"name":"","type":"prop","x":608.0,"y":656,"width":0,"height":0,"rotation":0,"visible":true,"point":true,"properties":[{"name":"kind","type":"string","value":"wall"},{"name":"fw","type":"int","value":32},{"name":"fh","type":"int","value":16},{"name":"solid","type":"bool","value":true}]},{"id":104,"name":"","type":"prop","x":800.0,"y":656,"width":0,"height":0,"rotation":0,"visible":true,"point":true,"properties":[{"name":"kind","type":"string","value":"wall"},{"name":"fw","type":"int","value":32},{"name":"fh","type":"int","value":16},{"name":"solid","type":"bool","value":true}]},{"id":105,"name":"","type":"prop","x":928.0,"y":656,"width":0,"height":0,"rotation":0,"visible":true,"point":true,"properties":[{"name":"kind","type":"string","value":"wall"},{"name":"fw","type":"int","value":32},{"name":"fh","type":"int","value":16},{"name":"solid","type":"bool","value":true}]},{"id":106,"name":"","type":"prop","x":1184.0,"y":656,"width":0,"height":0,"rotation":0,"visible":true,"point":true,"properties":[{"name":"kind","type":"string","value":"wall"},{"name":"fw","type":"int","value":32},{"name":"fh","type":"int","value":16},{"name":"solid","type":"bool","value":true}]},{"id":107,"name":"","type":"prop","x":224.0,"y":672,"width":0,"height":0,"rotation":0,"visible":true,"point":true,"properties":[{"name":"kind","type":"string","value":"wall"},{"name":"fw","type":"int","value":32},{"name":"fh","type":"int","value":16},{"name":"solid","type":"bool","value":true}]},{"id":108,"name":"","type":"prop","x":480.0,"y":672,"width":0,"height":0,"rotation":0,"visible":true,"point":true,"properties":[{"name":"kind","type":"string","value":"wall"},{"name":"fw","type":"int","value":32},{"name":"fh","type":"int","value":16},{"name":"solid","type":"bool","value":true}]},{"id":109,"name":"","type":"prop","x":608.0,"y":672,"width":0,"height":0,"rotation":0,"visible":true,"point":true,"properties":[{"name":"kind","type":"string","value":"wall"},{"name":"fw","type":"int","value":32},{"name":"fh","type":"int","value":16},{"name":"solid","type":"bool","value":true}]},{"id":110,"name":"","type":"prop","x":800.0,"y":672,"width":0,"height":0,"rotation":0,"visible":true,"point":true,"properties":[{"name":"kind","type":"string","value":"wall"},{"name":"fw","type":"int","value":32},{"name":"fh","type":"int","value":16},{"name":"solid","type":"bool","value":true}]},{"id":111,"name":"","type":"prop","x":928.0,"y":672,"width":0,"height":0,"rotation":0,"visible":true,"point":true,"properties":[{"name":"kind","type":"string","value":"wall"},{"name":"fw","type":"int","value":32},{"name":"fh","type":"int","value":16},{"name":"solid","type":"bool","value":true}]},{"id":112,"name":"","type":"prop","x":1184.0,"y":672,"width":0,"height":0,"rotation":0,"visible":true,"point":true,"properties":[{"name":"kind","type":"string","value":"wall"},{"name":"fw","type":"int","value":32},{"name":"fh","type":"int","value":16},{"name":"solid","type":"bool","value":true}]},{"id":113,"name":"","type":"prop","x":224.0,"y":688,"width":0,"height":0,"rotation":0,"visible":true,"point":true,"properties":[{"name":"kind","type":"string","value":"wall"},{"name":"fw","type":"int","value":32},{"name":"fh","type":"int","value":16},{"name":"solid","type":"bool","value":true}]},{"id":114,"name":"","type":"prop","x":480.0,"y":688,"width":0,"height":0,"rotation":0,"visible":true,"point":true,"properties":[{"name":"kind","type":"string","value":"wall"},{"name":"fw","type":"int","value":32},{"name":"fh","type":"int","value":16},{"name":"solid","type":"bool","value":true}]},{"id":115,"name":"","type":"prop","x":608.0,"y":688,"width":0,"height":0,"rotation":0,"visible":true,"point":true,"properties":[{"name":"kind","type":"string","value":"wall"},{"name":"fw","type":"int","value":32},{"name":"fh","type":"int","value":16},{"name":"solid","type":"bool","value":true}]},{"id":116,"name":"","type":"prop","x":800.0,"y":688,"width":0,"height":0,"rotation":0,"visible":true,"point":true,"properties":[{"name":"kind","type":"string","value":"wall"},{"name":"fw","type":"int","value":32},{"name":"fh","type":"int","value":16},{"name":"solid","type":"bool","value":true}]},{"id":117,"name":"","type":"prop","x":928.0,"y":688,"width":0,"height":0,"rotation":0,"visible":true,"point":true,"properties":[{"name":"kind","type":"string","value":"wall"},{"name":"fw","type":"int","value":32},{"name":"fh","type":"int","value":16},{"name":"solid","type":"bool","value":true}]},{"id":118,"name":"","type":"prop","x":1184.0,"y":688,"width":0,"height":0,"rotation":0,"visible":true,"point":true,"properties":[{"name":"kind","type":"string","value":"wall"},{"name":"fw","type":"int","value":32},{"name":"fh","type":"int","value":16},{"name":"solid","type":"bool","value":true}]},{"id":119,"name":"","type":"prop","x":224.0,"y":704,"width":0,"height":0,"rotation":0,"visible":true,"point":true,"properties":[{"name":"kind","type":"string","value":"wall"},{"name":"fw","type":"int","value":32},{"name":"fh","type":"int","value":16},{"name":"solid","type":"bool","value":true}]},{"id":120,"name":"","type":"prop","x":480.0,"y":704,"width":0,"height":0,"rotation":0,"visible":true,"point":true,"properties":[{"name":"kind","type":"string","value":"wall"},{"name":"fw","type":"int","value":32},{"name":"fh","type":"int","value":16},{"name":"solid","type":"bool","value":true}]},{"id":121,"name":"","type":"prop","x":608.0,"y":704,"width":0,"height":0,"rotation":0,"visible":true,"point":true,"properties":[{"name":"kind","type":"string","value":"wall"},{"name":"fw","type":"int","value":32},{"name":"fh","type":"int","value":16},{"name":"solid","type":"bool","value":true}]},{"id":122,"name":"","type":"prop","x":800.0,"y":704,"width":0,"height":0,"rotation":0,"visible":true,"point":true,"properties":[{"name":"kind","type":"string","value":"wall"},{"name":"fw","type":"int","value":32},{"name":"fh","type":"int","value":16},{"name":"solid","type":"bool","value":true}]},{"id":123,"name":"","type":"prop","x":928.0,"y":704,"width":0,"height":0,"rotation":0,"visible":true,"point":true,"properties":[{"name":"kind","type":"string","value":"wall"},{"name":"fw","type":"int","value":32},{"name":"fh","type":"int","value":16},{"name":"solid","type":"bool","value":true}]},{"id":124,"name":"","type":"prop","x":1184.0,"y":704,"width":0,"height":0,"rotation":0,"visible":true,"point":true,"properties":[{"name":"kind","type":"string","value":"wall"},{"name":"fw","type":"int","value":32},{"name":"fh","type":"int","value":16},{"name":"solid","type":"bool","value":true}]},{"id":125,"name":"","type":"prop","x":224.0,"y":720,"width":0,"height":0,"rotation":0,"visible":true,"point":true,"properties":[{"name":"kind","type":"string","value":"wall"},{"name":"fw","type":"int","value":32},{"name":"fh","type":"int","value":16},{"name":"solid","type":"bool","value":true}]},{"id":126,"name":"","type":"prop","x":480.0,"y":720,"width":0,"height":0,"rotation":0,"visible":true,"point":true,"properties":[{"name":"kind","type":"string","value":"wall"},{"name":"fw","type":"int","value":32},{"name":"fh","type":"int","value":16},{"name":"solid","type":"bool","value":true}]},{"id":127,"name":"","type":"prop","x":608.0,"y":720,"width":0,"height":0,"rotation":0,"visible":true,"point":true,"properties":[{"name":"kind","type":"string","value":"wall"},{"name":"fw","type":"int","value":32},{"name":"fh","type":"int","value":16},{"name":"solid","type":"bool","value":true}]},{"id":128,"name":"","type":"prop","x":800.0,"y":720,"width":0,"height":0,"rotation":0,"visible":true,"point":true,"properties":[{"name":"kind","type":"string","value":"wall"},{"name":"fw","type":"int","value":32},{"name":"fh","type":"int","value":16},{"name":"solid","type":"bool","value":true}]},{"id":129,"name":"","type":"prop","x":928.0,"y":720,"width":0,"height":0,"rotation":0,"visible":true,"point":true,"properties":[{"name":"kind","type":"string","value":"wall"},{"name":"fw","type":"int","value":32},{"name":"fh","type":"int","value":16},{"name":"solid","type":"bool","value":true}]},{"id":130,"name":"","type":"prop","x":1184.0,"y":720,"width":0,"height":0,"rotation":0,"visible":true,"point":true,"properties":[{"name":"kind","type":"string","value":"wall"},{"name":"fw","type":"int","value":32},{"name":"fh","type":"int","value":16},{"name":"solid","type":"bool","value":true}]},{"id":131,"name":"","type":"prop","x":224.0,"y":736,"width":0,"height":0,"rotation":0,"visible":true,"point":true,"properties":[{"name":"kind","type":"string","value":"wall"},{"name":"fw","type":"int","value":32},{"name":"fh","type":"int","value":16},{"name":"solid","type":"bool","value":true}]},{"id":132,"name":"","type":"prop","x":928.0,"y":736,"width":0,"height":0,"rotation":0,"visible":true,"point":true,"properties":[{"name":"kind","type":"string","value":"wall"},{"name":"fw","type":"int","value":32},{"name":"fh","type":"int","value":16},{"name":"solid","type":"bool","value":true}]},{"id":133,"name":"","type":"prop","x":224.0,"y":752,"width":0,"height":0,"rotation":0,"visible":true,"point":true,"properties":[{"name":"kind","type":"string","value":"wall"},{"name":"fw","type":"int","value":32},{"name":"fh","type":"int","value":16},{"name":"solid","type":"bool","value":true}]},{"id":134,"name":"","type":"prop","x":928.0,"y":752,"width":0,"height":0,"rotation":0,"visible":true,"point":true,"properties":[{"name":"kind","type":"string","value":"wall"},{"name":"fw","type":"int","value":32},{"name":"fh","type":"int","value":16},{"name":"solid","type":"bool","value":true}]},{"id":135,"name":"","type":"prop","x":224.0,"y":768,"width":0,"height":0,"rotation":0,"visible":true,"point":true,"properties":[{"name":"kind","type":"string","value":"wall"},{"name":"fw","type":"int","value":32},{"name":"fh","type":"int","value":16},{"name":"solid","type":"bool","value":true}]},{"id":136,"name":"","type":"prop","x":480.0,"y":768,"width":0,"height":0,"rotation":0,"visible":true,"point":true,"properties":[{"name":"kind","type":"string","value":"wall"},{"name":"fw","type":"int","value":32},{"name":"fh","type":"int","value":16},{"name":"solid","type":"bool","value":true}]},{"id":137,"name":"","type":"prop","x":608.0,"y":768,"width":0,"height":0,"rotation":0,"visible":true,"point":true,"properties":[{"name":"kind","type":"string","value":"wall"},{"name":"fw","type":"int","value":32},{"name":"fh","type":"int","value":16},{"name":"solid","type":"bool","value":true}]},{"id":138,"name":"","type":"prop","x":800.0,"y":768,"width":0,"height":0,"rotation":0,"visible":true,"point":true,"properties":[{"name":"kind","type":"string","value":"wall"},{"name":"fw","type":"int","value":32},{"name":"fh","type":"int","value":16},{"name":"solid","type":"bool","value":true}]},{"id":139,"name":"","type":"prop","x":928.0,"y":768,"width":0,"height":0,"rotation":0,"visible":true,"point":true,"properties":[{"name":"kind","type":"string","value":"wall"},{"name":"fw","type":"int","value":32},{"name":"fh","type":"int","value":16},{"name":"solid","type":"bool","value":true}]},{"id":140,"name":"","type":"prop","x":1184.0,"y":768,"width":0,"height":0,"rotation":0,"visible":true,"point":true,"properties":[{"name":"kind","type":"string","value":"wall"},{"name":"fw","type":"int","value":32},{"name":"fh","type":"int","value":16},{"name":"solid","type":"bool","value":true}]},{"id":141,"name":"","type":"prop","x":224.0,"y":784,"width":0,"height":0,"rotation":0,"visible":true,"point":true,"properties":[{"name":"kind","type":"string","value":"wall"},{"name":"fw","type":"int","value":32},{"name":"fh","type":"int","value":16},{"name":"solid","type":"bool","value":true}]},{"id":142,"name":"","type":"prop","x":480.0,"y":784,"width":0,"height":0,"rotation":0,"visible":true,"point":true,"properties":[{"name":"kind","type":"string","value":"wall"},{"name":"fw","type":"int","value":32},{"name":"fh","type":"int","value":16},{"name":"solid","type":"bool","value":true}]},{"id":143,"name":"","type":"prop","x":608.0,"y":784,"width":0,"height":0,"rotation":0,"visible":true,"point":true,"properties":[{"name":"kind","type":"string","value":"wall"},{"name":"fw","type":"int","value":32},{"name":"fh","type":"int","value":16},{"name":"solid","type":"bool","value":true}]},{"id":144,"name":"","type":"prop","x":800.0,"y":784,"width":0,"height":0,"rotation":0,"visible":true,"point":true,"properties":[{"name":"kind","type":"string","value":"wall"},{"name":"fw","type":"int","value":32},{"name":"fh","type":"int","value":16},{"name":"solid","type":"bool","value":true}]},{"id":145,"name":"","type":"prop","x":928.0,"y":784,"width":0,"height":0,"rotation":0,"visible":true,"point":true,"properties":[{"name":"kind","type":"string","value":"wall"},{"name":"fw","type":"int","value":32},{"name":"fh","type":"int","value":16},{"name":"solid","type":"bool","value":true}]},{"id":146,"name":"","type":"prop","x":1184.0,"y":784,"width":0,"height":0,"rotation":0,"visible":true,"point":true,"properties":[{"name":"kind","type":"string","value":"wall"},{"name":"fw","type":"int","value":32},{"name":"fh","type":"int","value":16},{"name":"solid","type":"bool","value":true}]},{"id":147,"name":"","type":"prop","x":224.0,"y":800,"width":0,"height":0,"rotation":0,"visible":true,"point":true,"properties":[{"name":"kind","type":"string","value":"wall"},{"name":"fw","type":"int","value":32},{"name":"fh","type":"int","value":16},{"name":"solid","type":"bool","value":true}]},{"id":148,"name":"","type":"prop","x":480.0,"y":800,"width":0,"height":0,"rotation":0,"visible":true,"point":true,"properties":[{"name":"kind","type":"string","value":"wall"},{"name":"fw","type":"int","value":32},{"name":"fh","type":"int","value":16},{"name":"solid","type":"bool","value":true}]},{"id":149,"name":"","type":"prop","x":608.0,"y":800,"width":0,"height":0,"rotation":0,"visible":true,"point":true,"properties":[{"name":"kind","type":"string","value":"wall"},{"name":"fw","type":"int","value":32},{"name":"fh","type":"int","value":16},{"name":"solid","type":"bool","value":true}]},{"id":150,"name":"","type":"prop","x":800.0,"y":800,"width":0,"height":0,"rotation":0,"visible":true,"point":true,"properties":[{"name":"kind","type":"string","value":"wall"},{"name":"fw","type":"int","value":32},{"name":"fh","type":"int","value":16},{"name":"solid","type":"bool","value":true}]},{"id":151,"name":"","type":"prop","x":928.0,"y":800,"width":0,"height":0,"rotation":0,"visible":true,"point":true,"properties":[{"name":"kind","type":"string","value":"wall"},{"name":"fw","type":"int","value":32},{"name":"fh","type":"int","value":16},{"name":"solid","type":"bool","value":true}]},{"id":152,"name":"","type":"prop","x":1184.0,"y":800,"width":0,"height":0,"rotation":0,"visible":true,"point":true,"properties":[{"name":"kind","type":"string","value":"wall"},{"name":"fw","type":"int","value":32},{"name":"fh","type":"int","value":16},{"name":"solid","type":"bool","value":true}]},{"id":153,"name":"","type":"prop","x":224.0,"y":816,"width":0,"height":0,"rotation":0,"visible":true,"point":true,"properties":[{"name":"kind","type":"string","value":"wall"},{"name":"fw","type":"int","value":32},{"name":"fh","type":"int","value":16},{"name":"solid","type":"bool","value":true}]},{"id":154,"name":"","type":"prop","x":480.0,"y":816,"width":0,"height":0,"rotation":0,"visible":true,"point":true,"properties":[{"name":"kind","type":"string","value":"wall"},{"name":"fw","type":"int","value":32},{"name":"fh","type":"int","value":16},{"name":"solid","type":"bool","value":true}]},{"id":155,"name":"","type":"prop","x":608.0,"y":816,"width":0,"height":0,"rotation":0,"visible":true,"point":true,"properties":[{"name":"kind","type":"string","value":"wall"},{"name":"fw","type":"int","value":32},{"name":"fh","type":"int","value":16},{"name":"solid","type":"bool","value":true}]},{"id":156,"name":"","type":"prop","x":800.0,"y":816,"width":0,"height":0,"rotation":0,"visible":true,"point":true,"properties":[{"name":"kind","type":"string","value":"wall"},{"name":"fw","type":"int","value":32},{"name":"fh","type":"int","value":16},{"name":"solid","type":"bool","value":true}]},{"id":157,"name":"","type":"prop","x":928.0,"y":816,"width":0,"height":0,"rotation":0,"visible":true,"point":true,"properties":[{"name":"kind","type":"string","value":"wall"},{"name":"fw","type":"int","value":32},{"name":"fh","type":"int","value":16},{"name":"solid","type":"bool","value":true}]},{"id":158,"name":"","type":"prop","x":1184.0,"y":816,"width":0,"height":0,"rotation":0,"visible":true,"point":true,"properties":[{"name":"kind","type":"string","value":"wall"},{"name":"fw","type":"int","value":32},{"name":"fh","type":"int","value":16},{"name":"solid","type":"bool","value":true}]},{"id":159,"name":"","type":"prop","x":224.0,"y":832,"width":0,"height":0,"rotation":0,"visible":true,"point":true,"properties":[{"name":"kind","type":"string","value":"wall"},{"name":"fw","type":"int","value":32},{"name":"fh","type":"int","value":16},{"name":"solid","type":"bool","value":true}]},{"id":160,"name":"","type":"prop","x":480.0,"y":832,"width":0,"height":0,"rotation":0,"visible":true,"point":true,"properties":[{"name":"kind","type":"string","value":"wall"},{"name":"fw","type":"int","value":32},{"name":"fh","type":"int","value":16},{"name":"solid","type":"bool","value":true}]},{"id":161,"name":"","type":"prop","x":608.0,"y":832,"width":0,"height":0,"rotation":0,"visible":true,"point":true,"properties":[{"name":"kind","type":"string","value":"wall"},{"name":"fw","type":"int","value":32},{"name":"fh","type":"int","value":16},{"name":"solid","type":"bool","value":true}]},{"id":162,"name":"","type":"prop","x":800.0,"y":832,"width":0,"height":0,"rotation":0,"visible":true,"point":true,"properties":[{"name":"kind","type":"string","value":"wall"},{"name":"fw","type":"int","value":32},{"name":"fh","type":"int","value":16},{"name":"solid","type":"bool","value":true}]},{"id":163,"name":"","type":"prop","x":928.0,"y":832,"width":0,"height":0,"rotation":0,"visible":true,"point":true,"properties":[{"name":"kind","type":"string","value":"wall"},{"name":"fw","type":"int","value":32},{"name":"fh","type":"int","value":16},{"name":"solid","type":"bool","value":true}]},{"id":164,"name":"","type":"prop","x":1184.0,"y":832,"width":0,"height":0,"rotation":0,"visible":true,"point":true,"properties":[{"name":"kind","type":"string","value":"wall"},{"name":"fw","type":"int","value":32},{"name":"fh","type":"int","value":16},{"name":"solid","type":"bool","value":true}]},{"id":165,"name":"","type":"prop","x":224.0,"y":848,"width":0,"height":0,"rotation":0,"visible":true,"point":true,"properties":[{"name":"kind","type":"string","value":"wall"},{"name":"fw","type":"int","value":32},{"name":"fh","type":"int","value":16},{"name":"solid","type":"bool","value":true}]},{"id":166,"name":"","type":"prop","x":480.0,"y":848,"width":0,"height":0,"rotation":0,"visible":true,"point":true,"properties":[{"name":"kind","type":"string","value":"wall"},{"name":"fw","type":"int","value":32},{"name":"fh","type":"int","value":16},{"name":"solid","type":"bool","value":true}]},{"id":167,"name":"","type":"prop","x":608.0,"y":848,"width":0,"height":0,"rotation":0,"visible":true,"point":true,"properties":[{"name":"kind","type":"string","value":"wall"},{"name":"fw","type":"int","value":32},{"name":"fh","type":"int","value":16},{"name":"solid","type":"bool","value":true}]},{"id":168,"name":"","type":"prop","x":800.0,"y":848,"width":0,"height":0,"rotation":0,"visible":true,"point":true,"properties":[{"name":"kind","type":"string","value":"wall"},{"name":"fw","type":"int","value":32},{"name":"fh","type":"int","value":16},{"name":"solid","type":"bool","value":true}]},{"id":169,"name":"","type":"prop","x":928.0,"y":848,"width":0,"height":0,"rotation":0,"visible":true,"point":true,"properties":[{"name":"kind","type":"string","value":"wall"},{"name":"fw","type":"int","value":32},{"name":"fh","type":"int","value":16},{"name":"solid","type":"bool","value":true}]},{"id":170,"name":"","type":"prop","x":1184.0,"y":848,"width":0,"height":0,"rotation":0,"visible":true,"point":true,"properties":[{"name":"kind","type":"string","value":"wall"},{"name":"fw","type":"int","value":32},{"name":"fh","type":"int","value":16},{"name":"solid","type":"bool","value":true}]},{"id":171,"name":"","type":"prop","x":272.0,"y":864,"width":0,"height":0,"rotation":0,"visible":true,"point":true,"properties":[{"name":"kind","type":"string","value":"wall"},{"name":"fw","type":"int","value":128},{"name":"fh","type":"int","value":16},{"name":"solid","type":"bool","value":true}]},{"id":172,"name":"","type":"prop","x":432.0,"y":864,"width":0,"height":0,"rotation":0,"visible":true,"point":true,"properties":[{"name":"kind","type":"string","value":"wall"},{"name":"fw","type":"int","value":128},{"name":"fh","type":"int","value":16},{"name":"solid","type":"bool","value":true}]},{"id":173,"name":"","type":"prop","x":704.0,"y":864,"width":0,"height":0,"rotation":0,"visible":true,"point":true,"properties":[{"name":"kind","type":"string","value":"wall"},{"name":"fw","type":"int","value":224},{"name":"fh","type":"int","value":16},{"name":"solid","type":"bool","value":true}]},{"id":174,"name":"","type":"prop","x":976.0,"y":864,"width":0,"height":0,"rotation":0,"visible":true,"point":true,"properties":[{"name":"kind","type":"string","value":"wall"},{"name":"fw","type":"int","value":128},{"name":"fh","type":"int","value":16},{"name":"solid","type":"bool","value":true}]},{"id":175,"name":"","type":"prop","x":1088.0,"y":864,"width":0,"height":0,"rotation":0,"visible":true,"point":true,"properties":[{"name":"kind","type":"string","value":"wall"},{"name":"fw","type":"int","value":32},{"name":"fh","type":"int","value":16},{"name":"solid","type":"bool","value":true}]},{"id":176,"name":"","type":"prop","x":1168.0,"y":864,"width":0,"height":0,"rotation":0,"visible":true,"point":true,"properties":[{"name":"kind","type":"string","value":"wall"},{"name":"fw","type":"int","value":64},{"name":"fh","type":"int","value":16},{"name":"solid","type":"bool","value":true}]},{"id":177,"name":"","type":"prop","x":272.0,"y":880,"width":0,"height":0,"rotation":0,"visible":true,"point":true,"properties":[{"name":"kind","type":"string","value":"wall"},{"name":"fw","type":"int","value":128},{"name":"fh","type":"int","value":16},{"name":"solid","type":"bool","value":true}]},{"id":178,"name":"","type":"prop","x":432.0,"y":880,"width":0,"height":0,"rotation":0,"visible":true,"point":true,"properties":[{"name":"kind","type":"string","value":"wall"},{"name":"fw","type":"int","value":128},{"name":"fh","type":"int","value":16},{"name":"solid","type":"bool","value":true}]},{"id":179,"name":"","type":"prop","x":704.0,"y":880,"width":0,"height":0,"rotation":0,"visible":true,"point":true,"properties":[{"name":"kind","type":"string","value":"wall"},{"name":"fw","type":"int","value":224},{"name":"fh","type":"int","value":16},{"name":"solid","type":"bool","value":true}]},{"id":180,"name":"","type":"prop","x":976.0,"y":880,"width":0,"height":0,"rotation":0,"visible":true,"point":true,"properties":[{"name":"kind","type":"string","value":"wall"},{"name":"fw","type":"int","value":128},{"name":"fh","type":"int","value":16},{"name":"solid","type":"bool","value":true}]},{"id":181,"name":"","type":"prop","x":1088.0,"y":880,"width":0,"height":0,"rotation":0,"visible":true,"point":true,"properties":[{"name":"kind","type":"string","value":"wall"},{"name":"fw","type":"int","value":32},{"name":"fh","type":"int","value":16},{"name":"solid","type":"bool","value":true}]},{"id":182,"name":"","type":"prop","x":1168.0,"y":880,"width":0,"height":0,"rotation":0,"visible":true,"point":true,"properties":[{"name":"kind","type":"string","value":"wall"},{"name":"fw","type":"int","value":64},{"name":"fh","type":"int","value":16},{"name":"solid","type":"bool","value":true}]},{"id":183,"name":"","type":"prop","x":560.0,"y":112,"width":0,"height":0,"rotation":0,"visible":true,"point":true,"properties":[{"name":"kind","type":"string","value":"wall"},{"name":"fw","type":"int","value":928},{"name":"fh","type":"int","value":16},{"name":"solid","type":"bool","value":true}]},{"id":184,"name":"","type":"prop","x":1200.0,"y":112,"width":0,"height":0,"rotation":0,"visible":true,"point":true,"properties":[{"name":"kind","type":"string","value":"wall"},{"name":"fw","type":"int","value":224},{"name":"fh","type":"int","value":16},{"name":"solid","type":"bool","value":true}]},{"id":185,"name":"","type":"prop","x":560.0,"y":128,"width":0,"height":0,"rotation":0,"visible":true,"point":true,"properties":[{"name":"kind","type":"string","value":"wall"},{"name":"fw","type":"int","value":928},{"name":"fh","type":"int","value":16},{"name":"solid","type":"bool","value":true}]},{"id":186,"name":"","type":"prop","x":1200.0,"y":128,"width":0,"height":0,"rotation":0,"visible":true,"point":true,"properties":[{"name":"kind","type":"string","value":"wall"},{"name":"fw","type":"int","value":224},{"name":"fh","type":"int","value":16},{"name":"solid","type":"bool","value":true}]},{"id":187,"name":"","type":"prop","x":112.0,"y":144,"width":0,"height":0,"rotation":0,"visible":true,"point":true,"properties":[{"name":"kind","type":"string","value":"wall"},{"name":"fw","type":"int","value":32},{"name":"fh","type":"int","value":16},{"name":"solid","type":"bool","value":true}]},{"id":188,"name":"","type":"prop","x":1296.0,"y":144,"width":0,"height":0,"rotation":0,"visible":true,"point":true,"properties":[{"name":"kind","type":"string","value":"wall"},{"name":"fw","type":"int","value":32},{"name":"fh","type":"int","value":16},{"name":"solid","type":"bool","value":true}]},{"id":189,"name":"","type":"prop","x":112.0,"y":160,"width":0,"height":0,"rotation":0,"visible":true,"point":true,"properties":[{"name":"kind","type":"string","value":"wall"},{"name":"fw","type":"int","value":32},{"name":"fh","type":"int","value":16},{"name":"solid","type":"bool","value":true}]},{"id":190,"name":"","type":"prop","x":1296.0,"y":160,"width":0,"height":0,"rotation":0,"visible":true,"point":true,"properties":[{"name":"kind","type":"string","value":"wall"},{"name":"fw","type":"int","value":32},{"name":"fh","type":"int","value":16},{"name":"solid","type":"bool","value":true}]},{"id":191,"name":"","type":"prop","x":112.0,"y":176,"width":0,"height":0,"rotation":0,"visible":true,"point":true,"properties":[{"name":"kind","type":"string","value":"wall"},{"name":"fw","type":"int","value":32},{"name":"fh","type":"int","value":16},{"name":"solid","type":"bool","value":true}]},{"id":192,"name":"","type":"prop","x":1296.0,"y":176,"width":0,"height":0,"rotation":0,"visible":true,"point":true,"properties":[{"name":"kind","type":"string","value":"wall"},{"name":"fw","type":"int","value":32},{"name":"fh","type":"int","value":16},{"name":"solid","type":"bool","value":true}]},{"id":193,"name":"","type":"prop","x":112.0,"y":192,"width":0,"height":0,"rotation":0,"visible":true,"point":true,"properties":[{"name":"kind","type":"string","value":"wall"},{"name":"fw","type":"int","value":32},{"name":"fh","type":"int","value":16},{"name":"solid","type":"bool","value":true}]},{"id":194,"name":"","type":"prop","x":1296.0,"y":192,"width":0,"height":0,"rotation":0,"visible":true,"point":true,"properties":[{"name":"kind","type":"string","value":"wall"},{"name":"fw","type":"int","value":32},{"name":"fh","type":"int","value":16},{"name":"solid","type":"bool","value":true}]},{"id":195,"name":"","type":"prop","x":112.0,"y":208,"width":0,"height":0,"rotation":0,"visible":true,"point":true,"properties":[{"name":"kind","type":"string","value":"wall"},{"name":"fw","type":"int","value":32},{"name":"fh","type":"int","value":16},{"name":"solid","type":"bool","value":true}]},{"id":196,"name":"","type":"prop","x":1296.0,"y":208,"width":0,"height":0,"rotation":0,"visible":true,"point":true,"properties":[{"name":"kind","type":"string","value":"wall"},{"name":"fw","type":"int","value":32},{"name":"fh","type":"int","value":16},{"name":"solid","type":"bool","value":true}]},{"id":197,"name":"","type":"prop","x":112.0,"y":224,"width":0,"height":0,"rotation":0,"visible":true,"point":true,"properties":[{"name":"kind","type":"string","value":"wall"},{"name":"fw","type":"int","value":32},{"name":"fh","type":"int","value":16},{"name":"solid","type":"bool","value":true}]},{"id":198,"name":"","type":"prop","x":1296.0,"y":224,"width":0,"height":0,"rotation":0,"visible":true,"point":true,"properties":[{"name":"kind","type":"string","value":"wall"},{"name":"fw","type":"int","value":32},{"name":"fh","type":"int","value":16},{"name":"solid","type":"bool","value":true}]},{"id":199,"name":"","type":"prop","x":112.0,"y":240,"width":0,"height":0,"rotation":0,"visible":true,"point":true,"properties":[{"name":"kind","type":"string","value":"wall"},{"name":"fw","type":"int","value":32},{"name":"fh","type":"int","value":16},{"name":"solid","type":"bool","value":true}]},{"id":200,"name":"","type":"prop","x":1296.0,"y":240,"width":0,"height":0,"rotation":0,"visible":true,"point":true,"properties":[{"name":"kind","type":"string","value":"wall"},{"name":"fw","type":"int","value":32},{"name":"fh","type":"int","value":16},{"name":"solid","type":"bool","value":true}]},{"id":201,"name":"","type":"prop","x":112.0,"y":256,"width":0,"height":0,"rotation":0,"visible":true,"point":true,"properties":[{"name":"kind","type":"string","value":"wall"},{"name":"fw","type":"int","value":32},{"name":"fh","type":"int","value":16},{"name":"solid","type":"bool","value":true}]},{"id":202,"name":"","type":"prop","x":1296.0,"y":256,"width":0,"height":0,"rotation":0,"visible":true,"point":true,"properties":[{"name":"kind","type":"string","value":"wall"},{"name":"fw","type":"int","value":32},{"name":"fh","type":"int","value":16},{"name":"solid","type":"bool","value":true}]},{"id":203,"name":"","type":"prop","x":112.0,"y":272,"width":0,"height":0,"rotation":0,"visible":true,"point":true,"properties":[{"name":"kind","type":"string","value":"wall"},{"name":"fw","type":"int","value":32},{"name":"fh","type":"int","value":16},{"name":"solid","type":"bool","value":true}]},{"id":204,"name":"","type":"prop","x":1296.0,"y":272,"width":0,"height":0,"rotation":0,"visible":true,"point":true,"properties":[{"name":"kind","type":"string","value":"wall"},{"name":"fw","type":"int","value":32},{"name":"fh","type":"int","value":16},{"name":"solid","type":"bool","value":true}]},{"id":205,"name":"","type":"prop","x":112.0,"y":288,"width":0,"height":0,"rotation":0,"visible":true,"point":true,"properties":[{"name":"kind","type":"string","value":"wall"},{"name":"fw","type":"int","value":32},{"name":"fh","type":"int","value":16},{"name":"solid","type":"bool","value":true}]},{"id":206,"name":"","type":"prop","x":1296.0,"y":288,"width":0,"height":0,"rotation":0,"visible":true,"point":true,"properties":[{"name":"kind","type":"string","value":"wall"},{"name":"fw","type":"int","value":32},{"name":"fh","type":"int","value":16},{"name":"solid","type":"bool","value":true}]},{"id":207,"name":"","type":"prop","x":112.0,"y":304,"width":0,"height":0,"rotation":0,"visible":true,"point":true,"properties":[{"name":"kind","type":"string","value":"wall"},{"name":"fw","type":"int","value":32},{"name":"fh","type":"int","value":16},{"name":"solid","type":"bool","value":true}]},{"id":208,"name":"","type":"prop","x":1296.0,"y":304,"width":0,"height":0,"rotation":0,"visible":true,"point":true,"properties":[{"name":"kind","type":"string","value":"wall"},{"name":"fw","type":"int","value":32},{"name":"fh","type":"int","value":16},{"name":"solid","type":"bool","value":true}]},{"id":209,"name":"","type":"prop","x":112.0,"y":320,"width":0,"height":0,"rotation":0,"visible":true,"point":true,"properties":[{"name":"kind","type":"string","value":"wall"},{"name":"fw","type":"int","value":32},{"name":"fh","type":"int","value":16},{"name":"solid","type":"bool","value":true}]},{"id":210,"name":"","type":"prop","x":1296.0,"y":320,"width":0,"height":0,"rotation":0,"visible":true,"point":true,"properties":[{"name":"kind","type":"string","value":"wall"},{"name":"fw","type":"int","value":32},{"name":"fh","type":"int","value":16},{"name":"solid","type":"bool","value":true}]},{"id":211,"name":"","type":"prop","x":112.0,"y":336,"width":0,"height":0,"rotation":0,"visible":true,"point":true,"properties":[{"name":"kind","type":"string","value":"wall"},{"name":"fw","type":"int","value":32},{"name":"fh","type":"int","value":16},{"name":"solid","type":"bool","value":true}]},{"id":212,"name":"","type":"prop","x":1296.0,"y":336,"width":0,"height":0,"rotation":0,"visible":true,"point":true,"properties":[{"name":"kind","type":"string","value":"wall"},{"name":"fw","type":"int","value":32},{"name":"fh","type":"int","value":16},{"name":"solid","type":"bool","value":true}]},{"id":213,"name":"","type":"prop","x":112.0,"y":352,"width":0,"height":0,"rotation":0,"visible":true,"point":true,"properties":[{"name":"kind","type":"string","value":"wall"},{"name":"fw","type":"int","value":32},{"name":"fh","type":"int","value":16},{"name":"solid","type":"bool","value":true}]},{"id":214,"name":"","type":"prop","x":1296.0,"y":352,"width":0,"height":0,"rotation":0,"visible":true,"point":true,"properties":[{"name":"kind","type":"string","value":"wall"},{"name":"fw","type":"int","value":32},{"name":"fh","type":"int","value":16},{"name":"solid","type":"bool","value":true}]},{"id":215,"name":"","type":"prop","x":112.0,"y":368,"width":0,"height":0,"rotation":0,"visible":true,"point":true,"properties":[{"name":"kind","type":"string","value":"wall"},{"name":"fw","type":"int","value":32},{"name":"fh","type":"int","value":16},{"name":"solid","type":"bool","value":true}]},{"id":216,"name":"","type":"prop","x":1296.0,"y":368,"width":0,"height":0,"rotation":0,"visible":true,"point":true,"properties":[{"name":"kind","type":"string","value":"wall"},{"name":"fw","type":"int","value":32},{"name":"fh","type":"int","value":16},{"name":"solid","type":"bool","value":true}]},{"id":217,"name":"","type":"prop","x":112.0,"y":384,"width":0,"height":0,"rotation":0,"visible":true,"point":true,"properties":[{"name":"kind","type":"string","value":"wall"},{"name":"fw","type":"int","value":32},{"name":"fh","type":"int","value":16},{"name":"solid","type":"bool","value":true}]},{"id":218,"name":"","type":"prop","x":1296.0,"y":384,"width":0,"height":0,"rotation":0,"visible":true,"point":true,"properties":[{"name":"kind","type":"string","value":"wall"},{"name":"fw","type":"int","value":32},{"name":"fh","type":"int","value":16},{"name":"solid","type":"bool","value":true}]},{"id":219,"name":"","type":"prop","x":112.0,"y":400,"width":0,"height":0,"rotation":0,"visible":true,"point":true,"properties":[{"name":"kind","type":"string","value":"wall"},{"name":"fw","type":"int","value":32},{"name":"fh","type":"int","value":16},{"name":"solid","type":"bool","value":true}]},{"id":220,"name":"","type":"prop","x":1296.0,"y":400,"width":0,"height":0,"rotation":0,"visible":true,"point":true,"properties":[{"name":"kind","type":"string","value":"wall"},{"name":"fw","type":"int","value":32},{"name":"fh","type":"int","value":16},{"name":"solid","type":"bool","value":true}]},{"id":221,"name":"","type":"prop","x":112.0,"y":416,"width":0,"height":0,"rotation":0,"visible":true,"point":true,"properties":[{"name":"kind","type":"string","value":"wall"},{"name":"fw","type":"int","value":32},{"name":"fh","type":"int","value":16},{"name":"solid","type":"bool","value":true}]},{"id":222,"name":"","type":"prop","x":1296.0,"y":416,"width":0,"height":0,"rotation":0,"visible":true,"point":true,"properties":[{"name":"kind","type":"string","value":"wall"},{"name":"fw","type":"int","value":32},{"name":"fh","type":"int","value":16},{"name":"solid","type":"bool","value":true}]},{"id":223,"name":"","type":"prop","x":112.0,"y":432,"width":0,"height":0,"rotation":0,"visible":true,"point":true,"properties":[{"name":"kind","type":"string","value":"wall"},{"name":"fw","type":"int","value":32},{"name":"fh","type":"int","value":16},{"name":"solid","type":"bool","value":true}]},{"id":224,"name":"","type":"prop","x":1296.0,"y":432,"width":0,"height":0,"rotation":0,"visible":true,"point":true,"properties":[{"name":"kind","type":"string","value":"wall"},{"name":"fw","type":"int","value":32},{"name":"fh","type":"int","value":16},{"name":"solid","type":"bool","value":true}]},{"id":225,"name":"","type":"prop","x":112.0,"y":448,"width":0,"height":0,"rotation":0,"visible":true,"point":true,"properties":[{"name":"kind","type":"string","value":"wall"},{"name":"fw","type":"int","value":32},{"name":"fh","type":"int","value":16},{"name":"solid","type":"bool","value":true}]},{"id":226,"name":"","type":"prop","x":1296.0,"y":448,"width":0,"height":0,"rotation":0,"visible":true,"point":true,"properties":[{"name":"kind","type":"string","value":"wall"},{"name":"fw","type":"int","value":32},{"name":"fh","type":"int","value":16},{"name":"solid","type":"bool","value":true}]},{"id":227,"name":"","type":"prop","x":112.0,"y":464,"width":0,"height":0,"rotation":0,"visible":true,"point":true,"properties":[{"name":"kind","type":"string","value":"wall"},{"name":"fw","type":"int","value":32},{"name":"fh","type":"int","value":16},{"name":"solid","type":"bool","value":true}]},{"id":228,"name":"","type":"prop","x":1296.0,"y":464,"width":0,"height":0,"rotation":0,"visible":true,"point":true,"properties":[{"name":"kind","type":"string","value":"wall"},{"name":"fw","type":"int","value":32},{"name":"fh","type":"int","value":16},{"name":"solid","type":"bool","value":true}]},{"id":229,"name":"","type":"prop","x":112.0,"y":480,"width":0,"height":0,"rotation":0,"visible":true,"point":true,"properties":[{"name":"kind","type":"string","value":"wall"},{"name":"fw","type":"int","value":32},{"name":"fh","type":"int","value":16},{"name":"solid","type":"bool","value":true}]},{"id":230,"name":"","type":"prop","x":112.0,"y":496,"width":0,"height":0,"rotation":0,"visible":true,"point":true,"properties":[{"name":"kind","type":"string","value":"wall"},{"name":"fw","type":"int","value":32},{"name":"fh","type":"int","value":16},{"name":"solid","type":"bool","value":true}]},{"id":231,"name":"","type":"prop","x":112.0,"y":512,"width":0,"height":0,"rotation":0,"visible":true,"point":true,"properties":[{"name":"kind","type":"string","value":"wall"},{"name":"fw","type":"int","value":32},{"name":"fh","type":"int","value":16},{"name":"solid","type":"bool","value":true}]},{"id":232,"name":"","type":"prop","x":1296.0,"y":512,"width":0,"height":0,"rotation":0,"visible":true,"point":true,"properties":[{"name":"kind","type":"string","value":"wall"},{"name":"fw","type":"int","value":32},{"name":"fh","type":"int","value":16},{"name":"solid","type":"bool","value":true}]},{"id":233,"name":"","type":"prop","x":112.0,"y":592,"width":0,"height":0,"rotation":0,"visible":true,"point":true,"properties":[{"name":"kind","type":"string","value":"wall"},{"name":"fw","type":"int","value":32},{"name":"fh","type":"int","value":16},{"name":"solid","type":"bool","value":true}]},{"id":234,"name":"","type":"prop","x":1296.0,"y":592,"width":0,"height":0,"rotation":0,"visible":true,"point":true,"properties":[{"name":"kind","type":"string","value":"wall"},{"name":"fw","type":"int","value":32},{"name":"fh","type":"int","value":16},{"name":"solid","type":"bool","value":true}]},{"id":235,"name":"","type":"prop","x":112.0,"y":608,"width":0,"height":0,"rotation":0,"visible":true,"point":true,"properties":[{"name":"kind","type":"string","value":"wall"},{"name":"fw","type":"int","value":32},{"name":"fh","type":"int","value":16},{"name":"solid","type":"bool","value":true}]},{"id":236,"name":"","type":"prop","x":1296.0,"y":608,"width":0,"height":0,"rotation":0,"visible":true,"point":true,"properties":[{"name":"kind","type":"string","value":"wall"},{"name":"fw","type":"int","value":32},{"name":"fh","type":"int","value":16},{"name":"solid","type":"bool","value":true}]},{"id":237,"name":"","type":"prop","x":112.0,"y":624,"width":0,"height":0,"rotation":0,"visible":true,"point":true,"properties":[{"name":"kind","type":"string","value":"wall"},{"name":"fw","type":"int","value":32},{"name":"fh","type":"int","value":16},{"name":"solid","type":"bool","value":true}]},{"id":238,"name":"","type":"prop","x":1296.0,"y":624,"width":0,"height":0,"rotation":0,"visible":true,"point":true,"properties":[{"name":"kind","type":"string","value":"wall"},{"name":"fw","type":"int","value":32},{"name":"fh","type":"int","value":16},{"name":"solid","type":"bool","value":true}]},{"id":239,"name":"","type":"prop","x":112.0,"y":640,"width":0,"height":0,"rotation":0,"visible":true,"point":true,"properties":[{"name":"kind","type":"string","value":"wall"},{"name":"fw","type":"int","value":32},{"name":"fh","type":"int","value":16},{"name":"solid","type":"bool","value":true}]},{"id":240,"name":"","type":"prop","x":1296.0,"y":640,"width":0,"height":0,"rotation":0,"visible":true,"point":true,"properties":[{"name":"kind","type":"string","value":"wall"},{"name":"fw","type":"int","value":32},{"name":"fh","type":"int","value":16},{"name":"solid","type":"bool","value":true}]},{"id":241,"name":"","type":"prop","x":112.0,"y":656,"width":0,"height":0,"rotation":0,"visible":true,"point":true,"properties":[{"name":"kind","type":"string","value":"wall"},{"name":"fw","type":"int","value":32},{"name":"fh","type":"int","value":16},{"name":"solid","type":"bool","value":true}]},{"id":242,"name":"","type":"prop","x":1296.0,"y":656,"width":0,"height":0,"rotation":0,"visible":true,"point":true,"properties":[{"name":"kind","type":"string","value":"wall"},{"name":"fw","type":"int","value":32},{"name":"fh","type":"int","value":16},{"name":"solid","type":"bool","value":true}]},{"id":243,"name":"","type":"prop","x":112.0,"y":672,"width":0,"height":0,"rotation":0,"visible":true,"point":true,"properties":[{"name":"kind","type":"string","value":"wall"},{"name":"fw","type":"int","value":32},{"name":"fh","type":"int","value":16},{"name":"solid","type":"bool","value":true}]},{"id":244,"name":"","type":"prop","x":1296.0,"y":672,"width":0,"height":0,"rotation":0,"visible":true,"point":true,"properties":[{"name":"kind","type":"string","value":"wall"},{"name":"fw","type":"int","value":32},{"name":"fh","type":"int","value":16},{"name":"solid","type":"bool","value":true}]},{"id":245,"name":"","type":"prop","x":112.0,"y":688,"width":0,"height":0,"rotation":0,"visible":true,"point":true,"properties":[{"name":"kind","type":"string","value":"wall"},{"name":"fw","type":"int","value":32},{"name":"fh","type":"int","value":16},{"name":"solid","type":"bool","value":true}]},{"id":246,"name":"","type":"prop","x":1296.0,"y":688,"width":0,"height":0,"rotation":0,"visible":true,"point":true,"properties":[{"name":"kind","type":"string","value":"wall"},{"name":"fw","type":"int","value":32},{"name":"fh","type":"int","value":16},{"name":"solid","type":"bool","value":true}]},{"id":247,"name":"","type":"prop","x":112.0,"y":704,"width":0,"height":0,"rotation":0,"visible":true,"point":true,"properties":[{"name":"kind","type":"string","value":"wall"},{"name":"fw","type":"int","value":32},{"name":"fh","type":"int","value":16},{"name":"solid","type":"bool","value":true}]},{"id":248,"name":"","type":"prop","x":1296.0,"y":704,"width":0,"height":0,"rotation":0,"visible":true,"point":true,"properties":[{"name":"kind","type":"string","value":"wall"},{"name":"fw","type":"int","value":32},{"name":"fh","type":"int","value":16},{"name":"solid","type":"bool","value":true}]},{"id":249,"name":"","type":"prop","x":112.0,"y":720,"width":0,"height":0,"rotation":0,"visible":true,"point":true,"properties":[{"name":"kind","type":"string","value":"wall"},{"name":"fw","type":"int","value":32},{"name":"fh","type":"int","value":16},{"name":"solid","type":"bool","value":true}]},{"id":250,"name":"","type":"prop","x":1296.0,"y":720,"width":0,"height":0,"rotation":0,"visible":true,"point":true,"properties":[{"name":"kind","type":"string","value":"wall"},{"name":"fw","type":"int","value":32},{"name":"fh","type":"int","value":16},{"name":"solid","type":"bool","value":true}]},{"id":251,"name":"","type":"prop","x":112.0,"y":736,"width":0,"height":0,"rotation":0,"visible":true,"point":true,"properties":[{"name":"kind","type":"string","value":"wall"},{"name":"fw","type":"int","value":32},{"name":"fh","type":"int","value":16},{"name":"solid","type":"bool","value":true}]},{"id":252,"name":"","type":"prop","x":1296.0,"y":736,"width":0,"height":0,"rotation":0,"visible":true,"point":true,"properties":[{"name":"kind","type":"string","value":"wall"},{"name":"fw","type":"int","value":32},{"name":"fh","type":"int","value":16},{"name":"solid","type":"bool","value":true}]},{"id":253,"name":"","type":"prop","x":112.0,"y":752,"width":0,"height":0,"rotation":0,"visible":true,"point":true,"properties":[{"name":"kind","type":"string","value":"wall"},{"name":"fw","type":"int","value":32},{"name":"fh","type":"int","value":16},{"name":"solid","type":"bool","value":true}]},{"id":254,"name":"","type":"prop","x":1296.0,"y":752,"width":0,"height":0,"rotation":0,"visible":true,"point":true,"properties":[{"name":"kind","type":"string","value":"wall"},{"name":"fw","type":"int","value":32},{"name":"fh","type":"int","value":16},{"name":"solid","type":"bool","value":true}]},{"id":255,"name":"","type":"prop","x":112.0,"y":768,"width":0,"height":0,"rotation":0,"visible":true,"point":true,"properties":[{"name":"kind","type":"string","value":"wall"},{"name":"fw","type":"int","value":32},{"name":"fh","type":"int","value":16},{"name":"solid","type":"bool","value":true}]},{"id":256,"name":"","type":"prop","x":1296.0,"y":768,"width":0,"height":0,"rotation":0,"visible":true,"point":true,"properties":[{"name":"kind","type":"string","value":"wall"},{"name":"fw","type":"int","value":32},{"name":"fh","type":"int","value":16},{"name":"solid","type":"bool","value":true}]},{"id":257,"name":"","type":"prop","x":112.0,"y":784,"width":0,"height":0,"rotation":0,"visible":true,"point":true,"properties":[{"name":"kind","type":"string","value":"wall"},{"name":"fw","type":"int","value":32},{"name":"fh","type":"int","value":16},{"name":"solid","type":"bool","value":true}]},{"id":258,"name":"","type":"prop","x":1296.0,"y":784,"width":0,"height":0,"rotation":0,"visible":true,"point":true,"properties":[{"name":"kind","type":"string","value":"wall"},{"name":"fw","type":"int","value":32},{"name":"fh","type":"int","value":16},{"name":"solid","type":"bool","value":true}]},{"id":259,"name":"","type":"prop","x":112.0,"y":800,"width":0,"height":0,"rotation":0,"visible":true,"point":true,"properties":[{"name":"kind","type":"string","value":"wall"},{"name":"fw","type":"int","value":32},{"name":"fh","type":"int","value":16},{"name":"solid","type":"bool","value":true}]},{"id":260,"name":"","type":"prop","x":1296.0,"y":800,"width":0,"height":0,"rotation":0,"visible":true,"point":true,"properties":[{"name":"kind","type":"string","value":"wall"},{"name":"fw","type":"int","value":32},{"name":"fh","type":"int","value":16},{"name":"solid","type":"bool","value":true}]},{"id":261,"name":"","type":"prop","x":112.0,"y":816,"width":0,"height":0,"rotation":0,"visible":true,"point":true,"properties":[{"name":"kind","type":"string","value":"wall"},{"name":"fw","type":"int","value":32},{"name":"fh","type":"int","value":16},{"name":"solid","type":"bool","value":true}]},{"id":262,"name":"","type":"prop","x":1296.0,"y":816,"width":0,"height":0,"rotation":0,"visible":true,"point":true,"properties":[{"name":"kind","type":"string","value":"wall"},{"name":"fw","type":"int","value":32},{"name":"fh","type":"int","value":16},{"name":"solid","type":"bool","value":true}]},{"id":263,"name":"","type":"prop","x":112.0,"y":832,"width":0,"height":0,"rotation":0,"visible":true,"point":true,"properties":[{"name":"kind","type":"string","value":"wall"},{"name":"fw","type":"int","value":32},{"name":"fh","type":"int","value":16},{"name":"solid","type":"bool","value":true}]},{"id":264,"name":"","type":"prop","x":1296.0,"y":832,"width":0,"height":0,"rotation":0,"visible":true,"point":true,"properties":[{"name":"kind","type":"string","value":"wall"},{"name":"fw","type":"int","value":32},{"name":"fh","type":"int","value":16},{"name":"solid","type":"bool","value":true}]},{"id":265,"name":"","type":"prop","x":112.0,"y":848,"width":0,"height":0,"rotation":0,"visible":true,"point":true,"properties":[{"name":"kind","type":"string","value":"wall"},{"name":"fw","type":"int","value":32},{"name":"fh","type":"int","value":16},{"name":"solid","type":"bool","value":true}]},{"id":266,"name":"","type":"prop","x":1296.0,"y":848,"width":0,"height":0,"rotation":0,"visible":true,"point":true,"properties":[{"name":"kind","type":"string","value":"wall"},{"name":"fw","type":"int","value":32},{"name":"fh","type":"int","value":16},{"name":"solid","type":"bool","value":true}]},{"id":267,"name":"","type":"prop","x":112.0,"y":864,"width":0,"height":0,"rotation":0,"visible":true,"point":true,"properties":[{"name":"kind","type":"string","value":"wall"},{"name":"fw","type":"int","value":32},{"name":"fh","type":"int","value":16},{"name":"solid","type":"bool","value":true}]},{"id":268,"name":"","type":"prop","x":1296.0,"y":864,"width":0,"height":0,"rotation":0,"visible":true,"point":true,"properties":[{"name":"kind","type":"string","value":"wall"},{"name":"fw","type":"int","value":32},{"name":"fh","type":"int","value":16},{"name":"solid","type":"bool","value":true}]},{"id":269,"name":"","type":"prop","x":112.0,"y":880,"width":0,"height":0,"rotation":0,"visible":true,"point":true,"properties":[{"name":"kind","type":"string","value":"wall"},{"name":"fw","type":"int","value":32},{"name":"fh","type":"int","value":16},{"name":"solid","type":"bool","value":true}]},{"id":270,"name":"","type":"prop","x":1296.0,"y":880,"width":0,"height":0,"rotation":0,"visible":true,"point":true,"properties":[{"name":"kind","type":"string","value":"wall"},{"name":"fw","type":"int","value":32},{"name":"fh","type":"int","value":16},{"name":"solid","type":"bool","value":true}]},{"id":271,"name":"","type":"prop","x":112.0,"y":896,"width":0,"height":0,"rotation":0,"visible":true,"point":true,"properties":[{"name":"kind","type":"string","value":"wall"},{"name":"fw","type":"int","value":32},{"name":"fh","type":"int","value":16},{"name":"solid","type":"bool","value":true}]},{"id":272,"name":"","type":"prop","x":1296.0,"y":896,"width":0,"height":0,"rotation":0,"visible":true,"point":true,"properties":[{"name":"kind","type":"string","value":"wall"},{"name":"fw","type":"int","value":32},{"name":"fh","type":"int","value":16},{"name":"solid","type":"bool","value":true}]},{"id":273,"name":"","type":"prop","x":112.0,"y":912,"width":0,"height":0,"rotation":0,"visible":true,"point":true,"properties":[{"name":"kind","type":"string","value":"wall"},{"name":"fw","type":"int","value":32},{"name":"fh","type":"int","value":16},{"name":"solid","type":"bool","value":true}]},{"id":274,"name":"","type":"prop","x":1296.0,"y":912,"width":0,"height":0,"rotation":0,"visible":true,"point":true,"properties":[{"name":"kind","type":"string","value":"wall"},{"name":"fw","type":"int","value":32},{"name":"fh","type":"int","value":16},{"name":"solid","type":"bool","value":true}]},{"id":275,"name":"","type":"prop","x":112.0,"y":928,"width":0,"height":0,"rotation":0,"visible":true,"point":true,"properties":[{"name":"kind","type":"string","value":"wall"},{"name":"fw","type":"int","value":32},{"name":"fh","type":"int","value":16},{"name":"solid","type":"bool","value":true}]},{"id":276,"name":"","type":"prop","x":1296.0,"y":928,"width":0,"height":0,"rotation":0,"visible":true,"point":true,"properties":[{"name":"kind","type":"string","value":"wall"},{"name":"fw","type":"int","value":32},{"name":"fh","type":"int","value":16},{"name":"solid","type":"bool","value":true}]},{"id":277,"name":"","type":"prop","x":112.0,"y":944,"width":0,"height":0,"rotation":0,"visible":true,"point":true,"properties":[{"name":"kind","type":"string","value":"wall"},{"name":"fw","type":"int","value":32},{"name":"fh","type":"int","value":16},{"name":"solid","type":"bool","value":true}]},{"id":278,"name":"","type":"prop","x":1296.0,"y":944,"width":0,"height":0,"rotation":0,"visible":true,"point":true,"properties":[{"name":"kind","type":"string","value":"wall"},{"name":"fw","type":"int","value":32},{"name":"fh","type":"int","value":16},{"name":"solid","type":"bool","value":true}]},{"id":279,"name":"","type":"prop","x":112.0,"y":960,"width":0,"height":0,"rotation":0,"visible":true,"point":true,"properties":[{"name":"kind","type":"string","value":"wall"},{"name":"fw","type":"int","value":32},{"name":"fh","type":"int","value":16},{"name":"solid","type":"bool","value":true}]},{"id":280,"name":"","type":"prop","x":1296.0,"y":960,"width":0,"height":0,"rotation":0,"visible":true,"point":true,"properties":[{"name":"kind","type":"string","value":"wall"},{"name":"fw","type":"int","value":32},{"name":"fh","type":"int","value":16},{"name":"solid","type":"bool","value":true}]},{"id":281,"name":"","type":"prop","x":704.0,"y":976,"width":0,"height":0,"rotation":0,"visible":true,"point":true,"properties":[{"name":"kind","type":"string","value":"wall"},{"name":"fw","type":"int","value":1216},{"name":"fh","type":"int","value":16},{"name":"solid","type":"bool","value":true}]},{"id":282,"name":"","type":"prop","x":704.0,"y":992,"width":0,"height":0,"rotation":0,"visible":true,"point":true,"properties":[{"name":"kind","type":"string","value":"wall"},{"name":"fw","type":"int","value":1216},{"name":"fh","type":"int","value":16},{"name":"solid","type":"bool","value":true}]},{"id":283,"name":"c2","type":"spot","x":664.0,"y":475.2,"width":0,"height":0,"rotation":0,"visible":true,"point":true,"properties":[{"name":"node","type":"string","value":"13-c2"},{"name":"label","type":"string","value":"Before the Jiade Gate"},{"name":"label_zh","type":"string","value":"嘉德门前"},{"name":"trigger","type":"string","value":"near"}]},{"id":284,"name":"c6","type":"spot","x":280.0,"y":219.2,"width":0,"height":0,"rotation":0,"visible":true,"point":true,"properties":[{"name":"node","type":"string","value":"13-c6"},{"name":"label","type":"string","value":"The Wenming Garden banquet"},{"name":"label_zh","type":"string","value":"温明园之宴"}]},{"id":285,"name":"wenming-gate","type":"spot","x":408.0,"y":283.2,"width":0,"height":0,"rotation":0,"visible":true,"point":true,"properties":[{"name":"node","type":"string","value":""},{"name":"label","type":"string","value":"The garden gate"},{"name":"label_zh","type":"string","value":"园门"}]},{"id":286,"name":"c13","type":"spot","x":920.0,"y":539.2,"width":0,"height":0,"rotation":0,"visible":true,"point":true,"properties":[{"name":"node","type":"string","value":"13-c13"},{"name":"label","type":"string","value":"The street under Dong Zhuo"},{"name":"label_zh","type":"string","value":"董卓治下的街市"},{"name":"trigger","type":"string","value":"near"}]},{"id":287,"name":"c17","type":"spot","x":1240.0,"y":539.2,"width":0,"height":0,"rotation":0,"visible":true,"point":true,"properties":[{"name":"node","type":"string","value":"13-c17"},{"name":"label","type":"string","value":"The East Gate"},{"name":"label_zh","type":"string","value":"东门"},{"name":"trigger","type":"string","value":"near"}]},{"id":288,"name":"xf-gate","type":"spot","x":344.0,"y":923.2,"width":0,"height":0,"rotation":0,"visible":true,"point":true,"properties":[{"name":"node","type":"string","value":""},{"name":"label","type":"string","value":"The Chancellor's gate"},{"name":"label_zh","type":"string","value":""}]},{"id":289,"name":"npc-1","type":"npc","x":792.0,"y":542.4,"width":0,"height":0,"rotation":0,"visible":true,"point":true,"properties":[{"name":"kind","type":"string","value":"folk.villager"},{"name":"sprite","type":"string","value":"f_farmer2"},{"name":"wander","type":"bool","value":false},{"name":"drawn","type":"bool","value":true},{"name":"say","type":"string","value":"[[\"n\", \"“Xiliang horsemen ride down the middle of the street. You step aside or you're ridden down.”\", \"“西凉兵马当街驰过。不让开，就被踏死。”\", \"43ee43820345\"]]"},{"name":"in","type":"string","value":"[\"dong\"]"}]},{"id":290,"name":"npc-2","type":"npc","x":408.0,"y":542.4,"width":0,"height":0,"rotation":0,"visible":true,"point":true,"properties":[{"name":"kind","type":"string","value":"folk.official"},{"name":"sprite","type":"string","value":"f_official"},{"name":"wander","type":"bool","value":false},{"name":"drawn","type":"bool","value":true},{"name":"say","type":"string","value":"[[\"n\", \"“Zheng Tai went, and Lu Zhi went. A man with a family stays, and bows, and says nothing.”\", \"“郑泰走了，卢植也走了。有家小的人只能留下，低头，不说话。”\", \"76d714d98e9c\"]]"},{"name":"in","type":"string","value":"[\"dong\"]"}]},{"id":291,"name":"npc-3","type":"npc","x":728.0,"y":478.4,"width":0,"height":0,"rotation":0,"visible":true,"point":true,"properties":[{"name":"kind","type":"string","value":"folk.maiden"},{"name":"sprite","type":"string","value":"f_maiden2"},{"name":"wander","type":"bool","value":false},{"name":"drawn","type":"bool","value":true},{"name":"say","type":"string","value":"[[\"n\", \"“The old emperor sits in the tower of Yong'an Palace. They say he wrote a poem about two swallows.”\", \"“旧天子住在永安宫的楼上。听说他写了一首诗，说的是两只燕子。”\", \"a99fa93da140\"]]"},{"name":"until","type":"string","value":"13-c14"},{"name":"in","type":"string","value":"[\"dong\"]"}]},{"id":292,"name":"npc-4","type":"npc","x":744.0,"y":478.4,"width":0,"height":0,"rotation":0,"visible":true,"point":true,"properties":[{"name":"kind","type":"string","value":"folk.maiden"},{"name":"sprite","type":"string","value":"f_maiden"},{"name":"wander","type":"bool","value":false},{"name":"drawn","type":"bool","value":true},{"name":"say","type":"string","value":"[[\"n\", \"“The Prince of Hongnong is dead. They don't say how. No one asks.”\", \"“弘农王死了。没说怎么死的。也没人敢问。”\", \"4d9cef88acbb\"]]"},{"name":"when","type":"string","value":"node:c14"},{"name":"in","type":"string","value":"[\"dong\"]"}]},{"id":293,"name":"npc-5","type":"npc","x":1112.0,"y":734.4,"width":0,"height":0,"rotation":0,"visible":true,"point":true,"properties":[{"name":"kind","type":"string","value":"folk.elder"},{"name":"sprite","type":"string","value":"f_elder"},{"name":"wander","type":"bool","value":false},{"name":"drawn","type":"bool","value":true},{"name":"say","type":"string","value":"[[\"n\", \"“Carts came in from Yangcheng with heads hung under them. ‘Bandits,’ they said. It was market day there.”\", \"“车从阳城回来，车下挂着人头。说是‘贼’。那天阳城正赶社。”\", \"b9c637972192\"]]"},{"name":"when","type":"string","value":"node:c13"},{"name":"in","type":"string","value":"[\"dong\"]"}]},{"id":294,"name":"npc-6","type":"npc","x":792.0,"y":478.4,"width":0,"height":0,"rotation":0,"visible":true,"point":true,"properties":[{"name":"kind","type":"string","value":"folk.soldier"},{"name":"sprite","type":"string","value":"f_soldier"},{"name":"wander","type":"bool","value":false},{"name":"drawn","type":"bool","value":true},{"name":"say","type":"string","value":"[[\"n\", \"“The Jiade Gate is shut. The general went in to see the Empress, and he's not come out.”\", \"“嘉德门关了。大将军进去见太后，到现在还没出来。”\", \"a0e47e3b742f\"]]"},{"name":"in","type":"string","value":"[\"court\"]"}]},{"id":295,"name":"npc-7","type":"npc","x":344.0,"y":542.4,"width":0,"height":0,"rotation":0,"visible":true,"point":true,"properties":[{"name":"kind","type":"string","value":"folk.villager"},{"name":"sprite","type":"string","value":"f_farmer"},{"name":"wander","type":"bool","value":false},{"name":"drawn","type":"bool","value":true},{"name":"say","type":"string","value":"[[\"n\", \"“The Ten Attendants and He Jin both want the court. Whoever wins, we pay.”\", \"“十常侍要朝廷，何进也要朝廷。不管谁赢，遭殃的都是我们。”\", \"18e5f6d20e62\"]]"},{"name":"in","type":"string","value":"[\"court\"]"}]},{"id":296,"name":"cavalryman","type":"npc","x":808.0,"y":542.4,"width":0,"height":0,"rotation":0,"visible":true,"point":true,"properties":[{"name":"kind","type":"string","value":"folk.soldier"},{"name":"sprite","type":"string","value":"f_soldier"},{"name":"wander","type":"bool","value":false},{"name":"drawn","type":"bool","value":true},{"name":"say","type":"string","value":"[]"},{"name":"challenge","type":"string","value":"cavalryman"},{"name":"until","type":"string","value":"13-c16"},{"name":"when","type":"string","value":"node:c12"},{"name":"view","type":"string","value":"4"},{"name":"intro","type":"string","value":"[[\"n\", \"A Xiliang horseman wheels in front of you. “Colonel Cao. The Chancellor's man, now? Prove you can think as well as bow.”\", \"一名西凉骑兵勒马挡在你面前。“曹校尉。如今也是相国的人了？证明你不光会鞠躬，也会动脑子。”\", \"d3a9b6670bc9\"]]"},{"name":"win","type":"string","value":"[[\"n\", \"“Huh. Not a fool, then.”\", \"“哼。倒不是个蠢人。”\", \"b4af8ee2206d\"]]"},{"name":"done","type":"string","value":"[[\"n\", \"The horseman rides on down the middle of the street.\", \"骑兵沿着街心驰去。\", \"f512ec34dfaf\"]]"}]},{"id":297,"name":"resigned","type":"npc","x":1048.0,"y":734.4,"width":0,"height":0,"rotation":0,"visible":true,"point":true,"properties":[{"name":"kind","type":"string","value":"folk.official"},{"name":"sprite","type":"string","value":"f_official"},{"name":"wander","type":"bool","value":false},{"name":"drawn","type":"bool","value":true},{"name":"say","type":"string","value":"[]"},{"name":"challenge","type":"string","value":"resigned"},{"name":"until","type":"string","value":"13-c16"},{"name":"when","type":"string","value":"node:c12"},{"name":"view","type":"string","value":"4"},{"name":"intro","type":"string","value":"[[\"n\", \"An old official sits at the market go table in a plain robe. “I resigned with Lu Zhi. Sit, Colonel, and tell me with stones why you didn't.”\", \"一位穿着素袍的老官坐在市中棋桌旁。“我随卢植辞了官。坐吧，校尉，用棋子告诉我，你为什么没走。”\", \"08ac61c3351c\"]]"},{"name":"win","type":"string","value":"[[\"n\", \"“…So you have a plan of your own. Good. Don't tell me.”\", \"“……原来你自有打算。好。不必告诉我。”\", \"c461bd480217\"]]"},{"name":"done","type":"string","value":"[[\"n\", \"“Go on, Colonel. Whatever you mean to do, do it well.”\", \"“去吧，校尉。不管你要做什么，做好它。”\", \"573739a9b18c\"]]"}]},{"id":298,"name":"exit-luoyang--hj-hall","type":"exit","x":217.6,"y":493.6,"width":12.8,"height":12.0,"rotation":0,"visible":true,"properties":[{"name":"to","type":"string","value":"luoyang--hj-hall"},{"name":"side","type":"string","value":"N"}]},{"id":299,"name":"exit-luoyang--wyl-rearhall","type":"exit","x":377.6,"y":493.6,"width":12.8,"height":12.0,"rotation":0,"visible":true,"properties":[{"name":"to","type":"string","value":"luoyang--wyl-rearhall"},{"name":"side","type":"string","value":"N"}]},{"id":300,"name":"exit-luoyang--palace","type":"exit","x":697.6,"y":429.6,"width":12.8,"height":12.0,"rotation":0,"visible":true,"properties":[{"name":"to","type":"string","value":"luoyang--palace"},{"name":"side","type":"string","value":"N"}]},{"id":301,"name":"exit-luoyang--xiangfu","type":"exit","x":345.6,"y":749.6,"width":12.8,"height":12.0,"rotation":0,"visible":true,"properties":[{"name":"to","type":"string","value":"luoyang--xiangfu"},{"name":"side","type":"string","value":"N"}]},{"id":302,"name":"exit-beimang","type":"exit","x":1024,"y":0,"width":64,"height":16,"rotation":0,"visible":true,"properties":[{"name":"to","type":"string","value":"beimang"},{"name":"side","type":"string","value":"N"}]},{"id":303,"name":"exit-the-camps","type":"exit","x":0,"y":512,"width":16,"height":64,"rotation":0,"visible":true,"properties":[{"name":"to","type":"string","value":"the-camps"},{"name":"side","type":"string","value":"W"}]},{"id":304,"name":"exit-the-east-road","type":"exit","x":1392,"y":512,"width":16,"height":64,"rotation":0,"visible":true,"properties":[{"name":"to","type":"string","value":"the-east-road"},{"name":"side","type":"string","value":"E"}]},{"id":305,"name":"entry-luoyang--hj-hall","type":"entry","x":232.0,"y":510.4,"width":0,"height":0,"rotation":0,"visible":true,"point":true,"properties":[{"name":"from","type":"string","value":"luoyang--hj-hall"}]},{"id":306,"name":"entry-luoyang--wyl-rearhall","type":"entry","x":392.0,"y":510.4,"width":0,"height":0,"rotation":0,"visible":true,"point":true,"properties":[{"name":"from","type":"string","value":"luoyang--wyl-rearhall"}]},{"id":307,"name":"entry-luoyang--palace","type":"entry","x":712.0,"y":446.4,"width":0,"height":0,"rotation":0,"visible":true,"point":true,"properties":[{"name":"from","type":"string","value":"luoyang--palace"}]},{"id":308,"name":"entry-luoyang--xiangfu","type":"entry","x":360.0,"y":766.4,"width":0,"height":0,"rotation":0,"visible":true,"point":true,"properties":[{"name":"from","type":"string","value":"luoyang--xiangfu"}]},{"id":309,"name":"entry-beimang","type":"entry","x":1048.0,"y":158.4,"width":0,"height":0,"rotation":0,"visible":true,"point":true,"properties":[{"name":"from","type":"string","value":"beimang"}]},{"id":310,"name":"entry-the-camps","type":"entry","x":152.0,"y":542.4,"width":0,"height":0,"rotation":0,"visible":true,"point":true,"properties":[{"name":"from","type":"string","value":"the-camps"}]},{"id":311,"name":"entry-the-east-road","type":"entry","x":1240.0,"y":542.4,"width":0,"height":0,"rotation":0,"visible":true,"point":true,"properties":[{"name":"from","type":"string","value":"the-east-road"}]},{"id":312,"name":"entry","type":"entry","x":664.0,"y":542.4,"width":0,"height":0,"rotation":0,"visible":true,"point":true}]}]}