{"type":"map","version":"1.10","tiledversion":"1.10.2","orientation":"orthogonal","renderorder":"right-down","width":56,"height":32,"tilewidth":16,"tileheight":16,"infinite":false,"nextlayerid":5,"nextobjectid":27,"properties":[{"name":"kit","type":"string","value":"xianxia"},{"name":"source","type":"string","value":"suns-neighbourhood.map.json"},{"name":"states","type":"string","value":"[{\"id\": \"evening\", \"light\": \"dusk\"}]"},{"name":"ways","type":"string","value":"{\"nodes\":[[2.0,22.0],[54.0,22.0]],\"edges\":[[0,1]]}"},{"name":"paths","type":"string","value":"00000000000000000000000000000000000000000000000000000000|00000000000000000000000000000000000000000000000000000000|00000000000000000000000000000000000000000000000000000000|00000000000000000000000000000000000000000000000000000000|00000000000000000000000000000000000000000000000000000000|00000000000000000000000000000000000000000000000000000000|00000000000000000000000000000000000000000000000000000000|00000000000000000000000000000000000000000000000000000000|00000000000000000000000000000000000000000000000000000000|00000000000000000000000000000000000000000000000000000000|00000000000000000000000000000000000000000000000000000000|00000000000000000000000000000000000000000000000000000000|00000000000000000000000000000000000000000000000000000000|00000000000000000000000000000000000000000000000000000000|00000000000000000000000000000000000000000000000000000000|00000000000000000000000000000000000000000000000000000000|00000000000000000000000000000000000000000000000000000000|00000000000000000000000000000000000000000000000000000000|00000000000000000000000000000000000000000000000000000000|00000000000000000000000000000000000000000000000000000000|11111111111111111111111111111111111111111111111111111111|11111111111111111111111111111111111111111111111111111111|11111111111111111111111111111111111111111111111111111111|11111111111111111111111111111111111111111111111111111111|00000000000000000000000000000000000000000000000000000000|00000000000000000000000000000000000000000000000000000000|00000000000000000000000000000000000000000000000000000000|00000000000000000000000000000000000000000000000000000000|00000000000000000000000000000000000000000000000000000000|00000000000000000000000000000000000000000000000000000000|00000000000000000000000000000000000000000000000000000000|00000000000000000000000000000000000000000000000000000000"}],"tilesets":[{"firstgid":1,"name":"x_tiles","tilewidth":16,"tileheight":16,"columns":4,"tilecount":20,"margin":0,"spacing":0,"image":"../../../../assets/tk/xianxia/tiles.png","imagewidth":64,"imageheight":80},{"firstgid":21,"name":"x_edges","tilewidth":16,"tileheight":16,"columns":30,"tilecount":300,"margin":0,"spacing":0,"image":"../../../../assets/tk/xianxia/edges.png","imagewidth":480,"imageheight":160}],"layers":[{"id":1,"name":"ground","type":"tilelayer","width":56,"height":32,"x":0,"y":0,"opacity":1,"visible":true,"data":[1,2,4,1,4,1,1,4,3,1,3,1,1,1,1,2,3,3,1,1,2,1,1,3,2,4,2,1,1,4,2,4,3,1,3,1,3,2,2,1,2,1,1,3,1,1,1,2,1,2,4,1,4,1,3,1,1,4,1,1,3,1,1,1,2,1,2,3,1,3,1,3,2,2,3,3,3,1,3,3,2,3,1,2,1,1,1,4,1,2,1,1,3,1,1,3,1,1,1,3,3,1,1,1,2,2,1,1,3,1,4,4,2,3,1,1,1,4,1,3,1,4,1,1,4,1,1,1,2,1,3,2,1,4,1,2,2,2,1,1,4,1,3,1,2,1,1,2,3,3,4,1,1,2,3,4,2,2,4,1,2,2,1,4,1,4,1,3,1,1,1,4,3,1,1,3,2,1,1,2,3,4,1,2,1,1,2,1,3,2,1,4,4,2,4,1,2,3,2,1,3,3,4,4,3,1,2,1,1,4,3,2,1,4,4,1,1,1,1,1,1,4,3,1,3,3,1,4,1,3,3,1,2,1,1,3,1,1,3,1,1,4,3,1,1,1,1,1,1,1,2,1,4,1,1,1,1,4,4,3,4,4,2,4,3,4,4,4,2,4,1,3,1,1,2,3,4,2,1,1,2,4,1,1,2,1,1,3,4,2,4,2,3,1,1,2,2,3,4,1,1,1,1,3,1,1,4,3,4,4,1,1,1,3,2,1,1,1,1,1,2,2,3,1,3,1,1,1,2,3,4,4,1,2,1,2,1,2,1,1,1,4,4,1,4,4,1,4,4,4,3,2,3,1,3,1,1,1,4,1,1,4,3,1,1,3,2,2,3,1,1,3,2,1,1,1,4,1,4,2,1,4,4,1,4,2,3,1,1,4,1,1,1,2,1,1,2,3,1,1,3,2,2,3,1,1,4,1,4,1,1,4,1,1,1,1,1,1,1,3,1,1,3,4,1,3,1,3,2,3,1,2,1,3,1,2,1,1,2,4,1,4,3,4,1,1,4,1,2,2,4,1,1,1,4,1,2,1,2,1,2,3,4,3,1,1,4,2,4,3,1,4,2,4,1,4,4,2,1,4,4,4,1,4,4,1,3,1,1,1,3,1,1,4,3,1,1,4,1,1,1,2,1,2,1,1,1,4,1,1,2,1,1,1,1,2,1,3,1,4,1,3,3,1,3,3,1,2,4,3,1,2,1,3,1,3,3,1,1,4,1,1,1,3,1,1,1,4,3,3,1,3,1,1,1,1,1,2,3,1,3,1,1,2,2,3,2,2,1,1,3,2,1,1,1,1,4,4,1,1,4,4,1,4,1,3,1,1,4,1,1,3,1,2,1,1,1,2,4,1,3,1,2,3,4,1,1,3,3,2,1,4,1,4,4,1,1,1,2,4,4,1,1,4,3,1,2,4,3,1,1,1,3,1,1,1,1,1,3,4,1,3,1,1,2,4,1,3,1,1,1,2,1,2,4,3,1,4,1,1,1,1,2,2,1,3,2,1,1,4,3,2,2,3,3,1,4,3,3,2,3,1,2,1,1,2,2,1,1,2,2,1,2,1,1,3,1,1,1,3,3,1,1,1,1,1,2,4,3,2,2,1,3,2,2,1,2,1,1,1,3,1,1,2,1,2,1,1,1,1,1,3,3,4,3,2,1,1,1,3,4,1,3,1,1,1,4,1,4,1,2,1,1,1,2,1,4,1,2,2,1,3,3,4,1,3,1,1,1,1,1,4,1,2,3,1,4,2,4,3,2,4,1,1,4,1,1,4,4,3,3,1,1,2,4,2,3,1,2,1,1,1,1,1,1,2,2,4,1,4,4,3,1,4,1,1,4,1,3,1,3,3,3,4,1,1,2,3,4,4,4,1,4,1,1,3,3,3,1,2,3,3,4,1,1,2,1,1,4,1,4,4,4,3,1,4,2,3,1,1,1,1,1,2,2,4,1,1,3,1,3,1,1,1,4,1,1,1,2,1,1,1,1,1,3,1,1,1,2,1,1,1,3,1,3,1,1,2,2,4,1,1,4,1,3,3,1,4,1,3,2,4,3,1,4,1,2,2,3,3,1,1,4,4,1,4,1,1,1,3,3,1,2,2,4,1,1,2,2,3,1,1,1,3,1,4,1,1,1,1,1,2,1,4,2,1,1,3,1,4,1,3,1,1,1,3,1,1,1,1,4,4,1,1,1,1,1,1,2,2,1,1,2,1,4,1,4,2,1,1,3,1,2,1,2,1,3,3,1,2,2,2,1,3,1,3,1,1,3,1,1,1,1,4,1,1,1,1,1,3,4,1,2,1,2,3,2,2,3,4,1,2,2,4,2,1,1,1,4,1,1,1,1,1,2,3,1,2,3,3,2,1,1,1,1,4,4,3,3,2,1,2,1,1,1,1,4,4,2,1,4,1,4,1,1,1,1,2,4,4,3,1,2,1,2,1,1,1,1,1,3,1,1,3,1,1,2,4,1,4,4,3,4,1,1,3,1,4,4,1,1,2,1,2,1,3,1,2,1,1,1,2,1,1,2,1,1,4,4,2,1,3,1,1,1,3,1,1,1,2,1,4,1,1,4,3,1,1,3,2,4,1,1,1,1,1,1,4,1,2,3,2,1,1,2,1,4,1,2,1,1,1,1,1,4,1,3,1,3,1,1,3,4,3,1,4,1,1,3,1,2,1,1,1,4,3,3,4,1,3,4,1,1,1,1,1,1,4,3,1,1,4,1,1,3,2,1,1,1,1,1,1,3,1,1,1,3,1,1,1,1,1,1,3,1,1,1,1,2,1,2,4,2,1,3,1,2,4,2,1,2,4,3,2,1,1,1,1,2,1,1,1,1,3,4,4,1,3,1,1,1,2,1,4,4,1,1,1,3,2,1,2,1,1,3,4,1,3,3,2,3,1,1,1,2,1,1,1,2,1,3,1,1,1,2,2,3,1,2,4,1,4,3,1,3,1,1,4,2,3,1,1,1,4,1,3,4,2,1,1,3,1,1,1,2,2,1,2,1,2,1,4,1,1,3,4,1,3,1,1,2,1,1,2,3,3,1,1,2,1,2,1,1,1,4,1,1,4,4,1,1,1,1,1,4,1,1,1,3,4,1,1,2,1,1,1,2,4,3,4,2,2,1,1,1,2,1,1,3,2,2,3,4,1,3,1,3,1,3,1,2,1,3,1,4,2,2,2,3,4,4,1,3,1,2,1,4,3,1,2,1,1,1,1,1,1,1,4,1,1,3,3,1,4,1,1,1,3,2,3,1,1,3,1,1,1,1,1,1,4,3,3,2,1,3,4,4,1,3,2,1,1,1,1,2,1,1,1,1,3,3,4,3,1,1,1,2,3,2,1,1,4,1,1,2,2,2,1,1,4,1,4,4,1,1,1,1,3,1,1,2,1,3,4,3,2,4,1,4,1,1,3,1,2,3,4,1,3,1,4,1,1,3,1,1,3,2,1,1,1,4,3,1,4,4,1,1,2,1,1,1,2,3,1,1,1,2,2,1,2,4,1,1,1,3,1,3,3,4,3,4,4,2,1,2,2,1,3,4,4,3,4,1,2,1,2,1,1,1,2,1,1,2,4,1,2,4,1,3,1,1,3,4,4,4,3,1,4,1,1,1,1,4,4,2,4,4,1,2,3,1,3,1,4,2,1,2,1,4,2,1,1,1,1,1,1,1,1,1,1,1,2,1,4,3,1,1,2,2,4,4,1,3,1,2,1,1,1,3,3,1,1,1,4,4,1,1,1,2,2,2,3,3,1,1,1,1,3,4,1,1,1,3,1,4,1,1,1,2,4,1,1,1,3,1,1,1,1,2,2,1,1,1,1,1,4,1,1,4,2,4,3,1,1,3,1,2,3,2,3,4,1,1,3,1,2,4,3,1,1,4,2,1,1,1,1,2,3,1,1,3,4,1,3,1,1,1,1,4,1,4,4,1,2,4,3,3,2,1,2,2,1,2,1,1,1,2,1,3,1,1,4,1,3,2,4,1,3,1,1,2,1,4,3,4,1,1,1,1,1,3,1]},{"id":2,"name":"dirt","type":"tilelayer","width":56,"height":32,"x":0,"y":0,"opacity":1,"visible":true,"data":[293,293,293,293,293,293,293,293,293,293,293,293,293,293,293,293,293,293,293,293,293,293,293,293,293,293,293,293,293,293,293,293,293,293,293,293,293,293,293,293,293,293,293,293,293,293,293,293,293,293,293,293,293,293,293,293,293,293,293,293,293,293,293,293,293,293,293,293,293,293,293,293,293,293,293,293,293,293,293,293,293,293,293,293,293,293,293,293,293,293,293,293,293,293,293,293,293,293,293,293,293,293,293,293,293,293,293,293,293,293,293,293,293,293,293,293,293,293,293,293,293,293,293,293,293,293,293,293,293,293,293,293,293,293,293,293,293,293,293,293,293,293,293,293,293,293,293,293,293,293,293,293,293,293,293,293,293,293,293,293,293,293,293,293,293,293,293,293,293,293,293,293,293,293,293,293,293,293,293,293,293,293,293,293,293,293,293,293,293,293,293,293,293,293,293,293,293,293,293,293,293,293,293,293,293,293,293,293,293,293,293,293,293,293,293,267,178,177,178,178,178,177,177,177,293,293,293,293,293,293,293,293,293,293,293,293,293,293,293,293,293,293,293,293,293,293,293,293,293,293,293,293,293,293,293,293,293,293,293,293,293,293,293,293,293,293,293,293,293,293,293,232,0,0,0,0,0,0,0,0,293,293,293,293,293,293,293,293,293,293,293,293,293,293,293,293,293,293,293,293,293,293,293,293,293,293,293,293,293,293,293,293,293,293,293,293,293,293,293,293,293,293,293,293,293,293,293,231,0,0,0,0,0,0,0,0,293,293,293,293,293,293,293,293,293,293,293,293,293,293,293,293,293,293,293,293,293,293,293,293,293,293,293,293,293,293,293,293,293,293,293,293,293,293,293,293,293,293,293,293,293,293,293,232,0,0,0,0,0,0,0,0,293,293,293,293,293,293,293,293,293,293,293,293,293,293,293,293,293,293,293,293,293,293,293,293,293,293,293,293,293,293,293,293,293,293,293,293,293,293,293,293,293,293,293,293,293,293,293,232,0,0,0,0,0,0,0,0,293,293,293,293,293,293,293,293,293,293,293,293,293,293,293,293,293,293,293,293,293,293,293,293,293,293,293,293,293,293,293,293,293,293,293,293,293,293,293,293,293,293,293,293,293,293,293,231,0,0,0,0,0,0,0,0,293,293,293,293,293,293,293,293,293,293,293,293,293,293,293,293,293,293,293,293,293,293,293,293,293,293,293,293,293,293,293,293,293,293,293,293,293,293,293,293,293,293,293,293,293,293,293,232,0,0,0,0,0,0,0,0,293,293,293,293,293,293,293,293,293,293,293,293,293,293,293,293,293,293,293,293,293,293,293,293,293,293,293,293,293,293,293,293,293,293,293,293,293,293,293,293,293,293,293,293,293,293,293,231,0,0,0,0,0,0,0,0,293,293,293,293,293,293,293,293,293,293,293,293,293,293,293,293,293,293,293,293,293,293,293,293,293,293,293,293,293,293,293,293,293,293,293,293,293,293,293,293,293,293,293,293,293,293,293,231,0,0,0,0,0,0,0,0,293,293,293,293,293,293,293,293,293,293,293,293,293,293,293,293,293,293,293,293,293,293,293,293,293,293,293,293,293,293,293,293,293,293,293,293,293,293,293,293,293,293,293,293,293,293,293,232,0,0,0,0,0,0,0,0,293,293,293,293,293,293,293,293,293,293,293,293,293,293,293,293,293,293,293,293,293,293,293,293,293,293,293,293,293,293,293,293,293,293,293,293,293,293,293,293,293,293,293,293,293,293,293,231,0,0,0,0,0,0,0,0,293,293,293,293,293,293,293,293,293,293,293,293,293,293,293,293,293,293,293,293,293,293,293,293,293,293,293,293,293,293,293,293,293,293,293,293,293,293,293,293,293,293,293,293,293,293,293,232,0,0,0,0,0,0,0,0,293,293,293,293,293,293,293,293,293,293,293,293,293,293,293,293,293,293,293,293,293,293,293,293,293,293,293,293,293,293,293,293,293,293,293,293,293,293,293,293,293,293,293,293,293,293,293,231,0,0,0,0,0,0,0,0,293,293,293,293,293,293,293,293,293,293,293,293,293,293,293,293,293,293,293,293,293,293,293,293,293,293,293,293,293,293,293,293,293,293,293,293,293,293,293,293,293,293,293,293,293,293,293,292,209,210,209,209,209,209,209,210,293,293,293,293,293,293,293,293,293,293,293,293,293,293,293,293,293,293,293,293,293,293,293,293,293,293,293,293,293,293,293,293,293,293,293,293,293,293,293,293,293,293,293,293,293,293,293,293,293,293,293,293,293,293,293,293,293,293,293,293,293,293,293,293,293,293,293,293,293,293,293,293,293,293,293,293,293,293,293,293,293,293,293,293,293,293,293,293,293,293,293,293,293,293,293,293,293,293,293,293,293,293,293,293,293,293,293,293,293,293,293,293,293,293,293,293,293,293,293,293,293,293,293,293,293,293,293,293,293,293,293,293,293,293,293,293,293,293,293,293,293,293,293,293,293,293,293,293,293,293,293,293,293,293,293,293,293,293,293,293,293,293,293,293,293,293,293,293,293,293,293,293,293,293,293,293,293,293,293,293,293,293,293,293,293,293,293,293,293,293,293,293,293,293,293,293,293,293,293,293,293,293,293,293,293,293,293,293,293,293,293,293,293,293,293,293,293,293,293,293,293,293,293,293,293,293,293,293,293,293,293,293,293,293,293,293,293,293,293,293,293,293,293,293,293,293,293,293,293,293,293,293,293,293,293,293,293,293,293,293,293,293,293,293,293,293,293,293,293,293,293,293,293,293,293,293,293,293,293,293,293,293,293,293,293,293,293,293,293,293,293,293,293,293,293,293,293,293,293,293,293,293,293,293,293,293,293,293,293,293,293,293,293,293,293,293,293,293,293,293,293,293,293,293,293,293,293,293,293,293,293,293,293,293,293,293,293,293,293,293,293,293,293,293,293,293,293,293,293,293,293,293,293,293,293,293,293,293,293,293,293,293,293,293,293,293,293,293,293,293,293,293,293,293,293,293,293,293,293,293,293,293,293,293,293,293,293,293,293,293,293,293,293,293,293,293,293,293,293,293,293,293,293,293,293,293,293,293,293,293,293,293,293,293,293,293,293,293,293,293,293,293,293,293,293,293,293,293,293,293,293,293,293,293,293,293,293,293,293,293,293,293,293,293,293,293,293,293,293,293,293,293,293,293,293,293,293,293,293,293,293,293,293,293,293,293,293,293,293,293,293,293,293,293,293,293,293,293,293,293,293,293,293,293,293,293,293,293,293,293,293,293,293,293,293,293,293,293,293,293,293,293,293,293,293,293,293,293,293,293,293,293,293,293,293,293,293,293,293,293,293,293,293,293,293,293,293,293,293,293,293,293,293,293,293,293,293,293,293,293,293,293,293,293,293,293,293,293,293,293,293,293,293,293,293,293,293,293,293,293,293,293,293,293,293,293,293,293,293,293,293,293,293,293,293,293,293,293,293,293,293,293,293,293,293,293,293,293,293,293,293,293,293,293,293,293,293,293,293,293,293,293,293,293,293,293,293,293,293,293,293,293,293,293,293,293,293,293,293,293,293,293,293,293,293,293,293,293,293,293,293,293,293,293,293,293,293,293,293,293,293,293,293,293,293,293,293,293,293,293,293,293,293,293,293,293,293,293,293,293,293,293,293,293,293,293,293,293,293,293,293,293,293,293,293,293,293,293,293,293,293,293,293,293,293,293,293,293,293,293,293,293,293,293,293,293,293,293,293,293,293,293,293,293,293,293,293,293,293,293,293,293,293,293,293,293,293,293,293,293,293,293,293,293,293,293,293,293,293,293,293,293,293,293,293,293,293,293,293,293,293,293,293,293,293,293,293,293,293,293,293,293,293,293,293,293,293,293,293,293,293,293,293,293,293,293,293,293,293,293,293,293,293,293,293,293,293,293,293,293,293,293,293,293,293,293,293,293,293,293,293,293,293,293,293,293,293,293,293,293,293,293,293,293,293,293,293,293,293,293,293,293,293,293,293,293,293,293,293,293,293,293,293,293,293,293,293,293,293,293,293,293,293,293,293,293,293,293,293,293]},{"id":3,"name":"detail","type":"tilelayer","width":56,"height":32,"x":0,"y":0,"opacity":1,"visible":true,"data":[0,0,0,0,0,0,0,0,0,0,0,0,0,0,0,0,0,0,0,0,0,0,0,0,0,0,0,0,0,0,0,0,0,0,0,0,0,0,0,0,0,0,0,0,0,0,0,0,0,0,0,0,0,0,0,0,0,0,0,0,0,0,0,0,0,0,0,0,0,0,0,0,0,0,0,0,0,0,0,0,0,0,0,0,0,0,0,0,0,0,0,0,0,0,0,0,0,0,0,0,0,0,0,0,0,0,0,0,0,0,0,0,0,0,0,0,0,0,0,0,0,0,0,0,0,0,0,0,0,0,0,0,0,0,0,0,0,0,0,0,0,0,0,0,0,0,0,0,0,0,0,0,0,0,0,0,0,0,0,0,0,0,0,0,0,0,0,0,0,0,0,0,0,0,0,0,0,0,0,0,0,0,0,0,0,0,0,0,0,0,0,0,0,0,0,0,0,0,0,0,0,0,0,0,0,0,0,0,0,0,0,0,0,0,0,0,0,0,0,0,0,0,0,0,0,0,0,0,0,0,0,0,0,0,0,0,0,0,0,0,0,0,0,0,0,0,0,0,0,0,0,0,0,0,0,0,0,0,0,0,0,0,0,0,0,0,0,0,0,0,0,0,0,0,0,0,0,0,0,0,0,0,0,0,0,0,0,0,0,0,0,0,0,0,0,0,0,0,0,0,0,0,0,0,0,0,0,0,0,0,0,0,0,0,0,0,0,0,0,0,0,0,0,0,0,0,0,0,0,0,0,0,0,0,0,0,0,0,0,0,0,0,0,0,0,0,0,0,0,0,0,0,0,0,0,0,0,0,0,0,0,0,0,0,0,0,0,0,0,0,0,0,0,0,0,0,0,0,0,0,0,0,0,0,0,0,0,17,0,0,0,18,0,0,0,0,0,0,0,0,0,0,0,0,0,0,0,0,0,0,0,0,0,0,0,0,0,0,0,0,0,0,0,0,0,0,0,0,0,0,0,0,0,0,0,0,0,0,0,0,0,0,0,0,0,17,0,0,0,0,0,0,0,0,0,0,0,0,0,0,0,0,0,0,0,0,0,0,0,0,0,0,0,0,0,0,0,0,0,0,0,0,0,0,0,0,0,0,0,0,0,0,0,0,0,0,0,0,0,0,0,0,0,0,0,0,0,0,0,0,0,0,0,0,0,0,0,0,0,0,0,0,0,0,0,0,0,0,0,0,0,0,0,0,0,0,0,0,0,0,0,0,0,0,0,0,0,0,0,0,0,0,17,0,17,0,0,0,0,0,0,0,0,0,0,0,0,0,0,0,0,0,0,0,0,0,0,0,0,0,0,0,0,0,0,0,0,0,0,0,0,0,0,0,0,0,0,0,0,0,0,0,0,0,0,0,0,0,0,0,0,0,0,18,0,0,0,0,0,0,0,0,0,0,0,0,0,0,0,0,0,0,0,0,0,0,0,0,0,0,0,0,0,0,0,0,0,0,0,0,0,0,0,0,0,0,0,0,0,0,0,0,0,0,0,0,0,0,0,0,0,0,0,0,0,0,0,0,0,0,0,0,0,0,0,0,0,0,0,0,0,0,0,0,0,0,0,0,0,0,0,0,0,0,0,0,0,0,0,0,0,0,0,0,0,0,0,0,0,0,0,0,18,0,18,0,0,18,0,0,0,0,0,0,0,0,0,0,0,0,0,0,0,0,0,0,0,0,0,0,0,0,0,0,0,0,0,0,0,0,0,0,0,0,0,0,0,0,0,0,0,0,0,0,0,0,0,0,0,0,0,0,0,0,0,0,0,0,0,0,0,0,0,0,0,0,0,0,0,0,0,0,0,0,0,0,0,0,0,0,0,0,0,0,0,0,0,0,0,0,0,0,0,0,0,0,0,0,0,0,0,0,0,0,0,0,0,0,0,0,0,0,0,0,0,0,0,0,0,0,0,0,0,0,0,0,0,0,0,0,0,0,0,0,0,0,0,0,0,0,0,0,0,0,0,0,0,0,0,0,0,0,0,0,0,0,0,0,0,0,0,0,0,17,0,0,0,0,0,0,0,0,0,0,0,0,0,0,0,0,0,0,0,0,0,0,0,0,0,0,0,0,0,0,0,0,0,0,0,0,0,0,0,0,0,0,0,0,0,0,0,0,0,0,0,0,0,0,0,0,0,0,0,0,0,0,0,0,0,0,0,0,0,0,0,0,0,0,0,0,0,0,0,0,0,0,0,0,0,0,0,0,0,0,0,0,0,0,0,0,0,0,0,0,0,0,0,0,0,0,0,0,0,0,0,0,0,0,0,0,0,0,0,0,0,0,0,0,0,0,0,0,0,0,0,0,0,0,0,0,0,0,0,0,0,0,0,0,0,0,0,0,0,0,0,0,0,0,0,0,0,0,0,0,0,0,0,0,0,0,0,0,0,0,0,0,0,0,0,0,0,0,0,0,0,0,0,0,0,0,0,0,0,0,0,0,0,0,0,0,0,0,0,0,0,0,0,0,0,0,0,0,0,0,0,0,0,0,0,0,0,0,0,0,0,0,0,0,0,0,0,0,0,0,0,0,0,0,0,0,0,0,0,0,0,0,0,0,0,0,0,0,0,0,0,0,0,0,0,0,0,0,0,0,0,0,0,0,0,0,0,0,0,0,0,0,0,0,0,0,0,0,0,0,0,0,0,0,0,0,0,0,0,0,0,0,0,0,0,0,0,0,0,0,0,0,0,0,0,0,0,0,0,0,0,0,0,0,0,0,0,0,0,0,0,0,0,0,0,0,0,0,0,0,0,0,0,0,0,0,0,0,0,0,0,0,0,0,0,0,0,0,0,0,0,0,0,0,0,0,0,0,0,0,0,0,0,0,0,0,0,0,0,0,0,0,0,0,0,0,0,0,0,0,0,0,0,0,0,0,0,0,0,0,0,0,0,0,0,0,0,0,0,0,0,0,0,0,0,0,0,0,0,0,0,0,0,0,0,0,0,0,0,0,0,0,0,0,0,0,0,0,0,0,0,0,0,0,0,0,0,0,0,0,0,0,0,0,0,0,0,0,0,0,0,0,0,0,0,0,0,0,0,0,0,0,0,0,0,0,0,0,0,0,0,0,0,0,0,0,0,0,0,0,0,0,0,0,0,0,0,0,0,0,0,0,0,0,0,0,0,0,0,0,0,0,0,0,0,0,0,0,0,0,0,0,0,0,0,0,0,0,0,0,0,0,0,0,0,0,0,0,0,0,0,0,0,0,0,0,0,0,0,0,0,0,0,0,0,0,0,0,0,0,0,0,0,0,0,0,0,0,0,0,0,0,0,0,0,0,0,0,0,0,0,0,0,0,0,0,0,0,0,0,0,0,0,0,0,0,0,0,0,0,0,0,0,0,0,0,0,0,0,0,0,0,0,0,0,0,0,0,0,0,0,0,0,0,0,0,0,0,0,0,0,0,0,0,0,0,0,0,0,0,0,0,0,0,0,0,0,0,0,0,0,0,0,0,0,0,0,0,0,0,0,0,0,0,0,0,0,0,0,0,0,0,0,0,0,0,0,0,0,0,0,0,0,0,0,0,0,0,0,0,0,0,0,0,0,0,0,0,0,0,0,0,0,0,0,0,0,0,0,0,0,0,0,0,0,0,0,0,0,0,0,0,0,0,0,0,0,0,0,0,0,0,0,0,0,0,0,0,0,0,0,0,0,0,0,0,0,0,0,0,0,0,0,0,0,0,0,0,0,0,0,0,0,0,0,0,0,0,0,0,0,0,0,0,0,0,0,0,0,0,0,0,0,0,0,0,0,0,0,0,0,0,0,0,0,0,0,0,0,0,0,0,0,0,0,0,0,0,0,0,0,0,0,0,0,0,0,0,0,0,0,0,0,0,0,0,0,0,0,0,0,0,0,0,0,0,0,0,0,0,0,0,0,0,0,0,0,0,0,0,0,0,0,0,0,0,0,0,0,0,0,0,0,0,0,0,0,0,0,0,0,0,0,0,0,0,0,0,0,0,0,0,0,0,0,0,0,0,0,0,0,0,0,0,0,0,0,0,0,0,0,0,0,0,0,0,0,0]},{"id":4,"name":"objects","type":"objectgroup","draworder":"topdown","x":0,"y":0,"opacity":1,"visible":true,"objects":[{"id":1,"name":"building.hall#0","type":"prop","x":224.0,"y":304,"width":0,"height":0,"rotation":0,"visible":true,"point":true,"properties":[{"name":"kind","type":"string","value":"building.apartment"},{"name":"fw","type":"int","value":64},{"name":"fh","type":"int","value":32},{"name":"solid","type":"bool","value":true},{"name":"ref","type":"string","value":"flats"},{"name":"plaque","type":"string","value":"103동"}]},{"id":2,"name":"building.shop#0","type":"prop","x":512.0,"y":304,"width":0,"height":0,"rotation":0,"visible":true,"point":true,"properties":[{"name":"kind","type":"string","value":"building.storefront"},{"name":"fw","type":"int","value":48},{"name":"fh","type":"int","value":32},{"name":"solid","type":"bool","value":true},{"name":"ref","type":"string","value":"daycare"}]},{"id":3,"name":"building.house#0","type":"prop","x":696.0,"y":304,"width":0,"height":0,"rotation":0,"visible":true,"point":true,"properties":[{"name":"kind","type":"string","value":"building.villa"},{"name":"fw","type":"int","value":64},{"name":"fh","type":"int","value":32},{"name":"solid","type":"bool","value":true},{"name":"ref","type":"string","value":"villa"}]},{"id":4,"name":"building.shop#0","type":"prop","x":256.0,"y":432,"width":0,"height":0,"rotation":0,"visible":true,"point":true,"properties":[{"name":"kind","type":"string","value":"building.storefront"},{"name":"fw","type":"int","value":48},{"name":"fh","type":"int","value":32},{"name":"solid","type":"bool","value":true},{"name":"ref","type":"string","value":"shop-1"}]},{"id":5,"name":"building.shop#0","type":"prop","x":640.0,"y":432,"width":0,"height":0,"rotation":0,"visible":true,"point":true,"properties":[{"name":"kind","type":"string","value":"building.storefront"},{"name":"fw","type":"int","value":48},{"name":"fh","type":"int","value":32},{"name":"solid","type":"bool","value":true},{"name":"ref","type":"string","value":"shop-2"}]},{"id":6,"name":"tree.small#2","type":"prop","x":8.0,"y":400,"width":0,"height":0,"rotation":0,"visible":true,"point":true,"properties":[{"name":"kind","type":"string","value":"tree.ginkgo"},{"name":"fw","type":"int","value":16},{"name":"fh","type":"int","value":16},{"name":"solid","type":"bool","value":true}]},{"id":7,"name":"tree.small#1","type":"prop","x":88.0,"y":320,"width":0,"height":0,"rotation":0,"visible":true,"point":true,"properties":[{"name":"kind","type":"string","value":"tree.ginkgo"},{"name":"fw","type":"int","value":16},{"name":"fh","type":"int","value":16},{"name":"solid","type":"bool","value":true}]},{"id":8,"name":"tree.small#0","type":"prop","x":136.0,"y":400,"width":0,"height":0,"rotation":0,"visible":true,"point":true,"properties":[{"name":"kind","type":"string","value":"tree.ginkgo"},{"name":"fw","type":"int","value":16},{"name":"fh","type":"int","value":16},{"name":"solid","type":"bool","value":true}]},{"id":9,"name":"tree.small#2","type":"prop","x":344.0,"y":320,"width":0,"height":0,"rotation":0,"visible":true,"point":true,"properties":[{"name":"kind","type":"string","value":"tree.ginkgo"},{"name":"fw","type":"int","value":16},{"name":"fh","type":"int","value":16},{"name":"solid","type":"bool","value":true}]},{"id":10,"name":"tree.small#1","type":"prop","x":392.0,"y":400,"width":0,"height":0,"rotation":0,"visible":true,"point":true,"properties":[{"name":"kind","type":"string","value":"tree.ginkgo"},{"name":"fw","type":"int","value":16},{"name":"fh","type":"int","value":16},{"name":"solid","type":"bool","value":true}]},{"id":11,"name":"tree.small#0","type":"prop","x":472.0,"y":320,"width":0,"height":0,"rotation":0,"visible":true,"point":true,"properties":[{"name":"kind","type":"string","value":"tree.ginkgo"},{"name":"fw","type":"int","value":16},{"name":"fh","type":"int","value":16},{"name":"solid","type":"bool","value":true}]},{"id":12,"name":"tree.small#0","type":"prop","x":520.0,"y":400,"width":0,"height":0,"rotation":0,"visible":true,"point":true,"properties":[{"name":"kind","type":"string","value":"tree.ginkgo"},{"name":"fw","type":"int","value":16},{"name":"fh","type":"int","value":16},{"name":"solid","type":"bool","value":true}]},{"id":13,"name":"tree.small#0","type":"prop","x":600.0,"y":320,"width":0,"height":0,"rotation":0,"visible":true,"point":true,"properties":[{"name":"kind","type":"string","value":"tree.ginkgo"},{"name":"fw","type":"int","value":16},{"name":"fh","type":"int","value":16},{"name":"solid","type":"bool","value":true}]},{"id":14,"name":"tree.small#1","type":"prop","x":728.0,"y":320,"width":0,"height":0,"rotation":0,"visible":true,"point":true,"properties":[{"name":"kind","type":"string","value":"tree.ginkgo"},{"name":"fw","type":"int","value":16},{"name":"fh","type":"int","value":16},{"name":"solid","type":"bool","value":true}]},{"id":15,"name":"tree.small#0","type":"prop","x":776.0,"y":400,"width":0,"height":0,"rotation":0,"visible":true,"point":true,"properties":[{"name":"kind","type":"string","value":"tree.ginkgo"},{"name":"fw","type":"int","value":16},{"name":"fh","type":"int","value":16},{"name":"solid","type":"bool","value":true}]},{"id":16,"name":"tree.small#2","type":"prop","x":856.0,"y":320,"width":0,"height":0,"rotation":0,"visible":true,"point":true,"properties":[{"name":"kind","type":"string","value":"tree.ginkgo"},{"name":"fw","type":"int","value":16},{"name":"fh","type":"int","value":16},{"name":"solid","type":"bool","value":true}]},{"id":17,"name":"camp.logs#0","type":"prop","x":880.0,"y":240,"width":0,"height":0,"rotation":0,"visible":true,"point":true,"properties":[{"name":"kind","type":"string","value":"prop.bench"},{"name":"fw","type":"int","value":32},{"name":"fh","type":"int","value":16},{"name":"solid","type":"bool","value":true}]},{"id":18,"name":"camp.logs#0","type":"prop","x":848.0,"y":240,"width":0,"height":0,"rotation":0,"visible":true,"point":true,"properties":[{"name":"kind","type":"string","value":"prop.bench"},{"name":"fw","type":"int","value":32},{"name":"fh","type":"int","value":16},{"name":"solid","type":"bool","value":true}]},{"id":19,"name":"npc-1","type":"npc","x":408.0,"y":350.4,"width":0,"height":0,"rotation":0,"visible":true,"point":true,"properties":[{"name":"kind","type":"string","value":"folk.ajumma"},{"name":"sprite","type":"string","value":"f_youth"},{"name":"wander","type":"bool","value":false},{"name":"drawn","type":"bool","value":true},{"name":"say","type":"string","value":"[[\"n\", \"A mother with a pushchair. “The daycare closes at seven. On the dot.”\", \"\", \"71f579aae439\"]]"}]},{"id":20,"name":"exit-suns-neighbourhood--sun-flat","type":"exit","x":217.6,"y":301.6,"width":12.8,"height":12.0,"rotation":0,"visible":true,"properties":[{"name":"to","type":"string","value":"suns-neighbourhood--sun-flat"},{"name":"side","type":"string","value":"N"}]},{"id":21,"name":"exit-suns-neighbourhood--daycare","type":"exit","x":505.6,"y":301.6,"width":12.8,"height":12.0,"rotation":0,"visible":true,"properties":[{"name":"to","type":"string","value":"suns-neighbourhood--daycare"},{"name":"side","type":"string","value":"N"}]},{"id":22,"name":"exit-jongno","type":"exit","x":0,"y":320,"width":16,"height":64,"rotation":0,"visible":true,"properties":[{"name":"to","type":"string","value":"jongno"},{"name":"side","type":"string","value":"W"}]},{"id":23,"name":"entry-suns-neighbourhood--sun-flat","type":"entry","x":232.0,"y":318.4,"width":0,"height":0,"rotation":0,"visible":true,"point":true,"properties":[{"name":"from","type":"string","value":"suns-neighbourhood--sun-flat"}]},{"id":24,"name":"entry-suns-neighbourhood--daycare","type":"entry","x":520.0,"y":318.4,"width":0,"height":0,"rotation":0,"visible":true,"point":true,"properties":[{"name":"from","type":"string","value":"suns-neighbourhood--daycare"}]},{"id":25,"name":"entry-jongno","type":"entry","x":88.0,"y":350.4,"width":0,"height":0,"rotation":0,"visible":true,"point":true,"properties":[{"name":"from","type":"string","value":"jongno"}]},{"id":26,"name":"entry","type":"entry","x":536.0,"y":350.4,"width":0,"height":0,"rotation":0,"visible":true,"point":true}]}]}