{"type":"map","version":"1.10","tiledversion":"1.10.2","orientation":"orthogonal","renderorder":"right-down","width":40,"height":28,"tilewidth":16,"tileheight":16,"infinite":false,"nextlayerid":4,"nextobjectid":18,"properties":[{"name":"kit","type":"string","value":"xianxia"},{"name":"source","type":"string","value":"the-new-office.map.json"},{"name":"states","type":"string","value":"[{\"id\": \"day\", \"light\": \"day\"}]"},{"name":"ways","type":"string","value":"{\"nodes\":[[2.0,18.0],[38.0,18.0]],\"edges\":[[0,1]]}"},{"name":"paths","type":"string","value":"0000000000000000000000000000000000000000|0000000000000000000000000000000000000000|0000000000000000000000000000000000000000|0000000000000000000000000000000000000000|0000000000000000000000000000000000000000|0000000000000000000000000000000000000000|0000000000000000000000000000000000000000|0000000000000000000000000000000000000000|0000000000000000000000000000000000000000|0000000000000000000000000000000000000000|0000000000000000000000000000000000000000|0000000000000000000000000000000000000000|0000000000000000000000000000000000000000|0000000000000000000000000000000000000000|0000000000000000000000000000000000000000|0000000000000000000000000000000000000000|1111111111111111111111111111111111111111|1111111111111111111111111111111111111111|1111111111111111111111111111111111111111|1111111111111111111111111111111111111111|0000000000000000000000000000000000000000|0000000000000000000000000000000000000000|0000000000000000000000000000000000000000|0000000000000000000000000000000000000000|0000000000000000000000000000000000000000|0000000000000000000000000000000000000000|0000000000000000000000000000000000000000|0000000000000000000000000000000000000000"}],"tilesets":[{"firstgid":1,"name":"x_tiles","tilewidth":16,"tileheight":16,"columns":4,"tilecount":20,"margin":0,"spacing":0,"image":"../../../../assets/tk/xianxia/tiles.png","imagewidth":64,"imageheight":80},{"firstgid":21,"name":"x_edges","tilewidth":16,"tileheight":16,"columns":30,"tilecount":300,"margin":0,"spacing":0,"image":"../../../../assets/tk/xianxia/edges.png","imagewidth":480,"imageheight":160}],"layers":[{"id":1,"name":"ground","type":"tilelayer","width":40,"height":28,"x":0,"y":0,"opacity":1,"visible":true,"data":[1,1,2,1,4,1,1,4,3,4,1,1,3,1,1,2,2,4,2,1,2,1,1,4,1,1,1,1,1,4,4,1,1,4,1,2,1,1,1,1,3,4,1,3,3,1,4,1,1,1,2,1,1,1,1,1,1,1,1,4,2,1,4,3,3,1,2,1,1,1,2,3,2,1,1,2,1,1,1,1,1,4,1,2,3,1,1,3,1,1,2,2,1,2,1,1,1,1,3,3,2,1,3,3,1,1,1,1,1,4,1,1,3,1,2,1,1,4,3,3,2,2,1,2,4,1,2,2,2,4,4,3,1,1,2,1,1,1,1,2,1,1,1,2,4,1,1,1,3,1,1,1,3,1,1,1,1,1,1,1,2,1,1,1,1,1,2,1,1,4,4,4,1,1,1,4,1,1,2,1,1,4,2,3,1,1,1,3,2,1,1,1,2,2,4,1,1,3,3,1,1,1,2,1,3,1,1,1,2,3,1,1,1,1,1,2,1,2,1,4,1,1,2,2,1,1,1,2,4,1,2,2,2,1,3,1,3,3,1,3,3,3,1,2,3,2,2,3,1,4,1,3,4,4,2,4,1,4,2,3,3,1,1,4,2,1,1,1,2,1,1,2,1,2,1,1,1,1,2,1,1,2,4,1,3,1,4,1,3,1,1,3,4,2,1,2,4,1,2,1,1,1,1,3,1,3,1,2,1,4,1,1,1,1,1,3,4,1,4,1,1,1,3,4,1,1,3,3,4,2,4,2,1,1,4,4,1,1,3,3,4,1,1,4,1,2,2,1,1,4,1,4,4,1,4,1,2,2,4,1,4,1,1,3,1,1,2,3,4,3,3,1,4,2,2,2,3,1,1,2,1,2,2,3,3,1,1,2,2,1,4,1,2,1,3,3,1,3,1,2,4,2,4,2,3,1,1,1,3,3,1,4,1,1,4,3,1,2,2,4,4,1,3,1,1,1,1,1,2,3,3,1,3,1,3,1,2,1,2,4,3,4,1,1,3,1,1,2,1,1,4,2,3,1,2,1,1,3,4,1,1,4,4,1,4,1,1,4,1,4,1,3,2,3,4,1,1,1,1,1,4,1,3,1,1,1,1,4,4,2,1,2,2,1,1,4,1,3,1,2,1,3,1,4,4,2,2,2,1,2,3,2,3,2,1,1,1,1,1,1,2,1,1,1,1,4,4,1,3,1,2,2,1,4,3,3,1,1,4,1,2,2,2,1,3,2,1,2,3,1,1,1,1,1,1,2,1,1,1,1,3,1,1,1,4,1,2,4,1,4,3,1,3,1,1,1,3,1,2,1,1,4,1,1,1,4,2,3,2,3,1,1,1,1,1,1,2,2,4,2,4,1,1,4,1,1,1,1,1,1,1,1,1,4,3,2,1,1,1,1,1,4,1,1,2,1,3,1,1,3,1,1,1,2,3,2,3,1,2,2,1,1,1,1,1,1,2,4,1,3,2,4,1,4,4,3,1,3,2,1,1,4,4,2,1,1,1,3,4,1,1,3,4,2,3,1,1,3,1,1,3,3,2,1,3,1,1,1,1,1,1,3,3,1,1,1,4,1,2,3,2,2,1,3,1,1,1,4,1,1,4,1,1,2,1,2,2,1,1,1,1,3,4,2,3,2,1,1,2,1,1,1,1,1,4,1,1,1,4,4,3,1,1,3,2,1,1,1,1,4,2,2,1,1,3,3,2,4,2,1,3,3,2,2,1,1,1,1,4,2,2,1,4,1,1,1,1,1,3,2,4,1,1,1,1,4,3,1,4,1,3,2,3,1,4,1,1,2,1,1,4,1,2,1,1,1,3,1,3,1,4,2,3,2,1,4,3,1,1,4,1,1,3,2,4,1,1,1,4,1,1,3,1,1,3,3,1,4,4,1,1,2,4,3,1,1,4,3,2,3,1,2,4,4,4,2,3,3,1,2,1,1,1,1,1,1,2,4,4,4,1,1,4,4,1,1,1,3,1,1,2,1,4,1,2,1,1,4,1,4,1,4,3,3,4,1,4,1,1,3,1,1,3,4,1,1,1,1,1,1,1,2,4,2,1,1,2,4,1,4,1,2,4,2,3,1,1,4,4,4,1,4,1,2,1,1,1,1,4,2,1,2,3,4,3,3,4,3,1,1,2,4,1,3,1,1,3,1,2,1,3,4,4,4,1,3,1,3,1,2,4,3,1,1,3,1,1,4,1,1,1,4,2,3,1,1,3,2,4,3,1,1,1,1,1,2,2,2,3,1,1,1,1,3,4,2,2,3,1,1,1,1,2,1,1,1,1,1,4,3,1,3,2,2,2,3,1,3,1,1,3,1,2,1,3,2,1,3,4,2,3,1,3,4,2,3,2,3,1,1,1,3,1,1,4,3,3,1,3,3,1,4,4,1,1,2,1,2,1,1,3,1,1,1,3,4,1,3,1,1,4,4,3,3,1,3,4,1,4,4,1,1,1,1,2,3,1,3,4,1,1,3,1,1,1,4,3,1,1,2,1,1,1,1,1,1,4,3,1,1]},{"id":2,"name":"dirt","type":"tilelayer","width":40,"height":28,"x":0,"y":0,"opacity":1,"visible":true,"data":[293,293,293,293,293,293,293,293,293,293,293,293,293,293,293,293,293,293,293,293,293,293,293,293,293,293,293,293,293,293,293,293,293,293,293,293,293,293,293,293,293,293,293,293,293,293,293,293,293,293,293,293,293,293,293,293,293,293,293,293,293,293,293,293,293,293,293,293,293,293,293,293,293,293,293,293,293,293,293,293,293,293,293,293,293,293,293,293,293,293,293,293,293,293,293,293,293,293,293,293,293,293,293,293,293,293,293,293,293,293,293,293,293,293,293,293,293,293,293,293,293,293,293,293,293,293,293,293,293,293,293,293,293,293,293,293,293,293,293,293,293,293,293,293,293,293,293,293,293,293,293,293,293,293,293,293,293,293,293,293,293,293,293,293,293,293,293,293,293,293,293,293,293,293,293,293,293,293,293,293,293,293,293,293,293,293,293,293,293,293,293,293,293,293,293,293,293,293,293,293,293,293,293,293,293,293,293,293,293,293,293,293,293,293,293,293,293,293,293,293,293,293,293,293,293,293,293,293,293,293,293,293,293,293,293,293,293,293,293,293,293,293,293,293,293,293,293,293,293,293,293,293,293,293,293,293,293,293,293,293,293,293,293,293,293,293,293,293,293,293,293,293,293,293,293,293,293,293,293,293,293,293,293,293,293,293,293,293,293,293,293,293,293,293,293,293,293,293,293,293,293,293,293,293,293,293,293,293,293,293,293,293,293,293,293,293,293,293,293,293,293,293,293,293,293,293,293,293,293,293,293,293,293,293,293,293,293,293,293,293,293,293,293,293,293,293,293,293,293,293,293,293,293,293,293,293,293,293,293,293,293,293,293,293,293,293,293,293,293,293,293,293,293,293,293,293,293,293,293,293,293,293,293,293,293,293,293,293,293,293,293,293,293,293,293,293,293,293,293,293,293,293,293,293,293,293,293,293,293,293,293,293,293,293,293,293,293,293,293,293,293,293,293,293,293,293,293,293,293,293,293,293,293,293,293,293,293,293,293,293,293,293,293,293,293,293,293,293,293,293,293,293,293,293,293,293,293,293,293,293,293,293,293,293,293,293,293,293,293,293,293,293,293,293,293,293,293,293,293,293,293,293,293,293,293,293,293,293,293,293,293,293,293,293,293,293,293,293,293,293,293,293,293,293,293,293,293,293,293,293,293,293,293,293,293,293,293,293,293,293,293,293,293,293,293,293,293,293,293,293,293,293,293,293,293,293,293,293,293,293,293,293,293,293,293,293,293,293,293,293,293,293,293,293,293,293,293,293,293,293,293,293,293,293,293,293,293,293,293,293,293,293,293,293,293,293,293,293,293,293,293,293,293,293,293,293,293,293,293,293,293,293,293,293,293,293,293,293,293,293,293,293,293,293,293,293,293,293,293,293,293,293,293,293,293,293,293,293,293,293,293,293,293,293,293,293,293,293,293,293,293,293,293,293,293,293,293,293,293,293,293,293,293,293,293,293,293,293,293,293,293,293,293,293,293,293,293,293,293,293,293,293,293,293,293,293,293,293,293,293,293,293,293,293,293,293,293,293,293,293,293,293,293,293,293,293,293,293,293,293,293,293,293,293,293,293,293,293,293,293,293,293,293,293,293,293,293,293,293,293,293,293,293,293,293,293,293,293,293,293,293,293,293,293,293,293,293,293,293,293,293,293,293,293,293,293,293,293,293,293,293,293,293,293,293,293,293,293,293,293,293,293,293,293,293,293,293,293,293,293,293,293,293,293,293,293,293,293,293,293,293,293,293,293,293,293,293,293,293,293,293,293,293,293,293,293,293,293,293,293,293,293,293,293,293,293,293,293,293,293,293,293,293,293,293,293,293,293,293,293,293,293,293,293,293,293,293,293,293,293,293,293,293,293,293,293,293,293,293,293,293,293,293,293,293,293,293,293,293,293,293,293,293,293,293,293,293,293,293,293,293,293,293,293,293,293,293,293,293,293,293,293,293,293,293,293,293,293,293,293,293,293,293,293,293,293,293,293,293,293,293,293,293,293,293,293,293,293,293,293,293,293,293,293,293,293,293,293,293,293,293,293,293,293,293,293,293,293,293,293,293,293,293,293,293,293,293,293,293,293,293,293,293,293,293,293,293,293,293,293,293,293,293,293,293,293,293,293,293,293,293,293,293,293,293,293,293,293,293,293,293,293,293,293,293,293,293,293,293,293,293,293,293,293,293,293,293,293,293,293,293,293,293,293,293,293,293,293,293,293,293,293,293,293,293,293,293,293,293,293,293,293,293,293,293,293,293,293,293,293,293,293,293,293,293,293,293,293,293,293,293,293,293,293,293,293,293,293,293,293,293,293,293,293,293,293,293,293,293,293,293,293,293,293,293,293,293,293,293,293,293,293,293,293,293,293,293,293,293,293,293,293,293,293,293,293,293,293,293,293,293,293,293,293,293,293,293,293,293,293,293,293,293,293,293,293,293,293,293,293,293,293,293,293,293,293,293,293,293,293,293,293,293,293,293,293,293,293,293,293,293,293,293,293,293,293,293,293,293,293,293,293,293,293,293,293,293,293,293,293]},{"id":3,"name":"objects","type":"objectgroup","draworder":"topdown","x":0,"y":0,"opacity":1,"visible":true,"objects":[{"id":1,"name":"building.hall#0","type":"prop","x":320.0,"y":240,"width":0,"height":0,"rotation":0,"visible":true,"point":true,"properties":[{"name":"kind","type":"string","value":"building.office_block"},{"name":"fw","type":"int","value":64},{"name":"fh","type":"int","value":32},{"name":"solid","type":"bool","value":true},{"name":"ref","type":"string","value":"office"}]},{"id":2,"name":"building.hall#0","type":"prop","x":128.0,"y":240,"width":0,"height":0,"rotation":0,"visible":true,"point":true,"properties":[{"name":"kind","type":"string","value":"building.office_block"},{"name":"fw","type":"int","value":64},{"name":"fh","type":"int","value":32},{"name":"solid","type":"bool","value":true},{"name":"ref","type":"string","value":"block-w"}]},{"id":3,"name":"building.hall#0","type":"prop","x":512.0,"y":240,"width":0,"height":0,"rotation":0,"visible":true,"point":true,"properties":[{"name":"kind","type":"string","value":"building.office_block"},{"name":"fw","type":"int","value":64},{"name":"fh","type":"int","value":32},{"name":"solid","type":"bool","value":true},{"name":"ref","type":"string","value":"block-e"}]},{"id":4,"name":"building.shop#0","type":"prop","x":256.0,"y":368,"width":0,"height":0,"rotation":0,"visible":true,"point":true,"properties":[{"name":"kind","type":"string","value":"building.storefront"},{"name":"fw","type":"int","value":48},{"name":"fh","type":"int","value":32},{"name":"solid","type":"bool","value":true},{"name":"ref","type":"string","value":"shop"}]},{"id":5,"name":"lamp.post#0","type":"prop","x":24.0,"y":256,"width":0,"height":0,"rotation":0,"visible":true,"point":true,"properties":[{"name":"kind","type":"string","value":"lamp.post"},{"name":"fw","type":"int","value":16},{"name":"fh","type":"int","value":16},{"name":"solid","type":"bool","value":true}]},{"id":6,"name":"lamp.post#0","type":"prop","x":72.0,"y":336,"width":0,"height":0,"rotation":0,"visible":true,"point":true,"properties":[{"name":"kind","type":"string","value":"lamp.post"},{"name":"fw","type":"int","value":16},{"name":"fh","type":"int","value":16},{"name":"solid","type":"bool","value":true}]},{"id":7,"name":"lamp.post#0","type":"prop","x":200.0,"y":336,"width":0,"height":0,"rotation":0,"visible":true,"point":true,"properties":[{"name":"kind","type":"string","value":"lamp.post"},{"name":"fw","type":"int","value":16},{"name":"fh","type":"int","value":16},{"name":"solid","type":"bool","value":true}]},{"id":8,"name":"lamp.post#0","type":"prop","x":280.0,"y":256,"width":0,"height":0,"rotation":0,"visible":true,"point":true,"properties":[{"name":"kind","type":"string","value":"lamp.post"},{"name":"fw","type":"int","value":16},{"name":"fh","type":"int","value":16},{"name":"solid","type":"bool","value":true}]},{"id":9,"name":"lamp.post#0","type":"prop","x":328.0,"y":336,"width":0,"height":0,"rotation":0,"visible":true,"point":true,"properties":[{"name":"kind","type":"string","value":"lamp.post"},{"name":"fw","type":"int","value":16},{"name":"fh","type":"int","value":16},{"name":"solid","type":"bool","value":true}]},{"id":10,"name":"lamp.post#0","type":"prop","x":408.0,"y":256,"width":0,"height":0,"rotation":0,"visible":true,"point":true,"properties":[{"name":"kind","type":"string","value":"lamp.post"},{"name":"fw","type":"int","value":16},{"name":"fh","type":"int","value":16},{"name":"solid","type":"bool","value":true}]},{"id":11,"name":"lamp.post#0","type":"prop","x":456.0,"y":336,"width":0,"height":0,"rotation":0,"visible":true,"point":true,"properties":[{"name":"kind","type":"string","value":"lamp.post"},{"name":"fw","type":"int","value":16},{"name":"fh","type":"int","value":16},{"name":"solid","type":"bool","value":true}]},{"id":12,"name":"lamp.post#0","type":"prop","x":584.0,"y":336,"width":0,"height":0,"rotation":0,"visible":true,"point":true,"properties":[{"name":"kind","type":"string","value":"lamp.post"},{"name":"fw","type":"int","value":16},{"name":"fh","type":"int","value":16},{"name":"solid","type":"bool","value":true}]},{"id":13,"name":"exit-the-new-office--new-office","type":"exit","x":313.6,"y":237.6,"width":12.8,"height":12.0,"rotation":0,"visible":true,"properties":[{"name":"to","type":"string","value":"the-new-office--new-office"},{"name":"side","type":"string","value":"N"}]},{"id":14,"name":"exit-jongno","type":"exit","x":0,"y":256,"width":16,"height":64,"rotation":0,"visible":true,"properties":[{"name":"to","type":"string","value":"jongno"},{"name":"side","type":"string","value":"W"}]},{"id":15,"name":"entry-the-new-office--new-office","type":"entry","x":328.0,"y":254.4,"width":0,"height":0,"rotation":0,"visible":true,"point":true,"properties":[{"name":"from","type":"string","value":"the-new-office--new-office"}]},{"id":16,"name":"entry-jongno","type":"entry","x":88.0,"y":286.4,"width":0,"height":0,"rotation":0,"visible":true,"point":true,"properties":[{"name":"from","type":"string","value":"jongno"}]},{"id":17,"name":"entry","type":"entry","x":344.0,"y":286.4,"width":0,"height":0,"rotation":0,"visible":true,"point":true}]}]}