{"type":"map","version":"1.10","tiledversion":"1.10.2","orientation":"orthogonal","renderorder":"right-down","width":144,"height":40,"tilewidth":16,"tileheight":16,"infinite":false,"nextlayerid":5,"nextobjectid":178,"properties":[{"name":"kit","type":"string","value":"xianxia"},{"name":"source","type":"string","value":"liangzhou.map.json"},{"name":"states","type":"string","value":"[{\"id\": \"road-east-shut\", \"until\": \"node:a17\", \"light\": \"day\", \"exits_closed\": [\"meiwu\"], \"exits_closed_say\": {\"meiwu\": [[\"n\", \"Not yet. Lü Bu holds the road east. The mouth of Ren Valley comes first.\", \"还不行。吕布扼住东路。先到任谷口。\", \"2fa6a45c80d4\"]]}}, {\"id\": \"rumour\", \"light\": \"day\", \"weather\": \"harsh\"}, {\"id\": \"army\", \"when\": \"node:a16m\", \"light\": \"day\", \"weather\": \"dust\"}]"},{"name":"ways","type":"string","value":"{\"nodes\":[[2.0,22.0],[42.0,22.0],[42.0,18.0],[90.0,18.0],[90.0,22.0],[142.0,22.0]],\"edges\":[[0,1],[1,2],[2,3],[3,4],[4,5]]}"},{"name":"paths","type":"string","value":"000000000000000000000000000000000000000000000000000000000000000000000000000000000000000000000000000000000000000000000000000000000000000000000000|000000000000000000000000000000000000000000000000000000000000000000000000000000000000000000000000000000000000000000000000000000000000000000000000|000000000000000000000000000000000000000000000000000000000000000000000000000000000000000000000000000000000000000000000000000000000000000000000000|000000000000000000000000000000000000000000000000000000000000000000000000000000000000000000000000000000000000000000000000000000000000000000000000|000000000000000000000000000000000000000000000000000000000000000000000000000000000000000000000000000000000000000000000000000000000000000000000000|000000000000000000000000000000000000000000000000000000000000000000000000000000000000000000000000000000000000000000000000000000000000000000000000|000000000000000000000000000000000000000000000000000000000000000000000000000000000000000000000000000000000000000000000000000000000000000000000000|000000000000000000000000000000000000000000000000000000000000000000000000000000000000000000000000000000000000000000000000000000000000000000000000|000000000000000000000000000000000000000000000000000000000000000000000000000000000000000000000000000000000000000000000000000000000000000000000000|000000000000000000000000000000000000000000000000000000000000000000000000000000000000000000000000000000000000000000000000000000000000000000000000|000000000000000000000000000000000000000000000000000000000000000000000000000000000000000000000000000000000000000000000000000000000000000000000000|000000000000000000000000000000000000000000000000000000000000000000000000000000000000000000000000000000000000000000000000000000000000000000000000|000000000000000000000000000000000000000000000000000000000000000000000000000000000000000000000000000000000000000000000000000000000000000000000000|000000000000000000000000000000000000000000000000000000000000000000000000000000000000000000000000000000000000000000000000000000000000000000000000|000000000000000000000000000000000000000000000000000000000000000000000000000000000000000000000000000000000000000000000000000000000000000000000000|000000000000000000000000000000000000000000000000000000000000000000000000000000000000000000000000000000000000000000000000000000000000000000000000|000000000000000000000000000000000000000011111111111111111111111111111111111111111111111111110000000000000000000000000000000000000000000000000000|000000000000000000000000000000000000000011111111111111111111111111111111111111111111111111110000000000000000000000000000000000000000000000000000|000000000000000000000000000000000000000011111111111111111111111111111111111111111111111111110000000000000000000000000000000000000000000000000000|000000000000000000000000000000000000000011111111111111111111111111111111111111111111111111110000000000000000000000000000000000000000000000000000|111111111111111111111111111111111111111111110000000000000000000000000000000000000000000011111111111111111111111111111111111111111111111111111111|111111111111111111111111111111111111111111110000000000000000000000000000000000000000000011111111111111111111111111111111111111111111111111111111|111111111111111111111111111111111111111111110000000000000000000000000000000000000000000011111111111111111111111111111111111111111111111111111111|111111111111111111111111111111111111111111110000000000000000000000000000011000000000000011111111111111111111111111111111111111111111111111111111|000000000000000000000000000000000000000000000000000000000000000000001111111111110000000000000000000000000000000000000000000000000000000000000000|000000000000000000000000000000000000000000000000000000000000000000001111111111110000000000000000000000000000000000000000000000000000000000000000|000000000000000000000000000000000000000000000000000000000000000000001111111111110000000000000000000000000000000000000000000000000000000000000000|000000000000000000000000000000000000000000000000000000000000000000001111111111110000000000000000000000000000000000000000000000000000000000000000|000000000000000000000000000000000000000000000000000000000000000000001111111111110000000000000000000000000000000000000000000000000000000000000000|000000000000000000000000000000000000000000000000000000000000000000001111111111110000000000000000000000000000000000000000000000000000000000000000|000000000000000000000000000000000000000000000000000000000000000000001111111111110000000000000000000000000000000000000000000000000000000000000000|000000000000000000000000000000000000000000000000000000000000000000001111111111110000000000000000000000000000000000000000000000000000000000000000|000000000000000000000000000000000000000000000000000000000000000000000000000000000000000000000000000000000000000000000000000000000000000000000000|000000000000000000000000000000000000000000000000000000000000000000000000000000000000000000000000000000000000000000000000000000000000000000000000|000000000000000000000000000000000000000000000000000000000000000000000000000000000000000000000000000000000000000000000000000000000000000000000000|000000000000000000000000000000000000000000000000000000000000000000000000000000000000000000000000000000000000000000000000000000000000000000000000|000000000000000000000000000000000000000000000000000000000000000000000000000000000000000000000000000000000000000000000000000000000000000000000000|000000000000000000000000000000000000000000000000000000000000000000000000000000000000000000000000000000000000000000000000000000000000000000000000|000000000000000000000000000000000000000000000000000000000000000000000000000000000000000000000000000000000000000000000000000000000000000000000000|000000000000000000000000000000000000000000000000000000000000000000000000000000000000000000000000000000000000000000000000000000000000000000000000"}],"tilesets":[{"firstgid":1,"name":"drawn_b2_tiles","tilewidth":16,"tileheight":16,"columns":2,"tilecount":18,"margin":0,"spacing":0,"image":"../../../../assets/tk/drawn_b2_tiles.png","imagewidth":32,"imageheight":144},{"firstgid":19,"name":"x_tiles","tilewidth":16,"tileheight":16,"columns":4,"tilecount":20,"margin":0,"spacing":0,"image":"../../../../assets/tk/xianxia/tiles.png","imagewidth":64,"imageheight":80},{"firstgid":39,"name":"_swatch","tilewidth":16,"tileheight":16,"columns":64,"tilecount":64,"margin":0,"spacing":0,"image":"swatch.png","imagewidth":1024,"imageheight":16},{"firstgid":103,"name":"n_floor_in","tilewidth":16,"tileheight":16,"columns":22,"tilecount":374,"margin":0,"spacing":0,"image":"../../../../assets/tk/ninja/floor_in.png","imagewidth":352,"imageheight":272},{"firstgid":477,"name":"x_edges","tilewidth":16,"tileheight":16,"columns":30,"tilecount":300,"margin":0,"spacing":0,"image":"../../../../assets/tk/xianxia/edges.png","imagewidth":480,"imageheight":160},{"firstgid":777,"name":"n_wall_in","tilewidth":16,"tileheight":16,"columns":10,"tilecount":110,"margin":0,"spacing":0,"image":"../../../../assets/tk/ninja/wall_in.png","imagewidth":160,"imageheight":176}],"layers":[{"id":1,"name":"ground","type":"tilelayer","width":144,"height":40,"x":0,"y":0,"opacity":1,"visible":true,"data":[13,14,14,14,13,14,14,13,13,13,14,14,13,14,14,14,14,13,13,13,14,14,13,13,14,14,14,13,14,13,13,13,14,14,13,13,13,14,13,14,13,14,14,13,14,14,14,13,14,13,14,13,13,13,14,14,14,14,14,13,14,14,14,14,14,13,13,14,13,13,13,14,14,14,13,13,13,14,14,13,13,14,14,13,14,13,14,13,13,14,14,13,14,14,13,14,13,14,13,13,13,14,13,14,13,13,14,14,14,14,14,13,13,14,13,14,14,14,14,13,4,3,4,4,3,4,4,3,3,3,3,3,3,4,4,4,3,4,4,3,4,4,3,4,14,14,13,14,13,13,13,13,13,14,14,14,14,13,13,14,14,14,13,14,14,13,14,14,14,14,14,14,13,13,14,14,13,14,13,14,14,14,14,14,14,14,13,14,13,14,14,14,13,13,13,14,13,13,13,14,14,13,13,14,13,13,14,13,14,14,14,13,13,13,14,13,13,13,13,14,13,14,14,14,14,13,13,14,14,13,14,13,13,13,14,14,13,13,14,13,13,13,14,13,14,13,14,13,14,13,14,13,14,14,13,14,14,14,14,14,14,13,14,14,4,3,4,4,4,4,4,4,3,4,3,3,4,3,4,3,4,4,4,3,4,4,3,3,13,14,14,14,13,14,13,14,14,13,14,13,14,13,13,13,13,14,14,13,14,14,13,13,14,13,14,14,13,14,13,13,13,14,13,14,13,13,13,14,13,13,14,13,13,13,14,14,13,14,13,14,14,13,13,13,13,14,13,14,13,13,13,13,14,14,13,13,14,14,14,14,14,13,14,13,13,14,13,13,13,14,14,14,13,13,14,14,14,14,13,13,13,14,14,13,14,13,13,14,13,13,13,13,13,13,14,13,13,14,14,13,13,14,14,13,13,13,14,13,4,4,3,3,3,4,3,3,3,3,4,4,3,3,3,3,3,3,4,3,3,3,3,3,14,13,13,14,14,13,14,13,14,13,14,14,14,13,14,14,14,13,14,14,13,14,13,14,14,13,14,13,14,14,14,14,13,14,14,13,14,13,13,13,14,13,13,13,14,14,14,14,14,14,14,14,14,13,13,13,14,14,14,14,13,13,14,13,13,13,14,13,14,14,13,14,14,14,13,14,14,14,14,14,14,14,14,13,14,14,14,13,14,13,13,14,13,13,14,13,14,14,13,14,13,13,14,14,14,14,13,13,13,13,13,13,14,14,13,13,14,14,13,13,4,4,4,3,3,3,3,3,4,3,4,4,3,3,4,3,3,3,4,3,3,4,4,4,15,16,15,15,20,19,19,22,19,20,21,19,22,22,21,21,22,19,19,19,21,19,22,19,19,19,20,19,21,21,20,21,15,15,15,15,15,16,16,15,16,16,16,16,16,16,15,16,15,15,16,16,15,15,15,15,16,15,16,16,16,16,16,16,16,16,16,15,15,16,15,15,16,15,15,15,15,15,15,16,16,16,16,15,15,16,16,15,16,15,16,16,15,15,15,15,16,16,15,15,15,15,15,15,15,15,16,16,15,16,16,15,16,15,15,16,15,16,16,16,4,4,4,3,4,4,4,3,4,3,4,3,4,4,4,3,3,4,4,4,4,4,3,4,15,16,16,16,20,19,19,21,20,20,22,22,21,19,19,19,19,21,19,21,19,21,19,19,22,19,19,21,19,21,21,20,15,15,16,16,15,16,16,16,16,15,15,16,16,16,16,15,15,15,15,15,15,16,16,16,15,16,16,16,15,16,16,15,16,15,16,16,16,16,15,16,15,15,16,15,16,15,15,15,15,16,15,15,16,16,16,15,15,16,15,15,15,16,15,16,15,16,16,16,16,15,16,15,15,16,16,15,16,16,16,15,16,15,15,15,15,15,16,16,4,4,4,4,3,3,3,3,4,4,3,4,3,3,4,4,4,3,3,4,3,3,4,3,16,15,16,16,19,19,19,20,21,19,21,19,21,19,19,19,20,20,21,19,22,21,19,22,19,19,20,19,22,19,19,19,15,15,15,15,16,16,15,16,16,15,16,16,15,16,15,16,16,16,16,15,16,15,15,15,16,15,15,16,15,15,16,16,15,16,15,16,16,15,15,15,15,16,16,15,15,16,16,15,16,16,15,15,15,16,16,15,15,15,15,16,16,16,15,15,15,15,16,16,15,15,16,16,15,15,16,16,15,15,16,16,15,16,16,15,16,16,16,15,3,3,3,4,3,3,3,3,4,4,4,3,3,4,3,3,3,4,4,3,4,3,3,4,16,15,16,16,19,19,19,22,21,21,19,22,22,21,20,19,19,21,19,22,19,19,19,19,19,19,20,19,19,19,19,19,16,15,16,16,16,15,15,15,16,16,15,16,15,16,16,16,16,15,15,15,16,16,15,15,16,15,16,16,15,15,16,15,15,16,16,16,15,16,15,16,16,15,16,15,16,15,16,15,15,15,16,16,16,16,16,15,15,16,15,15,15,16,15,16,16,15,16,15,15,15,16,16,16,16,15,16,15,16,15,15,15,15,16,16,15,15,16,15,4,3,4,3,4,4,3,4,3,4,4,4,3,3,3,4,3,3,3,3,3,3,4,3,16,16,15,15,19,20,20,19,19,22,19,22,20,21,19,19,20,19,19,20,22,22,19,19,19,19,21,19,22,19,20,20,16,15,16,16,16,16,16,15,15,16,16,15,15,16,16,15,15,16,15,16,15,15,16,15,16,15,15,15,16,15,16,15,16,15,15,15,16,16,16,15,15,15,16,15,16,15,16,15,15,15,15,16,16,16,16,16,16,16,16,16,15,16,15,15,15,15,15,15,15,16,16,16,15,16,15,16,16,16,16,16,16,16,15,15,16,15,16,16,15,16,16,16,16,15,15,16,15,16,15,15,16,16,15,16,15,16,15,16,15,15,16,16,15,16,16,15,19,22,22,19,22,21,19,19,19,22,19,22,19,20,19,19,21,20,19,19,20,21,21,19,19,19,19,21,15,15,15,15,15,16,15,16,15,15,15,16,15,16,15,16,16,15,15,16,15,15,16,15,15,16,15,15,15,16,15,15,15,16,16,16,16,15,16,16,15,16,16,16,16,15,15,15,15,15,15,15,16,15,15,16,15,16,16,15,15,15,15,15,16,15,15,16,16,15,16,15,16,15,16,15,15,16,16,16,16,15,16,16,15,16,15,16,16,16,16,16,16,16,16,15,15,15,16,16,16,15,15,15,15,15,16,16,15,16,15,16,16,15,16,15,19,19,19,21,19,22,21,20,20,20,19,20,19,21,21,20,20,19,19,22,22,20,19,19,19,22,19,22,15,15,16,16,15,16,16,16,15,15,16,15,15,15,16,15,15,15,16,16,16,15,16,16,15,16,15,16,16,16,15,15,15,16,15,15,15,16,15,16,15,15,15,15,15,16,16,16,16,16,15,16,16,15,15,16,16,16,15,16,15,16,16,15,15,16,15,15,16,15,16,15,15,16,15,15,16,15,15,15,15,16,15,15,16,15,16,16,16,15,16,15,16,16,16,15,16,16,15,15,16,15,15,16,16,15,16,16,15,16,16,16,16,15,16,15,21,19,19,20,22,21,21,21,22,19,22,19,20,19,22,19,22,19,20,19,21,21,21,20,19,22,19,20,16,16,16,16,15,16,16,16,16,15,15,16,15,16,16,15,15,15,16,16,16,16,15,16,16,15,15,15,15,15,16,16,16,15,16,16,16,16,15,16,15,16,15,16,16,15,15,16,15,16,16,15,16,16,16,15,15,16,16,16,15,16,15,15,15,16,15,15,16,16,15,15,16,16,15,15,16,15,15,16,15,16,15,15,16,16,15,15,16,16,15,16,16,15,15,15,16,15,15,15,16,16,15,15,16,16,15,15,15,16,16,16,15,16,16,16,19,21,22,19,19,19,20,22,20,22,20,19,22,22,22,22,19,19,19,21,20,21,21,19,22,22,21,19,16,16,16,15,16,16,16,15,15,15,15,15,15,15,16,15,16,16,15,15,16,15,16,15,15,16,16,16,16,16,15,16,15,16,15,15,16,16,16,15,16,15,15,16,15,16,16,16,16,15,16,16,15,15,16,15,15,16,15,16,15,15,15,16,15,15,15,16,15,16,15,16,16,16,16,15,16,15,15,16,16,15,15,16,16,16,15,15,15,16,15,16,16,15,16,15,16,16,16,16,15,16,15,15,16,16,15,16,16,15,15,15,16,16,16,16,19,21,19,19,20,20,19,19,21,22,20,19,19,19,19,19,19,22,19,19,19,21,19,20,22,22,21,19,16,16,15,15,16,16,16,16,16,16,15,16,15,15,16,15,16,16,16,16,15,16,16,16,15,16,15,15,16,15,16,16,15,16,16,16,15,16,15,16,15,15,16,16,15,15,15,15,16,15,16,16,16,15,15,15,15,16,15,16,16,15,16,16,15,15,16,16,16,15,15,15,15,15,16,15,16,16,16,15,16,15,15,16,15,15,15,15,16,16,15,15,15,15,16,16,16,16,16,15,16,16,16,15,15,16,15,15,16,15,15,15,15,16,15,15,22,22,21,19,20,19,20,21,20,22,22,22,19,22,19,21,19,19,22,19,20,19,22,20,21,20,19,21,15,15,15,16,15,16,16,16,16,16,16,16,15,16,16,15,16,16,16,15,15,15,16,16,15,15,16,15,16,16,16,16,16,15,15,16,16,16,16,15,15,16,15,16,15,15,16,15,15,15,15,16,16,16,15,15,15,15,16,16,16,15,16,16,15,15,15,16,16,15,15,16,15,15,15,16,15,15,15,15,15,15,15,15,16,15,16,16,16,16,15,15,16,16,16,15,16,15,15,16,15,15,15,16,16,16,16,15,15,16,15,16,16,15,15,15,20,22,21,19,19,20,22,22,22,19,19,19,19,21,20,19,19,19,21,19,19,20,20,21,19,19,21,21,15,15,16,15,16,15,16,15,15,15,15,16,16,16,15,16,16,15,15,16,15,15,15,15,16,15,16,16,16,16,15,16,16,16,15,15,15,15,15,16,16,16,15,15,16,15,15,15,15,15,15,16,15,16,16,16,16,15,16,15,15,16,15,15,15,15,16,15,16,16,15,16,16,15,15,15,15,16,15,16,16,16,15,16,15,15,16,16,15,16,16,16,15,16,16,16,16,15,15,16,15,15,15,15,15,16,16,16,15,16,15,16,16,15,15,15,20,19,19,20,19,19,20,21,21,21,21,19,19,22,19,19,22,19,19,20,20,19,20,19,19,19,19,19,16,16,15,16,16,15,15,15,19,19,19,19,21,20,19,22,19,21,19,19,19,19,19,21,19,20,20,19,21,22,21,19,19,19,19,20,21,21,22,19,19,22,21,19,19,21,19,22,19,22,20,22,19,21,21,19,21,22,19,21,16,15,15,15,15,15,16,16,15,16,15,15,15,16,16,16,15,15,15,15,15,16,15,15,16,15,15,16,15,16,16,16,15,16,16,16,16,16,15,15,16,16,16,16,15,16,16,16,15,16,15,16,16,15,16,16,19,19,19,20,22,21,19,20,20,21,20,19,20,21,19,22,19,19,19,20,20,22,20,20,22,20,20,22,15,16,16,15,15,16,16,16,22,20,19,19,19,19,20,19,20,22,19,19,19,22,20,22,19,20,19,20,19,19,19,20,20,22,20,19,21,19,19,19,19,19,19,22,19,19,21,19,19,19,20,19,19,19,22,19,19,19,19,19,16,16,15,16,16,15,15,16,15,16,16,16,15,16,15,15,16,16,15,16,15,15,15,16,16,16,15,15,16,16,15,15,16,16,16,15,16,15,15,16,15,15,16,15,15,16,15,15,15,16,16,16,16,16,15,16,22,19,19,21,22,22,19,19,19,19,22,19,19,20,21,20,21,19,21,22,22,19,22,21,19,20,22,19,16,16,15,15,16,16,15,15,19,19,19,19,19,20,19,19,22,19,19,22,19,19,21,22,20,22,20,19,21,19,19,19,19,19,19,19,19,19,19,19,19,20,21,19,19,21,19,19,19,22,21,19,19,22,19,22,19,20,22,21,16,15,15,15,16,15,16,16,15,15,16,15,16,15,15,15,16,15,16,15,16,16,15,16,16,16,15,16,16,16,16,15,15,15,15,15,16,16,16,16,16,16,16,15,16,15,16,16,16,15,15,15,16,15,15,16,19,19,19,21,22,21,19,19,20,20,20,22,19,21,22,19,19,19,20,20,19,22,19,22,22,19,19,21,16,15,16,16,15,16,15,15,19,20,19,19,21,21,20,19,19,19,21,19,20,20,21,21,21,20,19,22,22,19,19,22,20,22,20,20,21,21,19,22,22,19,19,21,19,19,20,22,22,20,21,22,19,19,19,19,22,19,22,19,16,16,15,16,16,15,15,15,15,15,15,16,16,15,15,16,15,15,16,15,16,15,16,16,15,15,16,16,16,15,16,16,15,15,15,16,16,15,16,15,16,15,15,15,16,16,16,16,15,16,15,16,19,19,22,20,19,19,19,19,22,21,21,22,19,19,22,22,21,21,22,19,20,19,20,19,19,19,19,19,20,22,19,19,22,19,19,21,21,22,19,21,21,19,22,19,15,16,16,16,15,16,15,16,15,16,15,16,15,15,15,16,16,16,16,16,16,15,15,16,16,15,16,16,16,16,16,15,15,16,15,15,16,15,15,16,16,15,16,16,21,19,19,19,19,19,19,22,19,22,21,20,21,20,20,19,22,19,20,22,19,22,22,19,19,20,19,21,19,20,21,19,19,19,19,19,19,20,21,19,20,22,21,20,19,22,20,19,22,19,19,19,21,19,19,19,19,19,19,19,19,22,21,21,19,22,19,21,20,19,21,19,19,22,19,20,19,19,19,19,19,22,20,20,21,22,20,21,19,22,21,21,20,19,19,21,19,19,19,21,16,15,16,16,15,16,16,15,16,15,16,16,16,15,15,15,15,15,16,16,15,16,15,16,15,15,16,16,16,15,15,15,16,15,15,15,16,15,16,16,16,15,16,16,19,21,20,19,19,19,21,20,20,21,19,20,19,19,20,19,20,19,20,21,22,22,19,19,22,21,19,21,21,19,19,21,19,22,21,19,22,19,19,22,20,19,21,20,19,22,21,19,19,19,19,19,22,21,22,21,20,20,20,19,19,19,19,19,19,20,19,19,19,19,21,19,21,19,19,19,22,19,22,19,20,21,21,22,19,19,19,19,19,19,19,21,19,22,22,19,22,21,20,19,15,16,15,16,15,16,15,15,15,16,16,16,15,16,16,16,15,16,16,15,15,16,15,15,15,16,16,15,16,16,16,15,15,16,16,16,16,15,15,15,15,16,16,15,19,21,20,21,20,21,21,21,19,19,19,20,19,19,19,22,20,19,21,20,19,22,22,19,22,19,20,21,22,19,22,21,22,21,21,19,19,22,19,19,19,19,19,19,19,22,19,19,22,21,20,20,19,21,19,19,20,20,22,19,19,19,19,20,21,19,19,19,21,22,21,19,20,20,19,19,20,20,19,22,19,21,19,22,19,20,20,19,21,20,20,22,19,22,19,19,19,22,20,22,16,15,15,15,15,16,15,15,16,15,16,15,15,15,15,15,16,15,16,15,16,15,16,39,39,39,39,39,39,392,392,39,39,39,39,39,39,16,16,15,16,15,15,16,19,21,20,21,21,19,19,20,19,22,19,19,22,21,19,19,22,22,21,19,21,22,19,22,19,22,22,20,21,20,22,19,20,21,19,21,22,19,20,19,19,20,19,19,20,21,19,20,19,20,19,22,20,19,20,19,16,15,15,15,15,16,16,15,16,15,15,15,15,15,15,15,16,15,15,16,16,16,15,16,15,16,16,15,16,16,15,15,16,16,15,15,16,15,16,15,15,16,16,16,16,15,16,16,16,15,15,15,15,16,16,15,15,16,15,15,16,15,16,15,16,16,15,39,392,392,392,392,392,392,392,392,392,392,392,392,39,15,16,16,16,15,15,15,15,16,15,15,16,16,15,16,16,15,15,16,16,15,15,16,16,15,15,15,16,15,16,16,15,15,16,16,15,15,15,16,15,15,15,15,16,15,15,15,15,16,16,15,16,15,16,15,16,15,15,15,15,16,16,16,16,15,15,15,16,15,16,15,15,16,15,15,16,15,15,15,15,15,15,15,16,16,15,15,16,16,15,15,16,15,15,16,16,16,15,15,15,15,16,15,16,15,15,15,15,15,15,15,15,15,15,15,15,16,16,16,16,15,15,16,15,16,16,16,16,15,16,39,392,392,392,392,392,392,392,392,392,392,392,392,39,15,15,15,15,16,16,16,15,15,15,15,15,16,16,16,15,15,16,16,16,16,15,15,15,15,16,15,16,15,16,15,15,16,16,15,16,16,16,15,16,15,16,15,16,16,15,15,16,15,15,16,16,15,16,15,15,16,16,15,16,16,16,15,15,16,15,15,15,16,16,15,16,15,15,16,15,15,15,15,15,16,15,15,15,16,16,15,16,15,15,15,15,15,16,15,15,16,16,16,16,15,15,15,15,16,15,15,15,16,16,16,15,16,16,15,16,15,15,16,15,15,16,15,15,16,15,16,15,15,16,39,392,392,392,392,392,392,392,392,392,392,392,392,39,16,16,15,16,15,16,16,15,15,16,15,15,15,16,16,15,15,16,15,16,15,15,15,15,16,16,15,15,15,15,15,16,15,15,15,16,16,16,16,15,15,15,16,16,16,15,16,16,15,15,15,15,16,16,15,15,15,16,15,15,15,16,16,15,15,15,16,16,15,16,16,16,15,15,15,16,15,16,15,16,16,16,15,16,16,16,16,15,16,16,15,16,15,16,16,16,15,15,15,15,15,16,16,16,15,16,15,15,15,16,16,16,15,16,15,16,15,15,15,15,16,15,15,15,16,15,16,16,15,15,39,392,392,392,392,392,392,392,392,392,392,392,392,39,15,16,16,15,16,15,15,16,16,16,16,16,16,15,15,16,15,15,16,16,15,16,15,16,16,16,15,16,15,16,16,16,15,15,15,15,16,15,15,15,15,15,15,15,15,15,15,15,15,16,16,16,16,16,16,16,16,15,16,16,15,16,16,15,16,15,16,16,16,15,16,16,15,15,16,16,15,15,15,15,16,16,16,16,16,15,16,15,16,15,16,15,16,16,16,16,15,15,16,16,16,15,15,16,15,16,16,15,16,15,15,15,15,16,15,15,15,16,16,16,15,16,16,15,15,16,16,15,15,15,39,392,392,392,392,392,392,392,392,392,392,392,392,39,15,15,16,15,16,16,15,15,16,15,15,15,16,16,16,16,16,15,16,15,15,16,15,16,15,15,16,15,15,15,16,15,16,15,15,15,16,15,15,16,16,15,15,16,15,16,15,16,16,16,16,16,15,15,16,16,15,16,16,16,15,15,16,15,15,15,15,15,16,15,15,16,15,16,15,15,15,15,16,15,15,16,15,15,16,15,15,16,16,15,16,15,16,15,15,16,15,16,15,16,15,16,16,15,15,15,16,15,15,16,15,15,15,15,16,16,15,15,15,16,16,15,16,16,15,16,15,16,15,15,39,392,392,392,392,392,392,392,392,392,392,392,392,39,16,15,16,15,15,15,15,16,15,15,16,15,15,15,16,16,15,15,16,15,16,15,15,15,15,16,15,16,16,16,15,15,16,16,15,15,15,16,16,16,15,16,15,16,16,15,16,15,16,16,16,15,15,15,16,15,15,16,16,16,16,16,15,16,15,16,16,16,16,15,16,15,15,15,15,15,16,15,16,15,15,15,16,16,16,15,16,16,15,16,15,15,15,15,16,16,16,15,15,15,15,16,15,16,16,16,15,16,15,15,16,16,15,16,16,16,15,15,16,15,15,15,15,16,15,15,16,15,16,16,39,392,392,392,392,392,392,392,392,392,392,392,392,39,15,16,16,16,15,16,15,16,15,16,16,16,15,15,15,15,15,15,16,15,15,16,16,15,16,16,16,15,15,15,15,15,16,16,16,15,16,15,15,15,16,15,15,16,16,15,16,15,15,16,16,16,16,15,15,16,16,15,15,16,16,15,16,16,16,16,15,16,16,15,15,16,16,16,16,16,16,15,16,16,16,16,16,16,16,16,16,15,16,15,15,16,15,15,16,16,16,15,15,16,16,15,15,15,15,16,16,15,16,15,16,15,16,16,16,16,16,16,15,15,16,16,16,16,15,16,16,16,15,15,39,392,392,392,392,392,392,392,392,392,392,392,392,39,16,16,15,16,15,16,15,16,16,15,16,15,15,16,16,16,16,15,16,16,15,16,15,16,15,15,15,16,16,15,16,16,16,16,15,15,15,16,16,16,16,15,15,15,15,15,15,16,16,16,15,15,15,15,15,16,16,15,15,15,15,15,16,15,15,15,15,16,15,16,15,16,15,16,15,15,15,15,15,16,16,15,15,16,15,16,16,16,16,15,16,16,16,16,16,16,15,15,15,15,16,15,15,16,16,16,15,16,15,15,15,15,16,15,16,16,15,15,16,15,16,15,16,16,16,15,15,16,16,15,39,39,39,39,39,39,39,39,39,39,39,39,39,39,15,15,15,16,16,15,16,16,16,15,16,15,16,16,16,16,16,15,16,16,15,16,16,15,16,15,15,16,16,15,15,16,16,15,15,16,15,15,16,3,3,4,3,3,4,4,3,3,3,3,4,4,4,4,4,3,4,3,3,3,3,3,3,16,16,15,15,15,15,16,16,15,15,16,15,16,15,16,15,16,15,15,16,15,15,15,16,16,16,15,15,16,16,15,16,15,15,15,16,16,15,16,16,15,16,15,16,15,16,16,16,15,15,16,15,15,15,15,15,15,15,15,15,16,16,15,16,15,15,16,15,16,15,15,16,15,16,16,15,16,16,16,15,16,15,15,15,16,15,15,16,15,15,16,15,15,15,15,15,15,16,15,16,16,15,16,16,16,16,16,15,16,15,16,15,15,16,16,15,16,15,16,15,4,3,3,3,3,3,3,3,4,4,3,3,3,3,4,3,3,4,4,3,4,4,3,4,15,15,15,16,16,16,15,16,16,15,16,16,16,15,16,15,16,15,16,16,16,15,15,15,15,15,15,16,16,16,16,15,15,15,16,15,16,16,16,16,15,16,16,15,15,15,15,15,15,16,15,16,16,15,15,16,15,16,15,16,16,15,16,15,15,15,16,15,16,16,15,16,15,16,16,15,15,16,16,15,16,15,16,15,16,16,15,15,15,15,15,15,16,15,16,15,16,15,16,15,15,15,16,16,15,16,15,15,15,15,15,15,15,16,15,16,15,16,15,15,4,4,4,4,3,4,4,4,3,3,3,4,4,3,4,4,4,4,3,4,3,3,3,4,15,16,16,16,16,16,15,16,16,15,16,15,16,15,16,16,15,15,15,15,16,16,16,16,16,15,16,16,15,16,15,15,15,15,16,15,16,16,16,15,15,15,15,16,15,16,15,16,15,16,16,16,16,15,16,15,16,15,16,16,15,15,15,15,16,16,16,16,16,15,15,15,15,15,16,16,15,16,16,16,15,15,16,15,15,16,15,16,15,15,16,15,16,16,15,15,15,16,15,16,15,16,15,16,16,15,15,15,16,15,15,16,15,15,15,15,16,15,16,15,3,4,3,3,4,4,4,4,3,4,3,3,4,3,3,3,3,4,3,4,4,3,3,3,14,14,14,13,14,14,14,14,13,14,13,13,13,14,14,14,13,14,14,13,13,13,13,14,14,13,14,14,13,14,14,14,13,14,13,13,14,14,13,13,14,14,13,14,14,13,14,13,13,13,14,14,14,14,13,13,14,14,14,13,14,14,13,14,14,14,14,13,13,13,13,14,13,13,14,14,14,13,13,13,13,13,13,13,14,13,13,14,14,14,13,13,13,14,14,13,13,13,14,13,13,13,14,14,13,13,14,14,13,14,14,14,14,13,14,13,13,13,13,13,3,4,4,3,3,3,4,3,3,4,4,4,3,3,3,3,3,3,4,4,4,4,4,4,13,14,13,14,13,13,13,13,13,14,13,14,13,13,13,13,14,13,13,14,14,13,13,14,14,13,13,13,13,14,14,14,13,14,14,14,13,13,13,13,14,13,13,13,14,14,14,14,13,14,14,13,13,13,13,13,14,13,13,13,14,14,13,13,13,13,14,13,14,13,14,13,13,13,14,14,13,14,13,14,13,14,14,13,14,13,14,14,13,14,14,13,13,13,14,14,14,13,14,14,14,14,14,14,13,14,13,13,14,14,13,13,14,14,13,14,13,13,13,14,3,4,3,4,3,3,3,4,3,3,3,4,4,3,3,4,4,4,3,4,4,3,3,4,14,13,14,13,13,14,13,14,13,14,13,14,14,14,14,14,13,14,14,14,13,14,13,13,14,14,13,13,14,14,13,14,14,14,13,14,14,13,13,13,13,14,13,13,14,14,14,14,14,14,14,13,14,13,14,14,14,13,14,13,13,14,14,13,13,14,13,13,13,14,13,14,13,14,14,13,14,14,13,14,14,13,14,13,14,14,13,14,14,14,13,14,14,13,13,14,13,14,14,14,14,14,14,14,13,13,13,13,13,13,13,13,14,14,14,13,14,13,14,13,3,3,4,3,4,4,3,4,3,3,4,3,3,4,4,3,3,4,4,3,4,4,4,3,14,13,14,13,13,13,13,14,14,13,14,14,14,14,14,13,14,13,13,13,14,14,13,14,13,13,13,14,14,13,14,14,14,14,14,14,14,13,13,13,14,14,14,14,14,13,13,14,13,13,14,14,14,14,14,13,13,13,14,14,14,14,14,13,14,14,13,13,13,13,14,14,14,13,14,13,13,13,14,14,13,13,13,14,14,13,14,14,14,14,13,14,14,13,13,14,13,14,14,13,14,13,14,14,14,13,13,14,13,13,13,13,13,13,13,14,14,14,14,14,4,4,4,4,3,3,3,4,3,3,3,4,4,4,3,4,3,4,4,3,3,3,4,4]},{"id":2,"name":"dirt","type":"tilelayer","width":144,"height":40,"x":0,"y":0,"opacity":1,"visible":true,"data":[0,0,0,0,0,0,0,0,0,0,0,0,0,0,0,0,0,0,0,0,0,0,0,0,0,0,0,0,0,0,0,0,0,0,0,0,0,0,0,0,0,0,0,0,0,0,0,0,0,0,0,0,0,0,0,0,0,0,0,0,0,0,0,0,0,0,0,0,0,0,0,0,0,0,0,0,0,0,0,0,0,0,0,0,0,0,0,0,0,0,0,0,0,0,0,0,0,0,0,0,0,0,0,0,0,0,0,0,0,0,0,0,0,0,0,0,0,0,0,0,0,0,0,0,0,0,0,0,0,0,0,0,0,0,0,0,0,0,0,0,0,0,0,0,0,0,0,0,0,0,0,0,0,0,0,0,0,0,0,0,0,0,0,0,0,0,0,0,0,0,0,0,0,0,0,0,0,0,0,0,0,0,0,0,0,0,0,0,0,0,0,0,0,0,0,0,0,0,0,0,0,0,0,0,0,0,0,0,0,0,0,0,0,0,0,0,0,0,0,0,0,0,0,0,0,0,0,0,0,0,0,0,0,0,0,0,0,0,0,0,0,0,0,0,0,0,0,0,0,0,0,0,0,0,0,0,0,0,0,0,0,0,0,0,0,0,0,0,0,0,0,0,0,0,0,0,0,0,0,0,0,0,0,0,0,0,0,0,0,0,0,0,0,0,0,0,0,0,0,0,0,0,0,0,0,0,0,0,0,0,0,0,0,0,0,0,0,0,0,0,0,0,0,0,0,0,0,0,0,0,0,0,0,0,0,0,0,0,0,0,0,0,0,0,0,0,0,0,0,0,0,0,0,0,0,0,0,0,0,0,0,0,0,0,0,0,0,0,0,0,0,0,0,0,0,0,0,0,0,0,0,0,0,0,0,0,0,0,0,0,0,0,0,0,0,0,0,0,0,0,0,0,0,0,0,0,0,0,0,0,0,0,0,0,0,0,0,0,0,0,0,0,0,0,0,0,0,0,0,0,0,0,0,0,0,0,0,0,0,0,0,0,0,0,0,0,0,0,0,0,0,0,0,0,0,0,0,0,0,0,0,0,0,0,0,0,0,0,0,0,0,0,0,0,0,0,0,0,0,0,0,0,0,0,0,0,0,0,0,0,0,0,0,0,0,0,0,0,0,0,0,0,0,0,0,0,0,0,0,0,0,0,0,0,0,0,0,0,0,0,0,0,0,0,0,0,0,0,0,0,0,0,0,0,0,0,0,0,0,0,0,0,0,0,0,0,0,0,0,0,0,0,0,0,0,0,0,0,0,0,0,0,0,0,0,0,0,0,0,0,0,0,0,0,0,0,0,0,0,0,546,665,666,666,666,666,666,665,666,665,666,666,665,666,665,665,666,665,666,666,665,666,666,665,666,665,666,573,0,0,0,0,0,0,0,0,0,0,0,0,0,0,0,0,0,0,0,0,0,0,0,0,0,0,0,0,0,0,0,0,0,0,0,0,0,0,0,0,0,0,0,0,0,0,0,0,0,0,0,0,0,0,0,0,0,0,0,0,0,0,0,0,0,0,0,0,0,0,0,0,0,0,0,0,0,0,0,0,0,0,0,0,0,0,0,0,0,0,0,0,0,0,0,0,0,0,0,0,0,0,0,0,0,0,0,0,0,0,0,0,0,0,0,0,636,749,749,749,749,749,749,749,749,749,749,749,749,749,749,749,749,749,749,749,749,749,749,749,749,749,749,688,0,0,0,0,0,0,0,0,0,0,0,0,0,0,0,0,0,0,0,0,0,0,0,0,0,0,0,0,0,0,0,0,0,0,0,0,0,0,0,0,0,0,0,0,0,0,0,0,0,0,0,0,0,0,0,0,0,0,0,0,0,0,0,0,0,0,0,0,0,0,0,0,0,0,0,0,0,0,0,0,0,0,0,0,0,0,0,0,0,0,0,0,0,0,0,0,0,0,0,0,0,0,0,0,0,0,0,0,0,0,0,0,0,0,0,0,636,749,749,749,749,749,749,749,749,749,749,749,749,749,749,749,749,749,749,749,749,749,749,749,749,749,749,688,0,0,0,0,0,0,0,0,0,0,0,0,0,0,0,0,0,0,0,0,0,0,0,0,0,0,0,0,0,0,0,0,0,0,0,0,0,0,0,0,0,0,0,0,0,0,0,0,0,0,0,0,0,0,0,0,0,0,0,0,0,0,0,0,0,0,0,0,0,0,0,0,0,0,0,0,0,0,0,0,0,0,0,0,0,0,0,0,0,0,0,0,0,0,0,0,0,0,0,0,0,0,0,0,0,0,0,0,0,0,0,0,0,0,0,0,635,749,749,749,749,749,749,749,749,749,749,749,749,749,749,749,749,749,749,749,749,749,749,749,749,749,749,688,0,0,0,0,0,0,0,0,0,0,0,0,0,0,0,0,0,0,0,0,0,0,0,0,0,0,0,0,0,0,0,0,0,0,0,0,0,0,0,0,0,0,0,0,0,0,0,0,0,0,0,0,0,0,0,0,0,0,0,0,0,0,0,0,0,0,0,0,0,0,0,0,0,0,0,0,0,0,0,0,0,0,0,0,0,0,0,0,0,0,0,0,0,0,0,0,0,0,0,0,0,0,0,0,0,0,0,0,0,0,0,0,0,0,0,0,635,749,749,749,749,749,749,749,749,749,749,749,749,749,749,749,749,749,749,749,749,749,749,749,749,749,749,688,0,0,0,0,0,0,0,0,0,0,0,0,0,0,0,0,0,0,0,0,0,0,0,0,0,0,0,0,0,0,0,0,0,0,0,0,0,0,0,0,0,0,0,0,0,0,0,0,0,0,0,0,0,0,0,0,0,0,0,0,0,0,0,0,0,0,0,0,0,0,0,0,0,0,0,0,0,0,0,0,0,0,0,0,0,0,0,0,0,0,0,0,0,0,0,0,0,0,0,0,0,0,0,0,0,0,0,0,0,0,0,0,0,0,0,0,635,749,749,749,749,749,749,749,749,749,749,749,749,749,749,749,749,749,749,749,749,749,749,749,749,749,749,688,0,0,0,0,0,0,0,0,0,0,0,0,0,0,0,0,0,0,0,0,0,0,0,0,0,0,0,0,0,0,0,0,0,0,0,0,0,0,0,0,0,0,0,0,0,0,0,0,0,0,0,0,0,0,0,0,0,0,0,0,0,0,0,0,0,0,0,0,0,0,0,0,0,0,0,0,0,0,0,0,0,0,0,0,0,0,0,0,0,0,0,0,0,0,0,0,0,0,0,0,0,0,0,0,0,0,0,0,0,0,0,0,0,0,0,0,635,749,749,749,749,749,749,749,749,749,749,749,749,749,749,749,749,749,749,749,749,749,749,749,749,749,749,687,0,0,0,0,0,0,0,0,0,0,0,0,0,0,0,0,0,0,0,0,0,0,0,0,0,0,0,0,0,0,0,0,0,0,0,0,0,0,0,0,0,0,0,0,0,0,0,0,0,0,0,0,0,0,0,0,0,0,0,0,0,0,0,0,0,0,0,0,0,0,0,0,0,0,0,0,0,0,0,0,0,0,0,0,0,0,0,0,0,0,0,0,0,0,0,0,0,0,0,0,0,0,0,0,0,0,0,0,0,0,0,0,0,0,0,0,635,749,749,749,749,749,749,749,749,749,749,749,749,749,749,749,749,749,749,749,749,749,749,749,749,749,749,687,0,0,0,0,0,0,0,0,0,0,0,0,0,0,0,0,0,0,0,0,0,0,0,0,0,0,0,0,0,0,0,0,0,0,0,0,0,0,0,0,0,0,0,0,0,0,0,0,0,0,0,0,0,0,0,0,0,0,0,0,0,0,0,0,0,0,0,0,0,0,0,0,0,0,0,0,0,0,0,0,0,0,0,0,0,0,0,0,0,0,0,0,0,0,0,0,0,0,0,0,0,0,0,0,0,0,0,0,0,0,0,0,0,0,0,0,636,749,749,749,749,749,749,749,749,749,749,749,749,749,749,749,749,749,749,749,749,749,749,749,749,749,749,688,0,0,0,0,0,0,0,0,0,0,0,0,0,0,0,0,0,0,0,0,0,0,0,0,0,0,0,0,0,0,0,0,0,0,0,0,0,0,0,0,0,0,0,0,0,0,0,0,0,0,0,0,0,0,0,0,0,0,0,0,0,0,0,0,0,0,0,0,0,0,0,0,0,0,0,0,0,0,0,0,0,0,0,0,0,0,0,0,0,0,0,0,0,0,0,0,0,0,0,0,0,0,0,0,0,0,0,0,0,0,0,0,0,0,0,0,635,749,749,749,749,749,749,749,749,749,749,749,749,749,749,749,749,749,749,749,749,749,749,749,749,749,749,688,0,0,0,0,0,0,0,0,0,0,0,0,0,0,0,0,0,0,0,0,0,0,0,0,0,0,0,0,0,0,0,0,0,0,0,0,0,0,0,0,0,0,0,0,0,0,0,0,0,0,0,0,0,0,0,0,0,0,0,0,0,0,0,0,0,0,0,0,0,0,0,0,0,0,0,0,0,0,0,0,0,0,0,0,0,0,0,0,0,0,0,0,0,0,0,0,0,0,0,0,0,0,0,0,0,0,0,0,0,0,0,0,0,0,0,0,635,749,749,749,749,749,749,749,749,749,749,749,749,749,749,749,749,749,749,749,749,749,749,749,749,749,749,687,0,0,0,0,0,0,0,0,0,0,0,0,0,0,0,0,0,0,0,0,0,0,0,0,0,0,0,0,0,0,0,0,0,0,0,0,0,0,0,0,0,0,0,0,0,0,0,0,0,0,0,0,0,0,0,0,0,0,0,0,0,0,0,0,0,0,0,0,0,0,0,0,0,0,0,0,0,0,0,0,0,0,0,0,0,0,0,0,0,0,0,0,0,0,0,0,0,0,0,0,0,0,0,0,0,0,0,0,0,0,0,0,0,0,0,0,636,749,749,749,749,749,749,749,749,749,749,749,749,749,749,749,749,749,749,749,749,749,749,749,749,749,749,687,0,0,0,0,0,0,0,0,0,0,0,0,0,0,0,0,0,0,0,0,0,0,0,0,0,0,0,0,0,0,0,0,0,0,0,0,0,0,0,0,0,0,0,0,0,0,0,0,0,0,0,0,0,0,0,0,0,0,0,0,0,0,0,0,0,0,0,0,0,0,0,0,0,0,0,0,0,0,0,0,0,0,0,0,0,0,0,0,0,0,0,0,0,0,0,0,0,0,0,0,0,0,0,0,0,0,0,0,0,0,0,0,0,0,0,0,636,749,749,749,749,749,749,749,749,749,749,749,749,749,749,749,749,749,749,749,749,749,749,749,749,749,749,687,0,0,0,0,0,0,0,0,545,666,665,665,666,665,666,666,666,665,665,666,666,665,666,666,665,666,665,666,665,666,666,665,665,666,666,665,665,666,666,666,665,666,665,665,665,665,666,665,665,666,665,665,666,665,666,666,666,666,665,573,0,0,0,0,0,0,0,0,0,0,0,0,0,0,0,0,0,0,0,0,0,0,0,0,0,0,0,0,0,0,0,0,0,0,0,0,0,0,0,0,0,0,0,0,0,0,0,0,0,0,0,0,0,0,0,0,635,749,749,749,749,749,749,749,749,749,749,749,749,749,749,749,749,749,749,749,749,749,749,749,749,749,749,687,0,0,0,0,0,0,0,0,636,749,749,749,749,749,749,749,749,749,749,749,749,749,749,749,749,749,749,749,749,749,749,749,749,749,749,749,749,749,749,749,749,749,749,749,749,749,749,749,749,749,749,749,749,749,749,749,749,749,749,687,0,0,0,0,0,0,0,0,0,0,0,0,0,0,0,0,0,0,0,0,0,0,0,0,0,0,0,0,0,0,0,0,0,0,0,0,0,0,0,0,0,0,0,0,0,0,0,0,0,0,0,0,0,0,0,0,636,749,749,749,749,749,749,749,749,749,749,749,749,749,749,749,749,749,749,749,749,749,749,749,749,749,749,687,0,0,0,0,0,0,0,0,635,749,749,749,749,749,749,749,749,749,749,749,749,749,749,749,749,749,749,749,749,749,749,749,749,749,749,749,749,749,749,749,749,749,749,749,749,749,749,749,749,749,749,749,749,749,749,749,749,749,749,688,0,0,0,0,0,0,0,0,0,0,0,0,0,0,0,0,0,0,0,0,0,0,0,0,0,0,0,0,0,0,0,0,0,0,0,0,0,0,0,0,0,0,0,0,0,0,0,0,0,0,0,0,0,0,0,0,636,749,749,749,749,749,749,749,749,749,749,749,749,749,749,749,749,749,749,749,749,749,749,749,749,749,749,688,0,0,0,0,0,0,0,0,636,749,749,724,633,633,634,633,634,634,633,633,634,633,634,633,634,634,634,634,633,634,634,634,634,633,634,634,634,634,633,634,634,633,634,634,633,633,633,634,634,633,633,633,633,634,633,633,721,749,749,687,0,0,0,0,0,0,0,0,0,0,0,0,0,0,0,0,0,0,0,0,0,0,0,0,0,0,0,0,0,0,0,0,0,0,0,0,0,0,0,0,0,0,0,0,0,0,0,0,0,0,0,0,665,666,665,665,725,749,749,749,749,749,749,749,749,749,749,749,749,749,749,749,749,749,749,749,749,749,749,749,749,749,749,748,666,665,666,665,665,666,666,666,725,749,749,687,0,0,0,0,0,0,0,0,0,0,0,0,0,0,0,0,0,0,0,0,0,0,0,0,0,0,0,0,0,0,0,0,0,0,0,0,0,0,0,0,0,0,0,0,636,749,749,748,665,665,665,665,666,665,665,665,665,666,665,665,665,666,665,666,666,665,665,665,666,665,665,666,666,665,665,665,665,666,665,666,665,666,665,665,666,665,666,665,666,665,666,666,666,665,665,665,666,666,665,666,749,749,749,749,749,749,749,749,749,749,749,749,749,749,749,749,749,749,749,749,749,749,749,749,749,749,749,749,749,749,749,749,749,749,749,749,749,749,749,749,749,749,749,688,0,0,0,0,0,0,0,0,0,0,0,0,0,0,0,0,0,0,0,0,0,0,0,0,0,0,0,0,0,0,0,0,0,0,0,0,0,0,0,0,0,0,0,0,635,749,749,749,749,749,749,749,749,749,749,749,749,749,749,749,749,749,749,749,749,749,749,749,749,749,749,749,749,749,749,749,749,749,749,749,749,749,749,749,749,749,749,749,749,749,749,749,749,749,749,749,749,749,749,749,749,749,749,749,749,749,749,749,749,749,749,749,749,749,749,749,749,749,749,749,749,749,749,749,749,749,749,749,749,749,749,749,749,749,749,749,749,749,749,749,749,749,749,687,0,0,0,0,0,0,0,0,0,0,0,0,0,0,0,0,0,0,0,0,0,0,0,0,0,0,0,0,0,0,0,0,0,0,0,0,0,0,0,0,0,0,0,0,635,749,749,749,749,749,749,749,749,749,749,749,749,749,749,749,749,749,749,749,749,749,749,749,749,749,749,749,749,749,749,749,749,749,749,749,749,749,749,749,749,749,749,749,749,749,749,749,749,749,749,749,749,749,749,749,633,634,634,633,633,634,633,634,634,634,633,633,634,634,633,634,634,633,633,633,634,634,633,634,633,633,634,634,634,633,633,633,633,633,634,633,634,633,634,633,634,634,633,570,0,0,0,0,0,0,0,0,0,0,0,0,0,0,0,0,0,0,0,0,0,0,0,0,0,0,0,0,0,0,0,0,0,0,0,0,0,0,0,0,0,0,0,0,540,634,633,634,633,634,634,634,633,634,633,633,633,634,634,634,633,634,634,634,633,634,633,633,633,634,634,633,633,633,633,634,633,634,633,633,633,634,633,634,634,634,633,634,633,634,633,634,633,634,634,634,633,634,634,634,0,0,0,0,0,0,0,0,0,0,0,0,0,0,0,0,0,0,0,0,0,0,0,0,0,0,0,0,0,0,0,0,0,0,0,0,0,0,0,0,0,0,0,0,0,0,0,0,0,0,0,0,0,0,0,0,0,0,0,0,0,0,0,0,0,0,0,0,0,0,0,0,0,0,0,0,0,0,0,0,0,0,0,0,0,0,0,0,0,0,0,0,0,0,0,0,0,0,0,0,0,0,0,0,0,0,0,0,0,0,0,0,0,0,0,0,0,0,0,0,0,0,0,0,0,0,0,0,0,0,0,0,0,0,0,0,0,0,0,0,0,0,0,0,0,0,0,0,0,0,0,0,0,0,0,0,0,0,0,0,0,0,0,0,0,0,0,0,0,0,0,0,0,0,0,0,0,0,0,0,0,0,0,0,0,0,0,0,0,0,0,0,0,0,0,0,0,0,0,0,0,0,0,0,0,0,0,0,0,0,0,0,0,0,0,0,0,0,0,0,0,0,0,0,0,0,0,0,0,0,0,0,0,0,0,0,0,0,0,0,0,0,0,0,0,0,0,0,0,0,0,0,0,0,0,0,0,0,0,0,0,0,0,0,0,0,0,0,0,0,0,0,0,0,0,0,0,0,0,0,0,0,0,0,0,0,0,0,0,0,0,0,0,0,0,0,0,0,0,0,0,0,0,0,0,0,0,0,0,0,0,0,0,0,0,0,0,0,0,0,0,0,0,0,0,0,0,0,0,0,0,0,0,0,0,0,0,0,0,0,0,0,0,0,0,0,0,0,0,0,0,0,0,0,0,0,0,0,0,0,0,0,0,0,0,0,0,0,0,0,0,0,0,0,0,0,0,0,0,0,0,0,0,0,0,0,0,0,0,0,0,0,0,0,0,0,0,0,0,0,0,0,0,0,0,0,0,0,0,0,0,0,0,0,0,0,0,0,0,0,0,0,0,0,0,0,0,0,0,0,0,0,0,0,0,0,0,0,0,0,0,0,0,0,0,0,0,0,0,0,0,0,0,0,0,0,0,0,0,0,0,0,0,0,0,0,0,0,0,0,0,0,0,0,0,0,0,0,0,0,0,0,0,0,0,0,0,0,0,0,0,0,0,0,0,0,0,0,0,0,0,0,0,0,0,0,0,0,0,0,0,0,0,0,0,0,0,0,0,0,0,0,0,0,0,0,0,0,0,0,0,0,0,0,0,0,0,0,0,0,0,0,0,0,0,0,0,0,0,0,0,0,0,0,0,0,0,0,0,0,0,0,0,0,0,0,0,0,0,0,0,0,0,0,0,0,0,0,0,0,0,0,0,0,0,0,0,0,0,0,0,0,0,0,0,0,0,0,0,0,0,0,0,0,0,0,0,0,0,0,0,0,0,0,0,0,0,0,0,0,0,0,0,0,0,0,0,0,0,0,0,0,0,0,0,0,0,0,0,0,0,0,0,0,0,0,0,0,0,0,0,0,0,0,0,0,0,0,0,0,0,0,0,0,0,0,0,0,0,0,0,0,0,0,0,0,0,0,0,0,0,0,0,0,0,0,0,0,0,0,0,0,0,0,0,0,0,0,0,0,0,0,0,0,0,0,0,0,0,0,0,0,0,0,0,0,0,0,0,0,0,0,0,0,0,0,0,0,0,0,0,0,0,0,0,0,0,0,0,0,0,0,0,0,0,0,0,0,0,0,0,0,0,0,0,0,0,0,0,0,0,0,0,0,0,0,0,0,0,0,0,0,0,0,0,0,0,0,0,0,0,0,0,0,0,0,0,0,0,0,0,0,0,0,0,0,0,0,0,0,0,0,0,0,0,0,0,0,0,0,0,0,0,0,0,0,0,0,0,0,0,0,0,0,0,0,0,0,0,0,0,0,0,0,0,0,0,0,0,0,0,0,0,0,0,0,0,0,0,0,0,0,0,0,0,0,0,0,0,0,0,0,0,0,0,0,0,0,0,0,0,0,0,0,0,0,0,0,0,0,0,0,0,0,0,0,0,0,0,0,0,0,0,0,0,0,0,0,0,0,0,0,0,0,0,0,0,0,0,0,0,0,0,0,0,0,0,0,0,0,0,0,0,0,0,0,0,0,0,0,0,0,0,0,0,0,0,0,0,0,0,0,0,0,0,0,0,0,0,0,0,0,0,0,0,0,0,0,0,0,0,0,0,0,0,0,0,0,0,0,0,0,0,0,0,0,0,0,0,0,0,0,0,0,0,0,0,0,0,0,0,0,0,0,0,0,0,0,0,0,0,0,0,0,0,0,0,0,0,0,0,0,0,0,0,0,0,0,0,0,0,0,0,0,0,0,0,0,0,0,0,0,0,0,0,0,0,0,0,0,0,0,0,0,0,0,0,0,0,0,0,0,0,0,0,0,0,0,0,0,0,0,0,0,0,0,0,0,0,0,0,0,0,0,0,0,0,0,0,0,0,0,0,0,0,0,0,0,0,0,0,0,0,0,0,0,0,0,0,0,0,0,0,0,0,0,0,0,0,0,0,0,0,0,0,0,0,0,0,0,0,0,0,0,0,0,0,0,0,0,0,0,0,0,0,0,0,0,0,0,0,0,0,0,0,0,0,0,0,0,0,0,0,0,0,0,0,0,0,0,0,0,0,0,0,0,0,0,0,0,0,0,0,0,0,0,0,0,0,0,0,0,0,0,0,0,0,0,0,0,0,0,0,0,0,0,0,0,0,0,0,0,0,0,0,0,0,0,0,0,0,0,0,0,0,0,0,0,0,0,0,0,0,0,0,0,0,0,0,0,0,0,0,0,0,0,0,0,0,0,0,0,0,0,0,0,0,0,0,0,0,0,0,0,0,0,0,0,0,0,0,0,0,0,0,0,0,0,0,0,0,0,0,0,0,0,0,0,0,0,0,0,0,0,0,0,0,0,0,0,0,0,0,0,0,0,0,0,0,0,0,0,0,0,0,0,0,0,0,0,0,0,0,0,0,0,0,0,0,0,0,0,0,0,0,0,0,0,0,0,0,0,0,0,0,0,0,0,0,0,0,0,0,0,0,0,0,0,0,0,0,0,0,0,0,0,0,0,0,0,0,0,0,0,0,0,0,0,0,0,0,0,0,0,0,0,0,0,0,0,0,0,0,0,0,0,0,0,0,0,0,0,0,0,0,0,0,0,0,0,0,0,0,0,0,0,0,0,0,0,0,0,0,0,0,0,0,0,0,0,0,0,0,0,0,0,0,0,0,0,0,0,0,0,0,0,0,0,0,0,0,0,0,0,0,0,0,0,0,0,0,0,0,0,0,0,0,0,0,0,0,0,0,0,0,0,0,0,0,0,0,0,0,0,0,0,0,0,0,0,0,0,0,0,0,0,0,0,0,0,0,0,0,0,0,0,0,0,0,0,0,0,0,0,0,0,0,0,0,0,0,0,0,0,0,0,0,0,0,0,0,0,0,0,0,0,0,0,0,0,0,0,0,0,0,0,0,0,0,0,0,0,0,0,0,0,0,0,0,0,0,0,0,0,0,0,0,0,0,0,0,0,0,0,0,0,0,0,0,0,0,0,0,0,0,0,0,0,0,0,0,0,0,0,0,0,0,0,0,0,0,0,0,0,0,0,0,0,0,0,0,0,0,0,0,0,0,0,0,0,0,0,0,0,0,0,0,0,0,0,0,0,0,0,0,0,0,0,0,0,0,0,0,0,0,0,0,0,0,0,0,0,0,0,0,0,0,0,0,0,0,0,0,0,0,0,0,0,0,0,0,0,0,0,0,0,0,0,0,0,0,0,0,0,0,0,0,0,0,0,0,0,0,0,0,0,0,0,0,0,0,0,0,0,0,0,0,0,0,0,0,0,0,0,0,0,0,0,0,0,0,0,0,0,0,0,0,0,0,0,0,0,0,0,0,0,0,0,0,0,0,0,0,0,0,0,0,0,0,0,0,0,0,0,0,0,0,0,0,0,0,0,0,0,0,0,0,0,0,0,0,0,0,0,0,0,0,0,0,0,0,0,0,0,0,0,0,0,0,0,0,0,0,0,0,0,0,0,0,0,0,0,0,0,0,0,0,0,0,0,0,0,0,0,0,0,0,0,0,0,0,0,0,0,0,0,0,0,0,0,0,0,0,0,0,0,0,0,0,0,0,0,0,0,0,0,0,0,0,0,0,0,0,0,0,0,0,0,0,0,0,0,0,0,0,0,0,0,0,0,0,0,0,0,0,0,0,0,0,0,0,0,0,0,0,0,0,0,0,0,0,0,0,0,0,0,0,0,0,0,0,0,0,0,0,0,0,0,0,0,0,0,0,0,0,0,0,0,0,0,0,0,0,0,0,0,0,0,0,0,0,0,0,0,0,0,0,0,0,0,0,0,0,0,0,0,0,0,0,0,0,0,0,0,0,0,0,0,0,0,0,0,0,0,0,0,0,0,0,0,0,0,0,0,0,0,0,0,0,0,0,0,0,0,0,0,0,0,0,0,0,0,0,0,0,0,0,0,0,0,0,0,0,0,0,0,0,0,0,0,0,0,0,0,0,0,0,0,0,0,0,0,0,0,0,0,0,0,0,0,0,0,0,0,0,0,0,0,0,0,0,0,0,0,0,0,0,0,0,0,0,0,0,0,0,0,0,0,0,0,0,0,0,0,0,0,0,0,0,0,0,0,0,0,0,0,0,0,0,0,0,0,0,0,0,0,0,0,0,0,0,0,0,0,0,0,0,0,0,0,0,0,0,0,0,0,0,0,0,0,0,0,0,0,0,0,0,0,0,0,0,0,0,0,0,0,0,0,0,0,0,0,0,0,0,0,0,0,0,0,0,0,0,0,0,0,0,0,0,0,0,0,0,0,0,0,0,0,0,0,0,0,0,0,0,0,0,0,0,0,0,0,0,0,0,0,0,0,0,0,0,0,0,0,0,0,0,0,0,0,0,0,0,0,0,0,0,0,0,0,0,0,0,0,0,0,0,0,0,0,0,0,0,0,0,0,0,0,0,0,0,0,0,0,0,0,0,0,0,0,0,0,0,0,0,0,0,0,0,0,0,0,0,0,0,0,0,0,0,0,0,0,0,0,0,0,0,0,0,0,0,0,0,0,0,0,0,0,0,0,0,0,0,0,0,0,0,0,0,0,0,0,0,0,0,0,0,0,0,0,0,0,0,0,0,0,0,0,0,0,0,0,0,0,0,0,0,0,0,0,0,0,0,0]},{"id":3,"name":"wall","type":"tilelayer","width":144,"height":40,"x":0,"y":0,"opacity":1,"visible":true,"data":[0,0,0,0,0,0,0,0,0,0,0,0,0,0,0,0,0,0,0,0,0,0,0,0,0,0,0,0,0,0,0,0,0,0,0,0,0,0,0,0,0,0,0,0,0,0,0,0,0,0,0,0,0,0,0,0,0,0,0,0,0,0,0,0,0,0,0,0,0,0,0,0,0,0,0,0,0,0,0,0,0,0,0,0,0,0,0,0,0,0,0,0,0,0,0,0,0,0,0,0,0,0,0,0,0,0,0,0,0,0,0,0,0,0,0,0,0,0,0,0,0,0,0,0,0,0,0,0,0,0,0,0,0,0,0,0,0,0,0,0,0,0,0,0,0,0,0,0,0,0,0,0,0,0,0,0,0,0,0,0,0,0,0,0,0,0,0,0,0,0,0,0,0,0,0,0,0,0,0,0,0,0,0,0,0,0,0,0,0,0,0,0,0,0,0,0,0,0,0,0,0,0,0,0,0,0,0,0,0,0,0,0,0,0,0,0,0,0,0,0,0,0,0,0,0,0,0,0,0,0,0,0,0,0,0,0,0,0,0,0,0,0,0,0,0,0,0,0,0,0,0,0,0,0,0,0,0,0,0,0,0,0,0,0,0,0,0,0,0,0,0,0,0,0,0,0,0,0,0,0,0,0,0,0,0,0,0,0,0,0,0,0,0,0,0,0,0,0,0,0,0,0,0,0,0,0,0,0,0,0,0,0,0,0,0,0,0,0,0,0,0,0,0,0,0,0,0,0,0,0,0,0,0,0,0,0,0,0,0,0,0,0,0,0,0,0,0,0,0,0,0,0,0,0,0,0,0,0,0,0,0,0,0,0,0,0,0,0,0,0,0,0,0,0,0,0,0,0,0,0,0,0,0,0,0,0,0,0,0,0,0,0,0,0,0,0,0,0,0,0,0,0,0,0,0,0,0,0,0,0,0,0,0,0,0,0,0,0,0,0,0,0,0,0,0,0,0,0,0,0,0,0,0,0,0,0,0,0,0,0,0,0,0,0,0,0,0,0,0,0,0,0,0,0,0,0,0,0,0,0,0,0,0,0,0,0,0,0,0,0,0,0,0,0,0,0,0,0,0,0,0,0,0,0,0,0,0,0,0,0,0,0,0,0,0,0,0,0,0,0,0,0,0,0,0,0,0,0,0,0,0,0,0,0,0,0,0,0,0,0,0,0,0,0,0,0,0,0,0,0,0,0,0,0,0,0,0,0,0,0,0,0,0,0,0,0,0,0,0,0,0,0,0,0,0,0,0,0,0,0,0,0,0,0,0,0,0,0,0,0,0,0,0,0,0,0,0,0,0,0,0,0,0,0,0,0,0,0,0,0,0,0,0,0,0,0,0,0,0,0,0,0,0,0,0,0,0,0,0,0,0,0,0,0,0,0,0,0,0,0,0,0,0,0,0,0,0,0,0,0,0,0,0,0,0,0,0,0,0,0,0,0,0,0,0,0,0,0,0,0,0,0,0,0,0,0,0,0,0,0,0,0,0,0,0,0,0,0,0,0,0,0,0,0,0,0,0,0,0,0,0,0,0,0,0,0,0,0,0,0,0,0,0,0,0,0,0,0,0,0,0,0,0,0,0,0,0,0,0,0,0,0,0,0,0,0,0,0,0,0,0,0,0,0,0,0,0,0,0,0,0,0,0,0,0,0,0,0,0,0,0,0,0,0,0,0,0,0,0,0,0,0,0,0,0,0,0,0,0,0,0,0,0,0,0,0,0,0,0,0,0,0,0,0,0,0,0,0,0,0,0,0,0,0,0,0,0,0,0,0,0,0,0,0,0,0,0,0,0,0,0,0,0,0,0,0,0,0,0,0,0,0,0,0,0,0,0,0,0,0,0,0,0,0,0,0,0,0,0,0,0,0,0,0,0,0,0,0,0,0,0,0,0,0,0,0,0,0,0,0,0,0,0,0,0,0,0,0,0,0,0,0,0,0,0,0,0,0,0,0,0,0,0,0,0,0,0,0,0,0,0,0,0,0,0,0,0,0,0,0,0,0,0,0,0,0,0,0,0,0,0,0,0,0,0,0,0,0,0,0,0,0,0,0,0,0,0,0,0,0,0,0,0,0,0,0,0,0,0,0,0,0,0,0,0,0,0,0,0,0,0,0,0,0,0,0,0,0,0,0,0,0,0,0,0,0,0,0,0,0,0,0,0,0,0,0,0,0,0,0,0,0,0,0,0,0,0,0,0,0,0,0,0,0,0,0,0,0,0,0,0,0,0,0,0,0,0,0,0,0,0,0,0,0,0,0,0,0,0,0,0,0,0,0,0,0,0,0,0,0,0,0,0,0,0,0,0,0,0,0,0,0,0,0,0,0,0,0,0,0,0,0,0,0,0,0,0,0,0,0,0,0,0,0,0,0,0,0,0,0,0,0,0,0,0,0,0,0,0,0,0,0,0,0,0,0,0,0,0,0,0,0,0,0,0,0,0,0,0,0,0,0,0,0,0,0,0,0,0,0,0,0,0,0,0,0,0,0,0,0,0,0,0,0,0,0,0,0,0,0,0,0,0,0,0,0,0,0,0,0,0,0,0,0,0,0,0,0,0,0,0,0,0,0,0,0,0,0,0,0,0,0,0,0,0,0,0,0,0,0,0,0,0,0,0,0,0,0,0,0,0,0,0,0,0,0,0,0,0,0,0,0,0,0,0,0,0,0,0,0,0,0,0,0,0,0,0,0,0,0,0,0,0,0,0,0,0,0,0,0,0,0,0,0,0,0,0,0,0,0,0,0,0,0,0,0,0,0,0,0,0,0,0,0,0,0,0,0,0,0,0,0,0,0,0,0,0,0,0,0,0,0,0,0,0,0,0,0,0,0,0,0,0,0,0,0,0,0,0,0,0,0,0,0,0,0,0,0,0,0,0,0,0,0,0,0,0,0,0,0,0,0,0,0,0,0,0,0,0,0,0,0,0,0,0,0,0,0,0,0,0,0,0,0,0,0,0,0,0,0,0,0,0,0,0,0,0,0,0,0,0,0,0,0,0,0,0,0,0,0,0,0,0,0,0,0,0,0,0,0,0,0,0,0,0,0,0,0,0,0,0,0,0,0,0,0,0,0,0,0,0,0,0,0,0,0,0,0,0,0,0,0,0,0,0,0,0,0,0,0,0,0,0,0,0,0,0,0,0,0,0,0,0,0,0,0,0,0,0,0,0,0,0,0,0,0,0,0,0,0,0,0,0,0,0,0,0,0,0,0,0,0,0,0,0,0,0,0,0,0,0,0,0,0,0,0,0,0,0,0,0,0,0,0,0,0,0,0,0,0,0,0,0,0,0,0,0,0,0,0,0,0,0,0,0,0,0,0,0,0,0,0,0,0,0,0,0,0,0,0,0,0,0,0,0,0,0,0,0,0,0,0,0,0,0,0,0,0,0,0,0,0,0,0,0,0,0,0,0,0,0,0,0,0,0,0,0,0,0,0,0,0,0,0,0,0,0,0,0,0,0,0,0,0,0,0,0,0,0,0,0,0,0,0,0,0,0,0,0,0,0,0,0,0,0,0,0,0,0,0,0,0,0,0,0,0,0,0,0,0,0,0,0,0,0,0,0,0,0,0,0,0,0,0,0,0,0,0,0,0,0,0,0,0,0,0,0,0,0,0,0,0,0,0,0,0,0,0,0,0,0,0,0,0,0,0,0,0,0,0,0,0,0,0,0,0,0,0,0,0,0,0,0,0,0,0,0,0,0,0,0,0,0,0,0,0,0,0,0,0,0,0,0,0,0,0,0,0,0,0,0,0,0,0,0,0,0,0,0,0,0,0,0,0,0,0,0,0,0,0,0,0,0,0,0,0,0,0,0,0,0,0,0,0,0,0,0,0,0,0,0,0,0,0,0,0,0,0,0,0,0,0,0,0,0,0,0,0,0,0,0,0,0,0,0,0,0,0,0,0,0,0,0,0,0,0,0,0,0,0,0,0,0,0,0,0,0,0,0,0,0,0,0,0,0,0,0,0,0,0,0,0,0,0,0,0,0,0,0,0,0,0,0,0,0,0,0,0,0,0,0,0,0,0,0,0,0,0,0,0,0,0,0,0,0,0,0,0,0,0,0,0,0,0,0,0,0,0,0,0,0,0,0,0,0,0,0,0,0,0,0,0,0,0,0,0,0,0,0,0,0,0,0,0,0,0,0,0,0,0,0,0,0,0,0,0,0,0,0,0,0,0,0,0,0,0,0,0,0,0,0,0,0,0,0,0,0,0,0,0,0,0,0,0,0,0,0,0,0,0,0,0,0,0,0,0,0,0,0,0,0,0,0,0,0,0,0,0,0,0,0,0,0,0,0,0,0,0,0,0,0,0,0,0,0,0,0,0,0,0,0,0,0,0,0,0,0,0,0,0,0,0,0,0,0,0,0,0,0,0,0,0,0,0,0,0,0,0,0,0,0,0,0,0,0,0,0,0,0,0,0,0,0,0,0,0,0,0,0,0,0,0,0,0,0,0,0,0,0,0,0,0,0,0,0,0,0,0,0,0,0,0,0,0,0,0,0,0,0,0,0,0,0,0,0,0,0,0,0,0,0,0,0,0,0,0,0,0,0,0,0,0,0,0,0,0,0,0,0,0,0,0,0,0,0,0,0,0,0,0,0,0,0,0,0,0,0,0,0,0,0,0,0,0,0,0,0,0,0,0,0,0,0,0,0,0,0,0,0,0,0,0,0,0,0,0,0,0,0,0,0,0,0,0,0,0,0,0,0,0,0,0,0,0,0,0,0,0,0,0,0,0,0,0,0,0,0,0,0,0,0,0,0,0,0,0,0,0,0,0,0,0,0,0,0,0,0,0,0,0,0,0,0,0,0,0,0,0,0,0,0,0,0,0,0,0,0,0,0,0,0,0,0,0,0,0,0,0,0,0,0,0,0,0,0,0,0,0,0,0,0,0,0,0,0,0,0,0,0,0,0,0,0,0,0,0,0,0,0,0,0,0,0,0,0,0,0,0,0,0,0,0,0,0,0,0,0,0,0,0,0,0,0,0,0,0,0,0,0,0,0,0,0,0,0,0,0,0,0,0,0,0,0,0,0,0,0,0,0,0,0,0,0,0,0,0,0,0,0,0,0,0,0,0,0,0,0,0,0,0,0,0,0,0,0,0,0,0,0,0,0,0,0,0,0,0,0,0,0,0,0,0,0,0,0,0,0,0,0,0,0,0,0,0,0,0,0,0,0,0,0,0,0,0,0,0,0,0,0,0,0,0,0,0,0,0,0,0,0,0,0,0,0,0,0,0,0,0,0,0,0,0,0,0,0,0,0,0,0,0,0,0,0,0,0,0,0,0,0,0,0,0,0,0,0,0,0,0,0,0,0,0,0,0,0,0,0,0,0,0,0,0,0,0,0,0,0,0,0,0,0,0,0,0,0,0,0,0,0,0,0,0,0,0,0,0,0,0,0,0,0,0,0,0,0,0,0,0,0,0,0,0,0,0,0,0,0,0,0,0,0,0,0,0,0,0,0,0,0,0,0,0,0,0,0,0,0,0,0,0,0,0,0,0,0,0,0,0,0,0,0,0,0,0,0,0,0,0,0,0,0,0,0,0,0,0,0,0,0,0,0,0,0,0,0,0,0,0,0,0,0,0,0,0,0,0,0,0,0,0,0,0,0,0,0,0,0,0,0,0,0,0,0,0,0,0,0,0,0,0,0,0,0,0,0,0,0,0,0,0,0,0,0,0,0,0,0,0,0,0,0,0,0,0,0,0,0,0,0,0,0,0,0,0,0,0,0,0,0,0,0,0,0,0,0,0,0,0,0,0,0,0,0,0,0,0,0,0,0,0,0,0,0,0,0,0,0,0,0,0,0,0,0,0,0,0,0,0,0,0,0,0,0,0,0,0,0,0,0,0,0,0,0,0,0,0,0,0,0,0,0,0,0,0,0,0,0,0,0,0,0,0,0,0,0,0,0,0,0,0,0,0,0,0,0,0,0,0,0,0,0,0,0,0,0,0,0,0,0,0,0,0,0,0,0,0,0,0,0,0,0,0,0,0,0,0,0,0,0,0,0,0,0,0,0,0,0,0,0,0,0,0,0,0,0,0,0,0,0,0,0,0,0,0,0,0,0,0,0,0,0,0,0,0,0,0,0,0,0,0,0,0,0,0,0,0,0,0,0,0,0,0,0,0,0,0,0,0,0,0,0,0,0,0,0,0,0,0,0,0,0,0,0,0,0,0,0,0,0,0,0,0,0,0,0,0,0,0,0,0,0,0,0,0,0,0,0,0,0,0,0,0,0,0,0,0,0,0,0,0,0,0,0,0,0,0,0,0,0,0,0,0,0,0,0,0,0,0,0,0,0,0,0,0,0,0,0,0,0,0,0,0,0,0,0,0,0,0,0,0,0,0,0,0,0,0,0,0,0,0,0,0,0,0,0,0,0,0,0,0,0,0,0,0,0,0,0,0,0,0,0,0,0,0,0,0,0,0,0,0,0,0,0,0,0,0,0,0,0,0,0,0,0,0,0,0,0,0,0,0,0,0,0,0,0,0,0,0,0,0,0,0,0,0,0,0,0,0,0,0,0,0,0,0,0,0,0,0,0,0,0,0,0,0,0,0,0,0,0,0,0,0,0,0,0,0,0,0,0,0,0,0,0,0,0,0,0,0,0,0,0,0,0,0,0,0,0,0,0,0,0,0,0,0,0,0,0,0,0,0,0,0,0,0,0,0,0,0,0,0,0,0,0,0,0,0,0,0,0,0,0,0,0,0,0,0,0,0,0,0,0,0,0,0,0,0,0,0,0,0,0,0,0,0,0,0,0,0,0,0,0,0,0,0,0,0,0,0,0,0,0,0,0,0,0,0,0,0,0,0,0,0,0,0,0,0,0,0,0,0,0,0,0,0,0,0,0,0,0,0,0,0,0,0,0,0,0,0,0,0,0,0,0,0,0,0,0,0,0,0,0,0,0,0,0,0,0,0,0,0,0,0,0,0,0,0,0,0,0,0,0,0,0,0,0,0,0,0,0,0,0,0,0,0,0,0,0,0,0,0,0,0,0,0,0,0,0,0,0,0,0,0,0,0,0,0,0,0,0,0,0,0,0,0,0,0,0,0,0,0,0,0,0,0,0,0,0,0,0,0,0,0,0,0,0,0,0,0,0,0,0,0,0,0,0,0,0,0,0,0,0,0,0,0,0,0,0,0,0,0,0,0,0,0,0,0,0,0,0,0,0,0,0,0,0,0,0,0,0,0,0,0,0,0,0,0,0,0,0,0,0,0,0,0,0,0,0,0,0,0,0,0,0,0,0,0,0,0,0,0,0,0,0,0,0,0,0,0,0,0,0,0,0,0,0,0,0,0,0,0,0,0,0,0,0,0,0,0,0,0,0,0,0,0,0,0,0,0,0,0,0,0,0,0,0,0,0,0,0,0,0,0,0,0,0,0,0,0,0,0,0,0,0,0,0,0,0,0,0,0,0,0,0,0,0,0,0,0,0,0,0,0,0,0,0,0,0,0,0,0,0,0,0,0,0,0,0,0,0,0,0,0,0,0,0,0,0,0,0,0,0,0,0,0,0,0,0,0,0,0,0,0,0,0,0,0,0,0,0,0,0,0,0,0,0,0,0,0,0,818,778,778,778,778,778,0,0,778,778,778,778,778,818,0,0,0,0,0,0,0,0,0,0,0,0,0,0,0,0,0,0,0,0,0,0,0,0,0,0,0,0,0,0,0,0,0,0,0,0,0,0,0,0,0,0,0,0,0,0,0,0,0,0,0,0,0,0,0,0,0,0,0,0,0,0,0,0,0,0,0,0,0,0,0,0,0,0,0,0,0,0,0,0,0,0,0,0,0,0,0,0,0,0,0,0,0,0,0,0,0,0,0,0,0,0,0,0,0,0,0,0,0,0,0,0,0,0,0,0,0,0,0,0,0,0,0,0,0,0,0,0,0,0,787,0,0,0,0,0,0,0,0,0,0,0,0,787,0,0,0,0,0,0,0,0,0,0,0,0,0,0,0,0,0,0,0,0,0,0,0,0,0,0,0,0,0,0,0,0,0,0,0,0,0,0,0,0,0,0,0,0,0,0,0,0,0,0,0,0,0,0,0,0,0,0,0,0,0,0,0,0,0,0,0,0,0,0,0,0,0,0,0,0,0,0,0,0,0,0,0,0,0,0,0,0,0,0,0,0,0,0,0,0,0,0,0,0,0,0,0,0,0,0,0,0,0,0,0,0,0,0,0,0,0,0,0,0,0,0,0,0,0,0,0,0,0,0,787,0,0,0,0,0,0,0,0,0,0,0,0,787,0,0,0,0,0,0,0,0,0,0,0,0,0,0,0,0,0,0,0,0,0,0,0,0,0,0,0,0,0,0,0,0,0,0,0,0,0,0,0,0,0,0,0,0,0,0,0,0,0,0,0,0,0,0,0,0,0,0,0,0,0,0,0,0,0,0,0,0,0,0,0,0,0,0,0,0,0,0,0,0,0,0,0,0,0,0,0,0,0,0,0,0,0,0,0,0,0,0,0,0,0,0,0,0,0,0,0,0,0,0,0,0,0,0,0,0,0,0,0,0,0,0,0,0,0,0,0,0,0,0,787,0,0,0,0,0,0,0,0,0,0,0,0,787,0,0,0,0,0,0,0,0,0,0,0,0,0,0,0,0,0,0,0,0,0,0,0,0,0,0,0,0,0,0,0,0,0,0,0,0,0,0,0,0,0,0,0,0,0,0,0,0,0,0,0,0,0,0,0,0,0,0,0,0,0,0,0,0,0,0,0,0,0,0,0,0,0,0,0,0,0,0,0,0,0,0,0,0,0,0,0,0,0,0,0,0,0,0,0,0,0,0,0,0,0,0,0,0,0,0,0,0,0,0,0,0,0,0,0,0,0,0,0,0,0,0,0,0,0,0,0,0,0,0,787,0,0,0,0,0,0,0,0,0,0,0,0,787,0,0,0,0,0,0,0,0,0,0,0,0,0,0,0,0,0,0,0,0,0,0,0,0,0,0,0,0,0,0,0,0,0,0,0,0,0,0,0,0,0,0,0,0,0,0,0,0,0,0,0,0,0,0,0,0,0,0,0,0,0,0,0,0,0,0,0,0,0,0,0,0,0,0,0,0,0,0,0,0,0,0,0,0,0,0,0,0,0,0,0,0,0,0,0,0,0,0,0,0,0,0,0,0,0,0,0,0,0,0,0,0,0,0,0,0,0,0,0,0,0,0,0,0,0,0,0,0,0,0,787,0,0,0,0,0,0,0,0,0,0,0,0,787,0,0,0,0,0,0,0,0,0,0,0,0,0,0,0,0,0,0,0,0,0,0,0,0,0,0,0,0,0,0,0,0,0,0,0,0,0,0,0,0,0,0,0,0,0,0,0,0,0,0,0,0,0,0,0,0,0,0,0,0,0,0,0,0,0,0,0,0,0,0,0,0,0,0,0,0,0,0,0,0,0,0,0,0,0,0,0,0,0,0,0,0,0,0,0,0,0,0,0,0,0,0,0,0,0,0,0,0,0,0,0,0,0,0,0,0,0,0,0,0,0,0,0,0,0,0,0,0,0,0,787,0,0,0,0,0,0,0,0,0,0,0,0,787,0,0,0,0,0,0,0,0,0,0,0,0,0,0,0,0,0,0,0,0,0,0,0,0,0,0,0,0,0,0,0,0,0,0,0,0,0,0,0,0,0,0,0,0,0,0,0,0,0,0,0,0,0,0,0,0,0,0,0,0,0,0,0,0,0,0,0,0,0,0,0,0,0,0,0,0,0,0,0,0,0,0,0,0,0,0,0,0,0,0,0,0,0,0,0,0,0,0,0,0,0,0,0,0,0,0,0,0,0,0,0,0,0,0,0,0,0,0,0,0,0,0,0,0,0,0,0,0,0,0,787,0,0,0,0,0,0,0,0,0,0,0,0,787,0,0,0,0,0,0,0,0,0,0,0,0,0,0,0,0,0,0,0,0,0,0,0,0,0,0,0,0,0,0,0,0,0,0,0,0,0,0,0,0,0,0,0,0,0,0,0,0,0,0,0,0,0,0,0,0,0,0,0,0,0,0,0,0,0,0,0,0,0,0,0,0,0,0,0,0,0,0,0,0,0,0,0,0,0,0,0,0,0,0,0,0,0,0,0,0,0,0,0,0,0,0,0,0,0,0,0,0,0,0,0,0,0,0,0,0,0,0,0,0,0,0,0,0,0,0,0,0,0,0,787,0,0,0,0,0,0,0,0,0,0,0,0,787,0,0,0,0,0,0,0,0,0,0,0,0,0,0,0,0,0,0,0,0,0,0,0,0,0,0,0,0,0,0,0,0,0,0,0,0,0,0,0,0,0,0,0,0,0,0,0,0,0,0,0,0,0,0,0,0,0,0,0,0,0,0,0,0,0,0,0,0,0,0,0,0,0,0,0,0,0,0,0,0,0,0,0,0,0,0,0,0,0,0,0,0,0,0,0,0,0,0,0,0,0,0,0,0,0,0,0,0,0,0,0,0,0,0,0,0,0,0,0,0,0,0,0,0,0,0,0,0,0,0,778,778,778,778,778,778,778,778,778,778,778,778,778,778,0,0,0,0,0,0,0,0,0,0,0,0,0,0,0,0,0,0,0,0,0,0,0,0,0,0,0,0,0,0,0,0,0,0,0,0,0,0,0,0,0,0,0,0,0,0,0,0,0,0,0,0,0,0,0,0,0,0,0,0,0,0,0,0,0,0,0,0,0,0,0,0,0,0,0,0,0,0,0,0,0,0,0,0,0,0,0,0,0,0,0,0,0,0,0,0,0,0,0,0,0,0,0,0,0,0,0,0,0,0,0,0,0,0,0,0,0,0,0,0,0,0,0,0,0,0,0,0,0,0,0,0,0,0,0,0,0,0,0,0,0,0,0,0,0,0,0,0,0,0,0,0,0,0,0,0,0,0,0,0,0,0,0,0,0,0,0,0,0,0,0,0,0,0,0,0,0,0,0,0,0,0,0,0,0,0,0,0,0,0,0,0,0,0,0,0,0,0,0,0,0,0,0,0,0,0,0,0,0,0,0,0,0,0,0,0,0,0,0,0,0,0,0,0,0,0,0,0,0,0,0,0,0,0,0,0,0,0,0,0,0,0,0,0,0,0,0,0,0,0,0,0,0,0,0,0,0,0,0,0,0,0,0,0,0,0,0,0,0,0,0,0,0,0,0,0,0,0,0,0,0,0,0,0,0,0,0,0,0,0,0,0,0,0,0,0,0,0,0,0,0,0,0,0,0,0,0,0,0,0,0,0,0,0,0,0,0,0,0,0,0,0,0,0,0,0,0,0,0,0,0,0,0,0,0,0,0,0,0,0,0,0,0,0,0,0,0,0,0,0,0,0,0,0,0,0,0,0,0,0,0,0,0,0,0,0,0,0,0,0,0,0,0,0,0,0,0,0,0,0,0,0,0,0,0,0,0,0,0,0,0,0,0,0,0,0,0,0,0,0,0,0,0,0,0,0,0,0,0,0,0,0,0,0,0,0,0,0,0,0,0,0,0,0,0,0,0,0,0,0,0,0,0,0,0,0,0,0,0,0,0,0,0,0,0,0,0,0,0,0,0,0,0,0,0,0,0,0,0,0,0,0,0,0,0,0,0,0,0,0,0,0,0,0,0,0,0,0,0,0,0,0,0,0,0,0,0,0,0,0,0,0,0,0,0,0,0,0,0,0,0,0,0,0,0,0,0,0,0,0,0,0,0,0,0,0,0,0,0,0,0,0,0,0,0,0,0,0,0,0,0,0,0,0,0,0,0,0,0,0,0,0,0,0,0,0,0,0,0,0,0,0,0,0,0,0,0,0,0,0,0,0,0,0,0,0,0,0,0,0,0,0,0,0,0,0,0,0,0,0,0,0,0,0,0,0,0,0,0,0,0,0,0,0,0,0,0,0,0,0,0,0,0,0,0,0,0,0,0,0,0,0,0,0,0,0,0,0,0,0,0,0,0,0,0,0,0,0,0,0,0,0,0,0,0,0,0,0,0,0,0,0,0,0,0,0,0,0,0,0,0,0,0,0,0,0,0,0,0,0,0,0,0,0,0,0,0,0,0,0,0,0,0,0,0,0,0,0,0,0,0,0,0,0,0,0,0,0,0,0,0,0,0,0,0,0,0,0,0,0,0,0,0,0,0,0,0,0,0,0,0,0,0,0,0,0,0,0,0,0,0,0,0,0,0,0,0,0,0,0,0,0,0,0,0,0,0,0,0,0,0,0,0,0,0,0,0,0,0,0,0,0,0,0,0,0,0,0,0,0,0,0,0,0,0,0,0,0,0,0,0,0,0,0,0,0,0,0,0,0,0,0,0,0,0,0,0,0,0,0,0,0,0,0,0,0,0,0,0,0,0,0,0,0,0,0,0,0,0,0,0,0,0,0,0,0,0,0,0,0,0,0,0,0,0,0,0,0,0,0,0,0,0,0,0,0,0,0,0,0,0,0,0,0,0,0,0,0,0,0,0,0,0,0,0,0,0,0,0,0,0,0,0,0,0,0,0,0,0,0,0,0,0,0,0,0,0,0,0,0,0,0,0,0,0,0,0,0,0,0,0,0,0,0,0,0,0,0,0,0,0,0,0,0,0,0,0,0,0,0,0,0,0,0,0,0,0,0,0,0,0,0,0,0,0,0,0,0,0,0,0,0,0,0,0,0,0,0,0,0,0,0,0,0,0,0,0,0,0,0,0,0,0,0,0,0,0,0,0,0,0,0,0,0,0,0,0,0,0,0,0,0,0,0,0,0,0,0,0,0,0,0,0,0,0,0,0,0,0,0,0,0,0,0,0,0,0,0,0,0,0,0,0,0,0,0,0,0,0,0,0,0,0,0,0,0,0,0,0,0,0,0,0,0,0,0,0,0,0,0,0,0,0,0,0,0,0,0,0,0,0,0,0,0,0,0,0,0,0,0,0,0,0,0,0,0,0,0,0,0,0,0,0,0,0,0,0,0,0,0,0]},{"id":4,"name":"objects","type":"objectgroup","draworder":"topdown","x":0,"y":0,"opacity":1,"visible":true,"objects":[{"id":1,"name":"building.gate#0","type":"prop","x":1184.0,"y":384,"width":0,"height":0,"rotation":0,"visible":true,"point":true,"properties":[{"name":"kind","type":"string","value":"building.gatehouse"},{"name":"fw","type":"int","value":32},{"name":"fh","type":"int","value":16},{"name":"solid","type":"bool","value":false},{"name":"ref","type":"string","value":"farm-gate"}]},{"id":2,"name":"building.tent#1","type":"prop","x":120.0,"y":112,"width":0,"height":0,"rotation":0,"visible":true,"point":true,"properties":[{"name":"kind","type":"string","value":"building.tent"},{"name":"fw","type":"int","value":48},{"name":"fh","type":"int","value":32},{"name":"solid","type":"bool","value":true},{"name":"ref","type":"string","value":"tent-lijue"},{"name":"cl","type":"float","value":23.0},{"name":"cr","type":"float","value":23.0}]},{"id":3,"name":"building.tent#0","type":"prop","x":312.0,"y":112,"width":0,"height":0,"rotation":0,"visible":true,"point":true,"properties":[{"name":"kind","type":"string","value":"building.tent"},{"name":"fw","type":"int","value":48},{"name":"fh","type":"int","value":32},{"name":"solid","type":"bool","value":true},{"name":"ref","type":"string","value":"tent-guosi"},{"name":"cl","type":"float","value":21.0},{"name":"cr","type":"float","value":21.0}]},{"id":4,"name":"building.tent#0","type":"prop","x":120.0,"y":240,"width":0,"height":0,"rotation":0,"visible":true,"point":true,"properties":[{"name":"kind","type":"string","value":"building.tent"},{"name":"fw","type":"int","value":48},{"name":"fh","type":"int","value":32},{"name":"solid","type":"bool","value":true},{"name":"ref","type":"string","value":"tent-zhangji"},{"name":"cl","type":"float","value":21.0},{"name":"cr","type":"float","value":21.0}]},{"id":5,"name":"building.tent#0","type":"prop","x":312.0,"y":240,"width":0,"height":0,"rotation":0,"visible":true,"point":true,"properties":[{"name":"kind","type":"string","value":"building.tent"},{"name":"fw","type":"int","value":48},{"name":"fh","type":"int","value":32},{"name":"solid","type":"bool","value":true},{"name":"ref","type":"string","value":"tent-fanchou"},{"name":"cl","type":"float","value":21.0},{"name":"cr","type":"float","value":21.0}]},{"id":6,"name":"building.tent#1","type":"prop","x":480.0,"y":112,"width":0,"height":0,"rotation":0,"visible":true,"point":true,"properties":[{"name":"kind","type":"string","value":"building.tent_small"},{"name":"fw","type":"int","value":32},{"name":"fh","type":"int","value":32},{"name":"solid","type":"bool","value":true},{"name":"ref","type":"string","value":"tent-jiaxu"},{"name":"cl","type":"float","value":23.0},{"name":"cr","type":"float","value":23.0}]},{"id":7,"name":"corral#0","type":"prop","x":800.0,"y":176,"width":0,"height":0,"rotation":0,"visible":true,"point":true,"properties":[{"name":"kind","type":"string","value":"corral"},{"name":"fw","type":"int","value":128},{"name":"fh","type":"int","value":96},{"name":"solid","type":"bool","value":true},{"name":"ref","type":"string","value":"corral"}]},{"id":8,"name":"building.hut#0","type":"prop","x":952.0,"y":240,"width":0,"height":0,"rotation":0,"visible":true,"point":true,"properties":[{"name":"kind","type":"string","value":"building.hut"},{"name":"fw","type":"int","value":48},{"name":"fh","type":"int","value":32},{"name":"solid","type":"bool","value":true},{"name":"ref","type":"string","value":"hut-1"},{"name":"cl","type":"float","value":22.0},{"name":"cr","type":"float","value":22.0}]},{"id":9,"name":"building.hut#0","type":"prop","x":760.0,"y":368,"width":0,"height":0,"rotation":0,"visible":true,"point":true,"properties":[{"name":"kind","type":"string","value":"building.hut"},{"name":"fw","type":"int","value":48},{"name":"fh","type":"int","value":32},{"name":"solid","type":"bool","value":true},{"name":"ref","type":"string","value":"hut-2"},{"name":"cl","type":"float","value":22.0},{"name":"cr","type":"float","value":22.0}]},{"id":10,"name":"building.house#0","type":"prop","x":1152.0,"y":496,"width":0,"height":0,"rotation":0,"visible":true,"point":true,"properties":[{"name":"kind","type":"string","value":"building.house"},{"name":"fw","type":"int","value":64},{"name":"fh","type":"int","value":32},{"name":"solid","type":"bool","value":true},{"name":"ref","type":"string","value":"farm-1"},{"name":"cl","type":"float","value":23.0},{"name":"cr","type":"float","value":23.0}]},{"id":11,"name":"building.house#0","type":"prop","x":1592.0,"y":304,"width":0,"height":0,"rotation":0,"visible":true,"point":true,"properties":[{"name":"kind","type":"string","value":"building.posthouse"},{"name":"fw","type":"int","value":64},{"name":"fh","type":"int","value":32},{"name":"solid","type":"bool","value":true},{"name":"ref","type":"string","value":"posthouse"}]},{"id":12,"name":"building.house#1","type":"prop","x":1792.0,"y":304,"width":0,"height":0,"rotation":0,"visible":true,"point":true,"properties":[{"name":"kind","type":"string","value":"building.house"},{"name":"fw","type":"int","value":64},{"name":"fh","type":"int","value":32},{"name":"solid","type":"bool","value":true},{"name":"ref","type":"string","value":"house-v3"},{"name":"cl","type":"float","value":23.5},{"name":"cr","type":"float","value":23.5}]},{"id":13,"name":"building.house#1","type":"prop","x":1600.0,"y":432,"width":0,"height":0,"rotation":0,"visible":true,"point":true,"properties":[{"name":"kind","type":"string","value":"building.house"},{"name":"fw","type":"int","value":64},{"name":"fh","type":"int","value":32},{"name":"solid","type":"bool","value":true},{"name":"ref","type":"string","value":"house-v3b"},{"name":"cl","type":"float","value":23.5},{"name":"cr","type":"float","value":23.5}]},{"id":14,"name":"rock.crag#1","type":"prop","x":2080.0,"y":240,"width":0,"height":0,"rotation":0,"visible":true,"point":true,"properties":[{"name":"kind","type":"string","value":"landmark.heights"},{"name":"fw","type":"int","value":160},{"name":"fh","type":"int","value":96},{"name":"solid","type":"bool","value":true},{"name":"ref","type":"string","value":"heights-n"}]},{"id":15,"name":"rock.crag#1","type":"prop","x":2080.0,"y":560,"width":0,"height":0,"rotation":0,"visible":true,"point":true,"properties":[{"name":"kind","type":"string","value":"landmark.heights"},{"name":"fw","type":"int","value":160},{"name":"fh","type":"int","value":96},{"name":"solid","type":"bool","value":true},{"name":"ref","type":"string","value":"heights-s"}]},{"id":16,"name":"rock.crag#0","type":"prop","x":1944.0,"y":32,"width":0,"height":0,"rotation":0,"visible":true,"point":true,"properties":[{"name":"kind","type":"string","value":"rock.crag"},{"name":"fw","type":"int","value":48},{"name":"fh","type":"int","value":32},{"name":"solid","type":"bool","value":true}]},{"id":17,"name":"rock.crag#1","type":"prop","x":1992.0,"y":32,"width":0,"height":0,"rotation":0,"visible":true,"point":true,"properties":[{"name":"kind","type":"string","value":"rock.crag"},{"name":"fw","type":"int","value":48},{"name":"fh","type":"int","value":32},{"name":"solid","type":"bool","value":true}]},{"id":18,"name":"rock.crag#0","type":"prop","x":2040.0,"y":32,"width":0,"height":0,"rotation":0,"visible":true,"point":true,"properties":[{"name":"kind","type":"string","value":"rock.crag"},{"name":"fw","type":"int","value":48},{"name":"fh","type":"int","value":32},{"name":"solid","type":"bool","value":true}]},{"id":19,"name":"rock.crag#1","type":"prop","x":2088.0,"y":32,"width":0,"height":0,"rotation":0,"visible":true,"point":true,"properties":[{"name":"kind","type":"string","value":"rock.crag"},{"name":"fw","type":"int","value":48},{"name":"fh","type":"int","value":32},{"name":"solid","type":"bool","value":true}]},{"id":20,"name":"rock.crag#1","type":"prop","x":2136.0,"y":32,"width":0,"height":0,"rotation":0,"visible":true,"point":true,"properties":[{"name":"kind","type":"string","value":"rock.crag"},{"name":"fw","type":"int","value":48},{"name":"fh","type":"int","value":32},{"name":"solid","type":"bool","value":true}]},{"id":21,"name":"rock.crag#0","type":"prop","x":2184.0,"y":32,"width":0,"height":0,"rotation":0,"visible":true,"point":true,"properties":[{"name":"kind","type":"string","value":"rock.crag"},{"name":"fw","type":"int","value":48},{"name":"fh","type":"int","value":32},{"name":"solid","type":"bool","value":true}]},{"id":22,"name":"rock.crag#1","type":"prop","x":2232.0,"y":32,"width":0,"height":0,"rotation":0,"visible":true,"point":true,"properties":[{"name":"kind","type":"string","value":"rock.crag"},{"name":"fw","type":"int","value":48},{"name":"fh","type":"int","value":32},{"name":"solid","type":"bool","value":true}]},{"id":23,"name":"rock.crag#1","type":"prop","x":2280.0,"y":32,"width":0,"height":0,"rotation":0,"visible":true,"point":true,"properties":[{"name":"kind","type":"string","value":"rock.crag"},{"name":"fw","type":"int","value":48},{"name":"fh","type":"int","value":32},{"name":"solid","type":"bool","value":true}]},{"id":24,"name":"rock.crag#1","type":"prop","x":1960.0,"y":64,"width":0,"height":0,"rotation":0,"visible":true,"point":true,"properties":[{"name":"kind","type":"string","value":"rock.crag"},{"name":"fw","type":"int","value":48},{"name":"fh","type":"int","value":32},{"name":"solid","type":"bool","value":true}]},{"id":25,"name":"rock.crag#0","type":"prop","x":2008.0,"y":64,"width":0,"height":0,"rotation":0,"visible":true,"point":true,"properties":[{"name":"kind","type":"string","value":"rock.crag"},{"name":"fw","type":"int","value":48},{"name":"fh","type":"int","value":32},{"name":"solid","type":"bool","value":true}]},{"id":26,"name":"rock.crag#1","type":"prop","x":2056.0,"y":64,"width":0,"height":0,"rotation":0,"visible":true,"point":true,"properties":[{"name":"kind","type":"string","value":"rock.crag"},{"name":"fw","type":"int","value":48},{"name":"fh","type":"int","value":32},{"name":"solid","type":"bool","value":true}]},{"id":27,"name":"rock.crag#1","type":"prop","x":2104.0,"y":64,"width":0,"height":0,"rotation":0,"visible":true,"point":true,"properties":[{"name":"kind","type":"string","value":"rock.crag"},{"name":"fw","type":"int","value":48},{"name":"fh","type":"int","value":32},{"name":"solid","type":"bool","value":true}]},{"id":28,"name":"rock.crag#0","type":"prop","x":2152.0,"y":64,"width":0,"height":0,"rotation":0,"visible":true,"point":true,"properties":[{"name":"kind","type":"string","value":"rock.crag"},{"name":"fw","type":"int","value":48},{"name":"fh","type":"int","value":32},{"name":"solid","type":"bool","value":true}]},{"id":29,"name":"rock.crag#1","type":"prop","x":2200.0,"y":64,"width":0,"height":0,"rotation":0,"visible":true,"point":true,"properties":[{"name":"kind","type":"string","value":"rock.crag"},{"name":"fw","type":"int","value":48},{"name":"fh","type":"int","value":32},{"name":"solid","type":"bool","value":true}]},{"id":30,"name":"rock.crag#0","type":"prop","x":2248.0,"y":64,"width":0,"height":0,"rotation":0,"visible":true,"point":true,"properties":[{"name":"kind","type":"string","value":"rock.crag"},{"name":"fw","type":"int","value":48},{"name":"fh","type":"int","value":32},{"name":"solid","type":"bool","value":true}]},{"id":31,"name":"rock.crag#1","type":"prop","x":1944.0,"y":96,"width":0,"height":0,"rotation":0,"visible":true,"point":true,"properties":[{"name":"kind","type":"string","value":"rock.crag"},{"name":"fw","type":"int","value":48},{"name":"fh","type":"int","value":32},{"name":"solid","type":"bool","value":true}]},{"id":32,"name":"rock.crag#0","type":"prop","x":1992.0,"y":96,"width":0,"height":0,"rotation":0,"visible":true,"point":true,"properties":[{"name":"kind","type":"string","value":"rock.crag"},{"name":"fw","type":"int","value":48},{"name":"fh","type":"int","value":32},{"name":"solid","type":"bool","value":true}]},{"id":33,"name":"rock.crag#1","type":"prop","x":2040.0,"y":96,"width":0,"height":0,"rotation":0,"visible":true,"point":true,"properties":[{"name":"kind","type":"string","value":"rock.crag"},{"name":"fw","type":"int","value":48},{"name":"fh","type":"int","value":32},{"name":"solid","type":"bool","value":true}]},{"id":34,"name":"rock.crag#0","type":"prop","x":2088.0,"y":96,"width":0,"height":0,"rotation":0,"visible":true,"point":true,"properties":[{"name":"kind","type":"string","value":"rock.crag"},{"name":"fw","type":"int","value":48},{"name":"fh","type":"int","value":32},{"name":"solid","type":"bool","value":true}]},{"id":35,"name":"rock.crag#0","type":"prop","x":2136.0,"y":96,"width":0,"height":0,"rotation":0,"visible":true,"point":true,"properties":[{"name":"kind","type":"string","value":"rock.crag"},{"name":"fw","type":"int","value":48},{"name":"fh","type":"int","value":32},{"name":"solid","type":"bool","value":true}]},{"id":36,"name":"rock.crag#1","type":"prop","x":2184.0,"y":96,"width":0,"height":0,"rotation":0,"visible":true,"point":true,"properties":[{"name":"kind","type":"string","value":"rock.crag"},{"name":"fw","type":"int","value":48},{"name":"fh","type":"int","value":32},{"name":"solid","type":"bool","value":true}]},{"id":37,"name":"rock.crag#0","type":"prop","x":2232.0,"y":96,"width":0,"height":0,"rotation":0,"visible":true,"point":true,"properties":[{"name":"kind","type":"string","value":"rock.crag"},{"name":"fw","type":"int","value":48},{"name":"fh","type":"int","value":32},{"name":"solid","type":"bool","value":true}]},{"id":38,"name":"rock.crag#0","type":"prop","x":2280.0,"y":96,"width":0,"height":0,"rotation":0,"visible":true,"point":true,"properties":[{"name":"kind","type":"string","value":"rock.crag"},{"name":"fw","type":"int","value":48},{"name":"fh","type":"int","value":32},{"name":"solid","type":"bool","value":true}]},{"id":39,"name":"rock.crag#0","type":"prop","x":1960.0,"y":128,"width":0,"height":0,"rotation":0,"visible":true,"point":true,"properties":[{"name":"kind","type":"string","value":"rock.crag"},{"name":"fw","type":"int","value":48},{"name":"fh","type":"int","value":32},{"name":"solid","type":"bool","value":true}]},{"id":40,"name":"rock.crag#1","type":"prop","x":2008.0,"y":128,"width":0,"height":0,"rotation":0,"visible":true,"point":true,"properties":[{"name":"kind","type":"string","value":"rock.crag"},{"name":"fw","type":"int","value":48},{"name":"fh","type":"int","value":32},{"name":"solid","type":"bool","value":true}]},{"id":41,"name":"rock.crag#0","type":"prop","x":2056.0,"y":128,"width":0,"height":0,"rotation":0,"visible":true,"point":true,"properties":[{"name":"kind","type":"string","value":"rock.crag"},{"name":"fw","type":"int","value":48},{"name":"fh","type":"int","value":32},{"name":"solid","type":"bool","value":true}]},{"id":42,"name":"rock.crag#0","type":"prop","x":2104.0,"y":128,"width":0,"height":0,"rotation":0,"visible":true,"point":true,"properties":[{"name":"kind","type":"string","value":"rock.crag"},{"name":"fw","type":"int","value":48},{"name":"fh","type":"int","value":32},{"name":"solid","type":"bool","value":true}]},{"id":43,"name":"rock.crag#1","type":"prop","x":2152.0,"y":128,"width":0,"height":0,"rotation":0,"visible":true,"point":true,"properties":[{"name":"kind","type":"string","value":"rock.crag"},{"name":"fw","type":"int","value":48},{"name":"fh","type":"int","value":32},{"name":"solid","type":"bool","value":true}]},{"id":44,"name":"rock.crag#0","type":"prop","x":2200.0,"y":128,"width":0,"height":0,"rotation":0,"visible":true,"point":true,"properties":[{"name":"kind","type":"string","value":"rock.crag"},{"name":"fw","type":"int","value":48},{"name":"fh","type":"int","value":32},{"name":"solid","type":"bool","value":true}]},{"id":45,"name":"rock.crag#1","type":"prop","x":2248.0,"y":128,"width":0,"height":0,"rotation":0,"visible":true,"point":true,"properties":[{"name":"kind","type":"string","value":"rock.crag"},{"name":"fw","type":"int","value":48},{"name":"fh","type":"int","value":32},{"name":"solid","type":"bool","value":true}]},{"id":46,"name":"rock.small#0","type":"prop","x":1912.0,"y":80,"width":0,"height":0,"rotation":0,"visible":true,"point":true,"properties":[{"name":"kind","type":"string","value":"rock.small"},{"name":"fw","type":"int","value":16},{"name":"fh","type":"int","value":16},{"name":"solid","type":"bool","value":false}]},{"id":47,"name":"rock.small#0","type":"prop","x":1912.0,"y":96,"width":0,"height":0,"rotation":0,"visible":true,"point":true,"properties":[{"name":"kind","type":"string","value":"rock.small"},{"name":"fw","type":"int","value":16},{"name":"fh","type":"int","value":16},{"name":"solid","type":"bool","value":false}]},{"id":48,"name":"rock.small#0","type":"prop","x":1912.0,"y":112,"width":0,"height":0,"rotation":0,"visible":true,"point":true,"properties":[{"name":"kind","type":"string","value":"rock.small"},{"name":"fw","type":"int","value":16},{"name":"fh","type":"int","value":16},{"name":"solid","type":"bool","value":false}]},{"id":49,"name":"rock.small#0","type":"prop","x":1912.0,"y":128,"width":0,"height":0,"rotation":0,"visible":true,"point":true,"properties":[{"name":"kind","type":"string","value":"rock.small"},{"name":"fw","type":"int","value":16},{"name":"fh","type":"int","value":16},{"name":"solid","type":"bool","value":false}]},{"id":50,"name":"rock.small#0","type":"prop","x":1928.0,"y":144,"width":0,"height":0,"rotation":0,"visible":true,"point":true,"properties":[{"name":"kind","type":"string","value":"rock.small"},{"name":"fw","type":"int","value":16},{"name":"fh","type":"int","value":16},{"name":"solid","type":"bool","value":false}]},{"id":51,"name":"rock.small#1","type":"prop","x":1944.0,"y":144,"width":0,"height":0,"rotation":0,"visible":true,"point":true,"properties":[{"name":"kind","type":"string","value":"rock.small"},{"name":"fw","type":"int","value":16},{"name":"fh","type":"int","value":16},{"name":"solid","type":"bool","value":false}]},{"id":52,"name":"rock.small#0","type":"prop","x":1960.0,"y":144,"width":0,"height":0,"rotation":0,"visible":true,"point":true,"properties":[{"name":"kind","type":"string","value":"rock.small"},{"name":"fw","type":"int","value":16},{"name":"fh","type":"int","value":16},{"name":"solid","type":"bool","value":false}]},{"id":53,"name":"rock.small#1","type":"prop","x":1976.0,"y":144,"width":0,"height":0,"rotation":0,"visible":true,"point":true,"properties":[{"name":"kind","type":"string","value":"rock.small"},{"name":"fw","type":"int","value":16},{"name":"fh","type":"int","value":16},{"name":"solid","type":"bool","value":false}]},{"id":54,"name":"rock.small#0","type":"prop","x":1992.0,"y":144,"width":0,"height":0,"rotation":0,"visible":true,"point":true,"properties":[{"name":"kind","type":"string","value":"rock.small"},{"name":"fw","type":"int","value":16},{"name":"fh","type":"int","value":16},{"name":"solid","type":"bool","value":false}]},{"id":55,"name":"rock.small#1","type":"prop","x":2008.0,"y":144,"width":0,"height":0,"rotation":0,"visible":true,"point":true,"properties":[{"name":"kind","type":"string","value":"rock.small"},{"name":"fw","type":"int","value":16},{"name":"fh","type":"int","value":16},{"name":"solid","type":"bool","value":false}]},{"id":56,"name":"rock.small#0","type":"prop","x":2024.0,"y":144,"width":0,"height":0,"rotation":0,"visible":true,"point":true,"properties":[{"name":"kind","type":"string","value":"rock.small"},{"name":"fw","type":"int","value":16},{"name":"fh","type":"int","value":16},{"name":"solid","type":"bool","value":false}]},{"id":57,"name":"rock.small#1","type":"prop","x":2040.0,"y":144,"width":0,"height":0,"rotation":0,"visible":true,"point":true,"properties":[{"name":"kind","type":"string","value":"rock.small"},{"name":"fw","type":"int","value":16},{"name":"fh","type":"int","value":16},{"name":"solid","type":"bool","value":false}]},{"id":58,"name":"rock.small#0","type":"prop","x":2056.0,"y":144,"width":0,"height":0,"rotation":0,"visible":true,"point":true,"properties":[{"name":"kind","type":"string","value":"rock.small"},{"name":"fw","type":"int","value":16},{"name":"fh","type":"int","value":16},{"name":"solid","type":"bool","value":false}]},{"id":59,"name":"rock.small#1","type":"prop","x":2072.0,"y":144,"width":0,"height":0,"rotation":0,"visible":true,"point":true,"properties":[{"name":"kind","type":"string","value":"rock.small"},{"name":"fw","type":"int","value":16},{"name":"fh","type":"int","value":16},{"name":"solid","type":"bool","value":false}]},{"id":60,"name":"rock.small#1","type":"prop","x":2088.0,"y":144,"width":0,"height":0,"rotation":0,"visible":true,"point":true,"properties":[{"name":"kind","type":"string","value":"rock.small"},{"name":"fw","type":"int","value":16},{"name":"fh","type":"int","value":16},{"name":"solid","type":"bool","value":false}]},{"id":61,"name":"rock.small#0","type":"prop","x":2104.0,"y":144,"width":0,"height":0,"rotation":0,"visible":true,"point":true,"properties":[{"name":"kind","type":"string","value":"rock.small"},{"name":"fw","type":"int","value":16},{"name":"fh","type":"int","value":16},{"name":"solid","type":"bool","value":false}]},{"id":62,"name":"rock.small#1","type":"prop","x":2120.0,"y":144,"width":0,"height":0,"rotation":0,"visible":true,"point":true,"properties":[{"name":"kind","type":"string","value":"rock.small"},{"name":"fw","type":"int","value":16},{"name":"fh","type":"int","value":16},{"name":"solid","type":"bool","value":false}]},{"id":63,"name":"rock.small#0","type":"prop","x":2136.0,"y":144,"width":0,"height":0,"rotation":0,"visible":true,"point":true,"properties":[{"name":"kind","type":"string","value":"rock.small"},{"name":"fw","type":"int","value":16},{"name":"fh","type":"int","value":16},{"name":"solid","type":"bool","value":false}]},{"id":64,"name":"rock.small#1","type":"prop","x":2152.0,"y":144,"width":0,"height":0,"rotation":0,"visible":true,"point":true,"properties":[{"name":"kind","type":"string","value":"rock.small"},{"name":"fw","type":"int","value":16},{"name":"fh","type":"int","value":16},{"name":"solid","type":"bool","value":false}]},{"id":65,"name":"rock.small#0","type":"prop","x":2168.0,"y":144,"width":0,"height":0,"rotation":0,"visible":true,"point":true,"properties":[{"name":"kind","type":"string","value":"rock.small"},{"name":"fw","type":"int","value":16},{"name":"fh","type":"int","value":16},{"name":"solid","type":"bool","value":false}]},{"id":66,"name":"rock.small#1","type":"prop","x":2184.0,"y":144,"width":0,"height":0,"rotation":0,"visible":true,"point":true,"properties":[{"name":"kind","type":"string","value":"rock.small"},{"name":"fw","type":"int","value":16},{"name":"fh","type":"int","value":16},{"name":"solid","type":"bool","value":false}]},{"id":67,"name":"rock.small#0","type":"prop","x":2200.0,"y":144,"width":0,"height":0,"rotation":0,"visible":true,"point":true,"properties":[{"name":"kind","type":"string","value":"rock.small"},{"name":"fw","type":"int","value":16},{"name":"fh","type":"int","value":16},{"name":"solid","type":"bool","value":false}]},{"id":68,"name":"rock.small#1","type":"prop","x":2216.0,"y":144,"width":0,"height":0,"rotation":0,"visible":true,"point":true,"properties":[{"name":"kind","type":"string","value":"rock.small"},{"name":"fw","type":"int","value":16},{"name":"fh","type":"int","value":16},{"name":"solid","type":"bool","value":false}]},{"id":69,"name":"rock.small#0","type":"prop","x":2232.0,"y":144,"width":0,"height":0,"rotation":0,"visible":true,"point":true,"properties":[{"name":"kind","type":"string","value":"rock.small"},{"name":"fw","type":"int","value":16},{"name":"fh","type":"int","value":16},{"name":"solid","type":"bool","value":false}]},{"id":70,"name":"rock.small#0","type":"prop","x":2248.0,"y":144,"width":0,"height":0,"rotation":0,"visible":true,"point":true,"properties":[{"name":"kind","type":"string","value":"rock.small"},{"name":"fw","type":"int","value":16},{"name":"fh","type":"int","value":16},{"name":"solid","type":"bool","value":false}]},{"id":71,"name":"rock.small#1","type":"prop","x":2264.0,"y":144,"width":0,"height":0,"rotation":0,"visible":true,"point":true,"properties":[{"name":"kind","type":"string","value":"rock.small"},{"name":"fw","type":"int","value":16},{"name":"fh","type":"int","value":16},{"name":"solid","type":"bool","value":false}]},{"id":72,"name":"rock.small#0","type":"prop","x":2280.0,"y":144,"width":0,"height":0,"rotation":0,"visible":true,"point":true,"properties":[{"name":"kind","type":"string","value":"rock.small"},{"name":"fw","type":"int","value":16},{"name":"fh","type":"int","value":16},{"name":"solid","type":"bool","value":false}]},{"id":73,"name":"rock.small#1","type":"prop","x":2296.0,"y":144,"width":0,"height":0,"rotation":0,"visible":true,"point":true,"properties":[{"name":"kind","type":"string","value":"rock.small"},{"name":"fw","type":"int","value":16},{"name":"fh","type":"int","value":16},{"name":"solid","type":"bool","value":false}]},{"id":74,"name":"rock.crag#0","type":"prop","x":1944.0,"y":544,"width":0,"height":0,"rotation":0,"visible":true,"point":true,"properties":[{"name":"kind","type":"string","value":"rock.crag"},{"name":"fw","type":"int","value":48},{"name":"fh","type":"int","value":32},{"name":"solid","type":"bool","value":true}]},{"id":75,"name":"rock.crag#0","type":"prop","x":2184.0,"y":544,"width":0,"height":0,"rotation":0,"visible":true,"point":true,"properties":[{"name":"kind","type":"string","value":"rock.crag"},{"name":"fw","type":"int","value":48},{"name":"fh","type":"int","value":32},{"name":"solid","type":"bool","value":true}]},{"id":76,"name":"rock.crag#1","type":"prop","x":2232.0,"y":544,"width":0,"height":0,"rotation":0,"visible":true,"point":true,"properties":[{"name":"kind","type":"string","value":"rock.crag"},{"name":"fw","type":"int","value":48},{"name":"fh","type":"int","value":32},{"name":"solid","type":"bool","value":true}]},{"id":77,"name":"rock.crag#1","type":"prop","x":2280.0,"y":544,"width":0,"height":0,"rotation":0,"visible":true,"point":true,"properties":[{"name":"kind","type":"string","value":"rock.crag"},{"name":"fw","type":"int","value":48},{"name":"fh","type":"int","value":32},{"name":"solid","type":"bool","value":true}]},{"id":78,"name":"rock.crag#0","type":"prop","x":1960.0,"y":576,"width":0,"height":0,"rotation":0,"visible":true,"point":true,"properties":[{"name":"kind","type":"string","value":"rock.crag"},{"name":"fw","type":"int","value":48},{"name":"fh","type":"int","value":32},{"name":"solid","type":"bool","value":true}]},{"id":79,"name":"rock.crag#1","type":"prop","x":2200.0,"y":576,"width":0,"height":0,"rotation":0,"visible":true,"point":true,"properties":[{"name":"kind","type":"string","value":"rock.crag"},{"name":"fw","type":"int","value":48},{"name":"fh","type":"int","value":32},{"name":"solid","type":"bool","value":true}]},{"id":80,"name":"rock.crag#1","type":"prop","x":2248.0,"y":576,"width":0,"height":0,"rotation":0,"visible":true,"point":true,"properties":[{"name":"kind","type":"string","value":"rock.crag"},{"name":"fw","type":"int","value":48},{"name":"fh","type":"int","value":32},{"name":"solid","type":"bool","value":true}]},{"id":81,"name":"rock.crag#1","type":"prop","x":1944.0,"y":608,"width":0,"height":0,"rotation":0,"visible":true,"point":true,"properties":[{"name":"kind","type":"string","value":"rock.crag"},{"name":"fw","type":"int","value":48},{"name":"fh","type":"int","value":32},{"name":"solid","type":"bool","value":true}]},{"id":82,"name":"rock.crag#1","type":"prop","x":1992.0,"y":608,"width":0,"height":0,"rotation":0,"visible":true,"point":true,"properties":[{"name":"kind","type":"string","value":"rock.crag"},{"name":"fw","type":"int","value":48},{"name":"fh","type":"int","value":32},{"name":"solid","type":"bool","value":true}]},{"id":83,"name":"rock.crag#1","type":"prop","x":2040.0,"y":608,"width":0,"height":0,"rotation":0,"visible":true,"point":true,"properties":[{"name":"kind","type":"string","value":"rock.crag"},{"name":"fw","type":"int","value":48},{"name":"fh","type":"int","value":32},{"name":"solid","type":"bool","value":true}]},{"id":84,"name":"rock.crag#1","type":"prop","x":2088.0,"y":608,"width":0,"height":0,"rotation":0,"visible":true,"point":true,"properties":[{"name":"kind","type":"string","value":"rock.crag"},{"name":"fw","type":"int","value":48},{"name":"fh","type":"int","value":32},{"name":"solid","type":"bool","value":true}]},{"id":85,"name":"rock.crag#0","type":"prop","x":2136.0,"y":608,"width":0,"height":0,"rotation":0,"visible":true,"point":true,"properties":[{"name":"kind","type":"string","value":"rock.crag"},{"name":"fw","type":"int","value":48},{"name":"fh","type":"int","value":32},{"name":"solid","type":"bool","value":true}]},{"id":86,"name":"rock.crag#1","type":"prop","x":2184.0,"y":608,"width":0,"height":0,"rotation":0,"visible":true,"point":true,"properties":[{"name":"kind","type":"string","value":"rock.crag"},{"name":"fw","type":"int","value":48},{"name":"fh","type":"int","value":32},{"name":"solid","type":"bool","value":true}]},{"id":87,"name":"rock.crag#0","type":"prop","x":2232.0,"y":608,"width":0,"height":0,"rotation":0,"visible":true,"point":true,"properties":[{"name":"kind","type":"string","value":"rock.crag"},{"name":"fw","type":"int","value":48},{"name":"fh","type":"int","value":32},{"name":"solid","type":"bool","value":true}]},{"id":88,"name":"rock.crag#0","type":"prop","x":2280.0,"y":608,"width":0,"height":0,"rotation":0,"visible":true,"point":true,"properties":[{"name":"kind","type":"string","value":"rock.crag"},{"name":"fw","type":"int","value":48},{"name":"fh","type":"int","value":32},{"name":"solid","type":"bool","value":true}]},{"id":89,"name":"rock.crag#1","type":"prop","x":1960.0,"y":640,"width":0,"height":0,"rotation":0,"visible":true,"point":true,"properties":[{"name":"kind","type":"string","value":"rock.crag"},{"name":"fw","type":"int","value":48},{"name":"fh","type":"int","value":32},{"name":"solid","type":"bool","value":true}]},{"id":90,"name":"rock.crag#1","type":"prop","x":2008.0,"y":640,"width":0,"height":0,"rotation":0,"visible":true,"point":true,"properties":[{"name":"kind","type":"string","value":"rock.crag"},{"name":"fw","type":"int","value":48},{"name":"fh","type":"int","value":32},{"name":"solid","type":"bool","value":true}]},{"id":91,"name":"rock.crag#1","type":"prop","x":2056.0,"y":640,"width":0,"height":0,"rotation":0,"visible":true,"point":true,"properties":[{"name":"kind","type":"string","value":"rock.crag"},{"name":"fw","type":"int","value":48},{"name":"fh","type":"int","value":32},{"name":"solid","type":"bool","value":true}]},{"id":92,"name":"rock.crag#0","type":"prop","x":2104.0,"y":640,"width":0,"height":0,"rotation":0,"visible":true,"point":true,"properties":[{"name":"kind","type":"string","value":"rock.crag"},{"name":"fw","type":"int","value":48},{"name":"fh","type":"int","value":32},{"name":"solid","type":"bool","value":true}]},{"id":93,"name":"rock.crag#0","type":"prop","x":2152.0,"y":640,"width":0,"height":0,"rotation":0,"visible":true,"point":true,"properties":[{"name":"kind","type":"string","value":"rock.crag"},{"name":"fw","type":"int","value":48},{"name":"fh","type":"int","value":32},{"name":"solid","type":"bool","value":true}]},{"id":94,"name":"rock.crag#0","type":"prop","x":2200.0,"y":640,"width":0,"height":0,"rotation":0,"visible":true,"point":true,"properties":[{"name":"kind","type":"string","value":"rock.crag"},{"name":"fw","type":"int","value":48},{"name":"fh","type":"int","value":32},{"name":"solid","type":"bool","value":true}]},{"id":95,"name":"rock.crag#0","type":"prop","x":2248.0,"y":640,"width":0,"height":0,"rotation":0,"visible":true,"point":true,"properties":[{"name":"kind","type":"string","value":"rock.crag"},{"name":"fw","type":"int","value":48},{"name":"fh","type":"int","value":32},{"name":"solid","type":"bool","value":true}]},{"id":96,"name":"rock.small#0","type":"prop","x":1912.0,"y":528,"width":0,"height":0,"rotation":0,"visible":true,"point":true,"properties":[{"name":"kind","type":"string","value":"rock.small"},{"name":"fw","type":"int","value":16},{"name":"fh","type":"int","value":16},{"name":"solid","type":"bool","value":false}]},{"id":97,"name":"rock.small#0","type":"prop","x":1912.0,"y":544,"width":0,"height":0,"rotation":0,"visible":true,"point":true,"properties":[{"name":"kind","type":"string","value":"rock.small"},{"name":"fw","type":"int","value":16},{"name":"fh","type":"int","value":16},{"name":"solid","type":"bool","value":false}]},{"id":98,"name":"rock.small#1","type":"prop","x":1912.0,"y":560,"width":0,"height":0,"rotation":0,"visible":true,"point":true,"properties":[{"name":"kind","type":"string","value":"rock.small"},{"name":"fw","type":"int","value":16},{"name":"fh","type":"int","value":16},{"name":"solid","type":"bool","value":false}]},{"id":99,"name":"rock.small#1","type":"prop","x":1912.0,"y":576,"width":0,"height":0,"rotation":0,"visible":true,"point":true,"properties":[{"name":"kind","type":"string","value":"rock.small"},{"name":"fw","type":"int","value":16},{"name":"fh","type":"int","value":16},{"name":"solid","type":"bool","value":false}]},{"id":100,"name":"rock.small#0","type":"prop","x":1928.0,"y":512,"width":0,"height":0,"rotation":0,"visible":true,"point":true,"properties":[{"name":"kind","type":"string","value":"rock.small"},{"name":"fw","type":"int","value":16},{"name":"fh","type":"int","value":16},{"name":"solid","type":"bool","value":false}]},{"id":101,"name":"rock.small#1","type":"prop","x":1944.0,"y":512,"width":0,"height":0,"rotation":0,"visible":true,"point":true,"properties":[{"name":"kind","type":"string","value":"rock.small"},{"name":"fw","type":"int","value":16},{"name":"fh","type":"int","value":16},{"name":"solid","type":"bool","value":false}]},{"id":102,"name":"rock.small#1","type":"prop","x":1960.0,"y":512,"width":0,"height":0,"rotation":0,"visible":true,"point":true,"properties":[{"name":"kind","type":"string","value":"rock.small"},{"name":"fw","type":"int","value":16},{"name":"fh","type":"int","value":16},{"name":"solid","type":"bool","value":false}]},{"id":103,"name":"rock.small#0","type":"prop","x":1976.0,"y":512,"width":0,"height":0,"rotation":0,"visible":true,"point":true,"properties":[{"name":"kind","type":"string","value":"rock.small"},{"name":"fw","type":"int","value":16},{"name":"fh","type":"int","value":16},{"name":"solid","type":"bool","value":false}]},{"id":104,"name":"rock.small#1","type":"prop","x":1992.0,"y":512,"width":0,"height":0,"rotation":0,"visible":true,"point":true,"properties":[{"name":"kind","type":"string","value":"rock.small"},{"name":"fw","type":"int","value":16},{"name":"fh","type":"int","value":16},{"name":"solid","type":"bool","value":false}]},{"id":105,"name":"rock.small#0","type":"prop","x":2168.0,"y":512,"width":0,"height":0,"rotation":0,"visible":true,"point":true,"properties":[{"name":"kind","type":"string","value":"rock.small"},{"name":"fw","type":"int","value":16},{"name":"fh","type":"int","value":16},{"name":"solid","type":"bool","value":false}]},{"id":106,"name":"rock.small#0","type":"prop","x":2184.0,"y":512,"width":0,"height":0,"rotation":0,"visible":true,"point":true,"properties":[{"name":"kind","type":"string","value":"rock.small"},{"name":"fw","type":"int","value":16},{"name":"fh","type":"int","value":16},{"name":"solid","type":"bool","value":false}]},{"id":107,"name":"rock.small#1","type":"prop","x":2200.0,"y":512,"width":0,"height":0,"rotation":0,"visible":true,"point":true,"properties":[{"name":"kind","type":"string","value":"rock.small"},{"name":"fw","type":"int","value":16},{"name":"fh","type":"int","value":16},{"name":"solid","type":"bool","value":false}]},{"id":108,"name":"rock.small#1","type":"prop","x":2216.0,"y":512,"width":0,"height":0,"rotation":0,"visible":true,"point":true,"properties":[{"name":"kind","type":"string","value":"rock.small"},{"name":"fw","type":"int","value":16},{"name":"fh","type":"int","value":16},{"name":"solid","type":"bool","value":false}]},{"id":109,"name":"rock.small#0","type":"prop","x":2232.0,"y":512,"width":0,"height":0,"rotation":0,"visible":true,"point":true,"properties":[{"name":"kind","type":"string","value":"rock.small"},{"name":"fw","type":"int","value":16},{"name":"fh","type":"int","value":16},{"name":"solid","type":"bool","value":false}]},{"id":110,"name":"rock.small#0","type":"prop","x":2248.0,"y":512,"width":0,"height":0,"rotation":0,"visible":true,"point":true,"properties":[{"name":"kind","type":"string","value":"rock.small"},{"name":"fw","type":"int","value":16},{"name":"fh","type":"int","value":16},{"name":"solid","type":"bool","value":false}]},{"id":111,"name":"rock.small#1","type":"prop","x":2264.0,"y":512,"width":0,"height":0,"rotation":0,"visible":true,"point":true,"properties":[{"name":"kind","type":"string","value":"rock.small"},{"name":"fw","type":"int","value":16},{"name":"fh","type":"int","value":16},{"name":"solid","type":"bool","value":false}]},{"id":112,"name":"rock.small#1","type":"prop","x":2280.0,"y":512,"width":0,"height":0,"rotation":0,"visible":true,"point":true,"properties":[{"name":"kind","type":"string","value":"rock.small"},{"name":"fw","type":"int","value":16},{"name":"fh","type":"int","value":16},{"name":"solid","type":"bool","value":false}]},{"id":113,"name":"rock.small#0","type":"prop","x":2296.0,"y":512,"width":0,"height":0,"rotation":0,"visible":true,"point":true,"properties":[{"name":"kind","type":"string","value":"rock.small"},{"name":"fw","type":"int","value":16},{"name":"fh","type":"int","value":16},{"name":"solid","type":"bool","value":false}]},{"id":114,"name":"rock.small#1","type":"prop","x":504.0,"y":256,"width":0,"height":0,"rotation":0,"visible":true,"point":true,"properties":[{"name":"kind","type":"string","value":"rock.small"},{"name":"fw","type":"int","value":16},{"name":"fh","type":"int","value":16},{"name":"solid","type":"bool","value":false}]},{"id":115,"name":"rock.small#0","type":"prop","x":1560.0,"y":128,"width":0,"height":0,"rotation":0,"visible":true,"point":true,"properties":[{"name":"kind","type":"string","value":"rock.small"},{"name":"fw","type":"int","value":16},{"name":"fh","type":"int","value":16},{"name":"solid","type":"bool","value":false}]},{"id":116,"name":"rock.small#0","type":"prop","x":56.0,"y":80,"width":0,"height":0,"rotation":0,"visible":true,"point":true,"properties":[{"name":"kind","type":"string","value":"rock.small"},{"name":"fw","type":"int","value":16},{"name":"fh","type":"int","value":16},{"name":"solid","type":"bool","value":false}]},{"id":117,"name":"rock.small#1","type":"prop","x":1208.0,"y":544,"width":0,"height":0,"rotation":0,"visible":true,"point":true,"properties":[{"name":"kind","type":"string","value":"rock.small"},{"name":"fw","type":"int","value":16},{"name":"fh","type":"int","value":16},{"name":"solid","type":"bool","value":false}]},{"id":118,"name":"rock.small#0","type":"prop","x":1352.0,"y":336,"width":0,"height":0,"rotation":0,"visible":true,"point":true,"properties":[{"name":"kind","type":"string","value":"rock.small"},{"name":"fw","type":"int","value":16},{"name":"fh","type":"int","value":16},{"name":"solid","type":"bool","value":false}]},{"id":119,"name":"rock.small#1","type":"prop","x":312.0,"y":528,"width":0,"height":0,"rotation":0,"visible":true,"point":true,"properties":[{"name":"kind","type":"string","value":"rock.small"},{"name":"fw","type":"int","value":16},{"name":"fh","type":"int","value":16},{"name":"solid","type":"bool","value":false}]},{"id":120,"name":"rock.small#1","type":"prop","x":2200.0,"y":208,"width":0,"height":0,"rotation":0,"visible":true,"point":true,"properties":[{"name":"kind","type":"string","value":"rock.small"},{"name":"fw","type":"int","value":16},{"name":"fh","type":"int","value":16},{"name":"solid","type":"bool","value":false}]},{"id":121,"name":"rock.small#0","type":"prop","x":200.0,"y":176,"width":0,"height":0,"rotation":0,"visible":true,"point":true,"properties":[{"name":"kind","type":"string","value":"rock.small"},{"name":"fw","type":"int","value":16},{"name":"fh","type":"int","value":16},{"name":"solid","type":"bool","value":false}]},{"id":122,"name":"rock.small#0","type":"prop","x":936.0,"y":144,"width":0,"height":0,"rotation":0,"visible":true,"point":true,"properties":[{"name":"kind","type":"string","value":"rock.small"},{"name":"fw","type":"int","value":16},{"name":"fh","type":"int","value":16},{"name":"solid","type":"bool","value":false}]},{"id":123,"name":"rock.small#1","type":"prop","x":2008.0,"y":256,"width":0,"height":0,"rotation":0,"visible":true,"point":true,"properties":[{"name":"kind","type":"string","value":"rock.small"},{"name":"fw","type":"int","value":16},{"name":"fh","type":"int","value":16},{"name":"solid","type":"bool","value":false}]},{"id":124,"name":"rock.small#0","type":"prop","x":744.0,"y":384,"width":0,"height":0,"rotation":0,"visible":true,"point":true,"properties":[{"name":"kind","type":"string","value":"rock.small"},{"name":"fw","type":"int","value":16},{"name":"fh","type":"int","value":16},{"name":"solid","type":"bool","value":false}]},{"id":125,"name":"rock.small#0","type":"prop","x":1592.0,"y":80,"width":0,"height":0,"rotation":0,"visible":true,"point":true,"properties":[{"name":"kind","type":"string","value":"rock.small"},{"name":"fw","type":"int","value":16},{"name":"fh","type":"int","value":16},{"name":"solid","type":"bool","value":false}]},{"id":126,"name":"rock.small#0","type":"prop","x":920.0,"y":528,"width":0,"height":0,"rotation":0,"visible":true,"point":true,"properties":[{"name":"kind","type":"string","value":"rock.small"},{"name":"fw","type":"int","value":16},{"name":"fh","type":"int","value":16},{"name":"solid","type":"bool","value":false}]},{"id":127,"name":"rock.small#0","type":"prop","x":968.0,"y":336,"width":0,"height":0,"rotation":0,"visible":true,"point":true,"properties":[{"name":"kind","type":"string","value":"rock.small"},{"name":"fw","type":"int","value":16},{"name":"fh","type":"int","value":16},{"name":"solid","type":"bool","value":false}]},{"id":128,"name":"rock.small#0","type":"prop","x":104.0,"y":144,"width":0,"height":0,"rotation":0,"visible":true,"point":true,"properties":[{"name":"kind","type":"string","value":"rock.small"},{"name":"fw","type":"int","value":16},{"name":"fh","type":"int","value":16},{"name":"solid","type":"bool","value":false}]},{"id":129,"name":"rock.small#0","type":"prop","x":1576.0,"y":464,"width":0,"height":0,"rotation":0,"visible":true,"point":true,"properties":[{"name":"kind","type":"string","value":"rock.small"},{"name":"fw","type":"int","value":16},{"name":"fh","type":"int","value":16},{"name":"solid","type":"bool","value":false}]},{"id":130,"name":"rock.small#0","type":"prop","x":1208.0,"y":336,"width":0,"height":0,"rotation":0,"visible":true,"point":true,"properties":[{"name":"kind","type":"string","value":"rock.small"},{"name":"fw","type":"int","value":16},{"name":"fh","type":"int","value":16},{"name":"solid","type":"bool","value":false}]},{"id":131,"name":"rock.small#0","type":"prop","x":120.0,"y":128,"width":0,"height":0,"rotation":0,"visible":true,"point":true,"properties":[{"name":"kind","type":"string","value":"rock.small"},{"name":"fw","type":"int","value":16},{"name":"fh","type":"int","value":16},{"name":"solid","type":"bool","value":false}]},{"id":132,"name":"rock.small#1","type":"prop","x":440.0,"y":112,"width":0,"height":0,"rotation":0,"visible":true,"point":true,"properties":[{"name":"kind","type":"string","value":"rock.small"},{"name":"fw","type":"int","value":16},{"name":"fh","type":"int","value":16},{"name":"solid","type":"bool","value":false}]},{"id":133,"name":"rock.small#1","type":"prop","x":328.0,"y":160,"width":0,"height":0,"rotation":0,"visible":true,"point":true,"properties":[{"name":"kind","type":"string","value":"rock.small"},{"name":"fw","type":"int","value":16},{"name":"fh","type":"int","value":16},{"name":"solid","type":"bool","value":false}]},{"id":134,"name":"tree.dead#0","type":"prop","x":424.0,"y":480,"width":0,"height":0,"rotation":0,"visible":true,"point":true,"properties":[{"name":"kind","type":"string","value":"tree.dead"},{"name":"fw","type":"int","value":16},{"name":"fh","type":"int","value":16},{"name":"solid","type":"bool","value":true}]},{"id":135,"name":"tree.dead#0","type":"prop","x":184.0,"y":192,"width":0,"height":0,"rotation":0,"visible":true,"point":true,"properties":[{"name":"kind","type":"string","value":"tree.dead"},{"name":"fw","type":"int","value":16},{"name":"fh","type":"int","value":16},{"name":"solid","type":"bool","value":true}]},{"id":136,"name":"tree.dead#0","type":"prop","x":1848.0,"y":208,"width":0,"height":0,"rotation":0,"visible":true,"point":true,"properties":[{"name":"kind","type":"string","value":"tree.dead"},{"name":"fw","type":"int","value":16},{"name":"fh","type":"int","value":16},{"name":"solid","type":"bool","value":true}]},{"id":137,"name":"tree.dead#1","type":"prop","x":1688.0,"y":96,"width":0,"height":0,"rotation":0,"visible":true,"point":true,"properties":[{"name":"kind","type":"string","value":"tree.dead"},{"name":"fw","type":"int","value":16},{"name":"fh","type":"int","value":16},{"name":"solid","type":"bool","value":true}]},{"id":138,"name":"tree.dead#1","type":"prop","x":1944.0,"y":320,"width":0,"height":0,"rotation":0,"visible":true,"point":true,"properties":[{"name":"kind","type":"string","value":"tree.dead"},{"name":"fw","type":"int","value":16},{"name":"fh","type":"int","value":16},{"name":"solid","type":"bool","value":true}]},{"id":139,"name":"tree.dead#1","type":"prop","x":24.0,"y":400,"width":0,"height":0,"rotation":0,"visible":true,"point":true,"properties":[{"name":"kind","type":"string","value":"tree.dead"},{"name":"fw","type":"int","value":16},{"name":"fh","type":"int","value":16},{"name":"solid","type":"bool","value":true}]},{"id":140,"name":"tree.dead#0","type":"prop","x":808.0,"y":560,"width":0,"height":0,"rotation":0,"visible":true,"point":true,"properties":[{"name":"kind","type":"string","value":"tree.dead"},{"name":"fw","type":"int","value":16},{"name":"fh","type":"int","value":16},{"name":"solid","type":"bool","value":true}]},{"id":141,"name":"tree.dead#0","type":"prop","x":168.0,"y":128,"width":0,"height":0,"rotation":0,"visible":true,"point":true,"properties":[{"name":"kind","type":"string","value":"tree.dead"},{"name":"fw","type":"int","value":16},{"name":"fh","type":"int","value":16},{"name":"solid","type":"bool","value":true}]},{"id":142,"name":"","type":"prop","x":1120.0,"y":384,"width":0,"height":0,"rotation":0,"visible":true,"point":true,"properties":[{"name":"kind","type":"string","value":"wall"},{"name":"fw","type":"int","value":96},{"name":"fh","type":"int","value":16},{"name":"solid","type":"bool","value":true}]},{"id":143,"name":"","type":"prop","x":1248.0,"y":384,"width":0,"height":0,"rotation":0,"visible":true,"point":true,"properties":[{"name":"kind","type":"string","value":"wall"},{"name":"fw","type":"int","value":96},{"name":"fh","type":"int","value":16},{"name":"solid","type":"bool","value":true}]},{"id":144,"name":"","type":"prop","x":1080.0,"y":400,"width":0,"height":0,"rotation":0,"visible":true,"point":true,"properties":[{"name":"kind","type":"string","value":"wall"},{"name":"fw","type":"int","value":16},{"name":"fh","type":"int","value":16},{"name":"solid","type":"bool","value":true}]},{"id":145,"name":"","type":"prop","x":1288.0,"y":400,"width":0,"height":0,"rotation":0,"visible":true,"point":true,"properties":[{"name":"kind","type":"string","value":"wall"},{"name":"fw","type":"int","value":16},{"name":"fh","type":"int","value":16},{"name":"solid","type":"bool","value":true}]},{"id":146,"name":"","type":"prop","x":1080.0,"y":416,"width":0,"height":0,"rotation":0,"visible":true,"point":true,"properties":[{"name":"kind","type":"string","value":"wall"},{"name":"fw","type":"int","value":16},{"name":"fh","type":"int","value":16},{"name":"solid","type":"bool","value":true}]},{"id":147,"name":"","type":"prop","x":1288.0,"y":416,"width":0,"height":0,"rotation":0,"visible":true,"point":true,"properties":[{"name":"kind","type":"string","value":"wall"},{"name":"fw","type":"int","value":16},{"name":"fh","type":"int","value":16},{"name":"solid","type":"bool","value":true}]},{"id":148,"name":"","type":"prop","x":1080.0,"y":432,"width":0,"height":0,"rotation":0,"visible":true,"point":true,"properties":[{"name":"kind","type":"string","value":"wall"},{"name":"fw","type":"int","value":16},{"name":"fh","type":"int","value":16},{"name":"solid","type":"bool","value":true}]},{"id":149,"name":"","type":"prop","x":1288.0,"y":432,"width":0,"height":0,"rotation":0,"visible":true,"point":true,"properties":[{"name":"kind","type":"string","value":"wall"},{"name":"fw","type":"int","value":16},{"name":"fh","type":"int","value":16},{"name":"solid","type":"bool","value":true}]},{"id":150,"name":"","type":"prop","x":1080.0,"y":448,"width":0,"height":0,"rotation":0,"visible":true,"point":true,"properties":[{"name":"kind","type":"string","value":"wall"},{"name":"fw","type":"int","value":16},{"name":"fh","type":"int","value":16},{"name":"solid","type":"bool","value":true}]},{"id":151,"name":"","type":"prop","x":1288.0,"y":448,"width":0,"height":0,"rotation":0,"visible":true,"point":true,"properties":[{"name":"kind","type":"string","value":"wall"},{"name":"fw","type":"int","value":16},{"name":"fh","type":"int","value":16},{"name":"solid","type":"bool","value":true}]},{"id":152,"name":"","type":"prop","x":1080.0,"y":464,"width":0,"height":0,"rotation":0,"visible":true,"point":true,"properties":[{"name":"kind","type":"string","value":"wall"},{"name":"fw","type":"int","value":16},{"name":"fh","type":"int","value":16},{"name":"solid","type":"bool","value":true}]},{"id":153,"name":"","type":"prop","x":1288.0,"y":464,"width":0,"height":0,"rotation":0,"visible":true,"point":true,"properties":[{"name":"kind","type":"string","value":"wall"},{"name":"fw","type":"int","value":16},{"name":"fh","type":"int","value":16},{"name":"solid","type":"bool","value":true}]},{"id":154,"name":"","type":"prop","x":1080.0,"y":480,"width":0,"height":0,"rotation":0,"visible":true,"point":true,"properties":[{"name":"kind","type":"string","value":"wall"},{"name":"fw","type":"int","value":16},{"name":"fh","type":"int","value":16},{"name":"solid","type":"bool","value":true}]},{"id":155,"name":"","type":"prop","x":1288.0,"y":480,"width":0,"height":0,"rotation":0,"visible":true,"point":true,"properties":[{"name":"kind","type":"string","value":"wall"},{"name":"fw","type":"int","value":16},{"name":"fh","type":"int","value":16},{"name":"solid","type":"bool","value":true}]},{"id":156,"name":"","type":"prop","x":1080.0,"y":496,"width":0,"height":0,"rotation":0,"visible":true,"point":true,"properties":[{"name":"kind","type":"string","value":"wall"},{"name":"fw","type":"int","value":16},{"name":"fh","type":"int","value":16},{"name":"solid","type":"bool","value":true}]},{"id":157,"name":"","type":"prop","x":1288.0,"y":496,"width":0,"height":0,"rotation":0,"visible":true,"point":true,"properties":[{"name":"kind","type":"string","value":"wall"},{"name":"fw","type":"int","value":16},{"name":"fh","type":"int","value":16},{"name":"solid","type":"bool","value":true}]},{"id":158,"name":"","type":"prop","x":1080.0,"y":512,"width":0,"height":0,"rotation":0,"visible":true,"point":true,"properties":[{"name":"kind","type":"string","value":"wall"},{"name":"fw","type":"int","value":16},{"name":"fh","type":"int","value":16},{"name":"solid","type":"bool","value":true}]},{"id":159,"name":"","type":"prop","x":1288.0,"y":512,"width":0,"height":0,"rotation":0,"visible":true,"point":true,"properties":[{"name":"kind","type":"string","value":"wall"},{"name":"fw","type":"int","value":16},{"name":"fh","type":"int","value":16},{"name":"solid","type":"bool","value":true}]},{"id":160,"name":"","type":"prop","x":1184.0,"y":528,"width":0,"height":0,"rotation":0,"visible":true,"point":true,"properties":[{"name":"kind","type":"string","value":"wall"},{"name":"fw","type":"int","value":224},{"name":"fh","type":"int","value":16},{"name":"solid","type":"bool","value":true}]},{"id":161,"name":"camp","type":"spot","x":408.0,"y":283.2,"width":0,"height":0,"rotation":0,"visible":true,"point":true,"properties":[{"name":"node","type":"string","value":"12-a16"},{"name":"label","type":"string","value":"Li Jue's camp"},{"name":"label_zh","type":"string","value":"李傕营"}]},{"id":162,"name":"v1","type":"spot","x":856.0,"y":219.2,"width":0,"height":0,"rotation":0,"visible":true,"point":true,"properties":[{"name":"node","type":"string","value":"12-a16a"},{"name":"label","type":"string","value":"The herders' village"},{"name":"label_zh","type":"string","value":"牧人村"}]},{"id":163,"name":"v2","type":"spot","x":1176.0,"y":411.2,"width":0,"height":0,"rotation":0,"visible":true,"point":true,"properties":[{"name":"node","type":"string","value":"12-a16b"},{"name":"label","type":"string","value":"The walled farm"},{"name":"label_zh","type":"string","value":"庄堡"}]},{"id":164,"name":"v3","type":"spot","x":1688.0,"y":347.2,"width":0,"height":0,"rotation":0,"visible":true,"point":true,"properties":[{"name":"node","type":"string","value":"12-a16c"},{"name":"label","type":"string","value":"The post town"},{"name":"label_zh","type":"string","value":"驿镇"}]},{"id":165,"name":"march","type":"spot","x":1880.0,"y":347.2,"width":0,"height":0,"rotation":0,"visible":true,"point":true,"properties":[{"name":"node","type":"string","value":"12-a16m"},{"name":"label","type":"string","value":"The road east"},{"name":"label_zh","type":"string","value":"东去之路"}]},{"id":166,"name":"rengu","type":"spot","x":2072.0,"y":347.2,"width":0,"height":0,"rotation":0,"visible":true,"point":true,"properties":[{"name":"node","type":"string","value":"12-a17"},{"name":"label","type":"string","value":"The mouth of Ren Valley"},{"name":"label_zh","type":"string","value":"任谷口"}]},{"id":167,"name":"npc-1","type":"npc","x":1176.0,"y":350.4,"width":0,"height":0,"rotation":0,"visible":true,"point":true,"properties":[{"name":"kind","type":"string","value":"folk.soldier"},{"name":"sprite","type":"string","value":"f_soldier"},{"name":"wander","type":"bool","value":false},{"name":"drawn","type":"bool","value":true},{"name":"say","type":"string","value":"[[\"n\", \"“No pardon. The envoy came back with nothing. I'm going home to my mother.”\", \"“求赦不得。使者空手回来了。我要回家找我娘去。”\", \"8551622fbda8\"]]"},{"name":"in","type":"string","value":"[\"rumour\"]"}]},{"id":168,"name":"npc-2","type":"npc","x":808.0,"y":190.4,"width":0,"height":0,"rotation":0,"visible":true,"point":true,"properties":[{"name":"kind","type":"string","value":"folk.elder"},{"name":"sprite","type":"string","value":"f_elder"},{"name":"wander","type":"bool","value":false},{"name":"drawn","type":"bool","value":true},{"name":"say","type":"string","value":"[[\"n\", \"“Wang Yun? A man of the east. What does he know of Liangzhou?”\", \"“王允？一个东边人。他懂什么凉州？”\", \"1f501f04054a\"]]"},{"name":"until","type":"string","value":"12-a16a"},{"name":"in","type":"string","value":"[\"rumour\"]"}]},{"id":169,"name":"npc-3","type":"npc","x":792.0,"y":206.4,"width":0,"height":0,"rotation":0,"visible":true,"point":true,"properties":[{"name":"kind","type":"string","value":"folk.elder"},{"name":"sprite","type":"string","value":"f_elder"},{"name":"wander","type":"bool","value":false},{"name":"drawn","type":"bool","value":true},{"name":"say","type":"string","value":"[[\"n\", \"“Then we're dead men either way. Better on horseback.”\", \"“那横竖都是死。死在马背上强些。”\", \"2ce21b85c9ff\"]]"},{"name":"when","type":"string","value":"node:a16a"}]},{"id":170,"name":"npc-4","type":"npc","x":1192.0,"y":494.4,"width":0,"height":0,"rotation":0,"visible":true,"point":true,"properties":[{"name":"kind","type":"string","value":"folk.woman"},{"name":"sprite","type":"string","value":"folk.woman#1"},{"name":"wander","type":"bool","value":false},{"name":"say","type":"string","value":"[[\"n\", \"“We have a wall. Walls kept out the Qiang. Will they keep out Chang'an?”\", \"“我们有墙。墙挡得住羌人。挡得住长安吗？”\", \"5276cd695cf5\"]]"}]},{"id":171,"name":"npc-5","type":"npc","x":1192.0,"y":350.4,"width":0,"height":0,"rotation":0,"visible":true,"point":true,"properties":[{"name":"kind","type":"string","value":"folk.soldier"},{"name":"sprite","type":"string","value":"f_soldier"},{"name":"wander","type":"bool","value":true},{"name":"drawn","type":"bool","value":true},{"name":"say","type":"string","value":"[[\"n\", \"“Better die marching than in our beds.”\", \"“死在行军路上，强过死在床上。”\", \"73b52fd08031\"]]"}]},{"id":172,"name":"headman","type":"npc","x":984.0,"y":286.4,"width":0,"height":0,"rotation":0,"visible":true,"point":true,"properties":[{"name":"kind","type":"string","value":"folk.elder"},{"name":"sprite","type":"string","value":"f_elder"},{"name":"wander","type":"bool","value":false},{"name":"drawn","type":"bool","value":true},{"name":"say","type":"string","value":"[]"},{"name":"challenge","type":"string","value":"headman"},{"name":"until","type":"string","value":"12-a16b"},{"name":"when","type":"string","value":"node:a16a"},{"name":"view","type":"string","value":"4"},{"name":"intro","type":"string","value":"[[\"n\", \"A headman sits on a stone by the road, a stick across his knees. “You're spreading tales from Chang'an. Convince me first.”\", \"一个乡老坐在路边石上，膝上横着一根棍子。“你们在传长安来的话。先说服我。”\", \"83c7300cce49\"]]"},{"name":"win","type":"string","value":"[[\"n\", \"“…Then it's true. I'll tell the others myself.”\", \"“……那就是真的了。我亲自去告诉大家。”\", \"2f8178f2e3a1\"]]"},{"name":"done","type":"string","value":"[[\"n\", \"“I've told them. They're coming.”\", \"“我已经告诉他们了。他们都来了。”\", \"1cab71e29afa\"]]"}]},{"id":173,"name":"constable","type":"npc","x":1624.0,"y":350.4,"width":0,"height":0,"rotation":0,"visible":true,"point":true,"properties":[{"name":"kind","type":"string","value":"folk.official"},{"name":"sprite","type":"string","value":"f_official"},{"name":"wander","type":"bool","value":false},{"name":"drawn","type":"bool","value":true},{"name":"say","type":"string","value":"[]"},{"name":"challenge","type":"string","value":"constable"},{"name":"until","type":"string","value":"12-a16c"},{"name":"when","type":"string","value":"node:a16b"},{"name":"view","type":"string","value":"4"},{"name":"guard_x","type":"float","value":1688.0},{"name":"guard_y","type":"float","value":344.0},{"name":"intro","type":"string","value":"[[\"n\", \"The constable stands at the pavilion, arms folded. “A man without an army is just a man on a road. I've tied up better.”\", \"亭长站在亭前，抱着胳膊。“没兵的人，不过是路上一个人。比你强的我也绑过。”\", \"161d64cab8a4\"]]"},{"name":"win","type":"string","value":"[[\"n\", \"“…That's no road gang behind you. That's Liangzhou.”\", \"“……你身后不是一伙路匪。那是整个凉州。”\", \"0ee7c0e803a4\"]]"},{"name":"done","type":"string","value":"[[\"n\", \"The constable has taken down his rope.\", \"亭长已经收起了绳子。\", \"005aadc21b85\"]]"}]},{"id":174,"name":"scout","type":"npc","x":1960.0,"y":286.4,"width":0,"height":0,"rotation":0,"visible":true,"point":true,"properties":[{"name":"kind","type":"string","value":"folk.soldier"},{"name":"sprite","type":"string","value":"f_soldier"},{"name":"wander","type":"bool","value":false},{"name":"drawn","type":"bool","value":true},{"name":"say","type":"string","value":"[]"},{"name":"challenge","type":"string","value":"scout"},{"name":"until","type":"string","value":"12-a17"},{"name":"when","type":"string","value":"node:a16m"},{"name":"view","type":"string","value":"4"},{"name":"intro","type":"string","value":"[[\"n\", \"A scout calls down from his post on the hill. “General! Lü Bu's dust on the east road. Want to know how many?”\", \"一个斥候在山上的哨位朝下喊。“将军！东路上有吕布的尘头。要知道有多少人吗？”\", \"58eba3cfb378\"]]"},{"name":"win","type":"string","value":"[[\"n\", \"“Then you know as well as I do. Ready the gongs and drums.”\", \"“那你和我一样清楚了。备好金鼓。”\", \"e11b0d2d9cc5\"]]"},{"name":"done","type":"string","value":"[[\"n\", \"The scout watches the east road.\", \"斥候望着东路。\", \"3661b05d7f14\"]]"}]},{"id":175,"name":"exit-meiwu","type":"exit","x":2288,"y":320,"width":16,"height":64,"rotation":0,"visible":true,"properties":[{"name":"to","type":"string","value":"meiwu"},{"name":"side","type":"string","value":"E"}]},{"id":176,"name":"entry-meiwu","type":"entry","x":2200.0,"y":350.4,"width":0,"height":0,"rotation":0,"visible":true,"point":true,"properties":[{"name":"from","type":"string","value":"meiwu"}]},{"id":177,"name":"entry","type":"entry","x":152.0,"y":350.4,"width":0,"height":0,"rotation":0,"visible":true,"point":true}]}]}